P3
256 256
255
148 148 148 195 195 195 147 147 147 134 134 134 134 134 134 143 143 143 127 127 127 140 140 140 158 158 158 150 150 150 138 138 138 135 135 135 137 137 137 167 167 167 112 112 112 141 141 141 127 127 127 116 116 116 116 116 116 116 116 116 116 116 116 127 127 127 143 143 143 143 143 143 104 104 104 143 143 143 127 127 127 116 116 116 116 116 116 116 116 116 116 116 116 127 127 127 185 133 92 150 108 74 150 108 74 121 85 58 121 85 58 185 133 92 150 108 74 150 108 74 121 85 58 121 85 58 89 61 41 121 85 58 121 85 58 185 133 92 121 85 58 185 133 92 116 180 74 118 182 76 115 179 73 102 166 60 102 166 60 111 175 69 95 159 53 108 172 66 126 190 84 118 182 76 106 170 64 103 167 61 105 169 63 97 161 55 80 144 38 109 173 67 188 152 98 159 132 77 159 132 77 159 132 77 159 132 77 188 152 98 188 152 98 180 144 90 159 132 77 188 152 98 188 152 98 188 152 98 188 152 98 188 152 98 188 152 98 159 132 77 200 200 200 197 197 197 197 197 197 197 197 197 197 197 197 200 200 200 205 205 205 205 205 205 193 193 193 205 205 205 200 200 200 197 197 197 197 197 197 197 197 197 197 197 197 168 168 168 135 135 135 128 128 128 128 128 128 128 128 128 128 128 128 135 135 135 146 146 146 146 146 146 120 120 120 146 146 146 135 135 135 128 128 128 128 128 128 128 128 128 128 128 128 135 135 135 155 86 67 146 80 62 155 86 67 172 153 148 155 86 67 157 87 69 143 80 63 165 91 71 155 86 67 170 94 74 141 78 61 175 157 151 155 86 67 165 91 71 155 86 67 155 86 67 219 68 26 201 62 23 183 56 21 167 52 19 219 68 26 201 62 23 183 56 21 167 52 19 219 68 26 201 62 23 183 56 21 167 52 19 219 68 26 201 62 23 183 56 21 167 52 19 219 68 26 219 68 26 219 68 26 168 52 20 219 68 26 219 68 26 219 68 26 168 52 20 219 68 26 219 68 26 219 68 26 168 52 20 219 68 26 219 68 26 219 68 26 168 52 20 219 68 26 219 68 26 219 68 26 168 52 20 219 68 26 219 68 26 219 68 26 168 52 20 219 68 26 219 68 26 219 68 26 168 52 20 219 68 26 219 68 26 219 68 26 168 52 20 206 206 206 0 0 0 0 0 0 0 0 0 0 0 0 0 0 0 0 0 0 0 0 0 221 221 221 0 0 0 0 0 0 0 0 0 0 0 0 0 0 0 0 0 0 206 206 206 
0 0 0 0 0 0 0 0 0 0 0 0 0 0 0 0 0 0 0 0 0 0 0 0 0 0 0 0 0 0 0 0 0 0 0 0 0 0 0 0 0 0 0 0 0 0 0 0 0 0 0 0 0 0 0 0 0 0 0 0 0 0 0 0 0 0 0 0 0 0 0 0 0 0 0 0 0 0 0 0 0 0 0 0 0 0 0 0 0 0 0 0 0 0 0 0 0 42 255 0 42 255 0 42 255 0 42 255 0 42 255 0 42 255 0 42 255 0 42 255 0 42 255 0 42 255 0 42 255 0 42 255 0 42 255 0 42 255 0 42 255 0 42 255 0 0 0 0 0 0 0 0 0 0 0 0 0 0 0 0 0 0 0 0 0 0 0 0 0 0 0 0 0 0 0 0 0 0 0 0 0 0 0 0 0 0 0 0 0 0 0 0 
149 149 149 140 140 140 160 160 160 151 151 151 153 153 153 128 128 128 153 153 153 130 130 130 127 127 127 169 169 169 166 166 166 147 147 147 195 195 195 140 140 140 135 135 135 139 139 139 127 127 127 127 127 127 143 143 143 143 143 143 143 143 143 143 143 143 116 116 116 116 116 116 116 116 116 143 143 143 143 143 143 143 143 143 104 104 104 127 127 127 127 127 127 116 116 116 121 85 58 150 108 74 89 61 41 121 85 58 121 85 58 150 108 74 135 135 135 89 61 41 121 85 58 185 133 92 150 108 74 121 85 58 185 133 92 150 108 74 89 61 41 89 61 41 117 181 75 108 172 66 138 185 90 129 176 81 131 178 83 89 61 41 104 168 62 98 162 56 95 159 53 147 194 99 144 191 96 115 179 73 97 161 55 108 172 66 103 167 61 107 171 65 188 152 98 188 152 98 180 144 90 115 94 57 180 144 90 180 144 90 159 132 77 159 132 77 159 132 77 159 132 77 159 132 77 180 144 90 159 132 77 180 144 90 188 152 98 159 132 77 200 200 200 168 168 168 176 176 176 176 176 176 176 176 176 176 176 176 176 176 176 176 176 176 163 163 163 176 176 176 176 176 176 176 176 176 157 157 157 168 168 168 168 168 168 128 128 128 135 135 135 168 168 168 176 176 176 176 176 176 176 176 176 176 176 176 176 176 176 176 176 176 163 163 163 176 176 176 176 176 176 176 176 176 157 157 157 168 168 168 168 168 168 128 128 128 124 69 54 124 69 54 134 74 58 183 165 159 177 98 77 124 69 54 110 61 48 103 57 45 124 69 54 118 66 50 131 73 57 175 157 151 155 86 67 127 70 55 124 69 54 126 69 54 219 68 26 193 60 23 168 52 20 145 45 17 219 68 26 193 60 23 168 52 20 145 45 17 219 68 26 193 60 23 168 52 20 145 45 17 219 68 26 193 60 23 168 52 20 145 45 17 219 68 26 142 142 142 142 142 142 145 45 17 219 68 26 142 142 142 142 142 142 145 45 17 219 68 26 142 142 142 142 142 142 145 45 17 219 68 26 142 142 142 142 142 142 145 45 17 219 68 26 142 142 142 142 142 142 145 45 17 219 68 26 142 142 142 142 142 142 145 45 17 219 68 26 142 142 142 142 142 142 145 45 17 219 68 26 142 142 142 142 142 142 145 45 17 0 0 0 206 206 206 0 0 0 0 0 0 0 0 0 0 0 0 206 206 206 221 221 221 255 255 255 221 221 221 
206 206 206 0 0 0 0 0 0 0 0 0 206 206 206 0 0 0 0 0 0 0 0 0 0 0 0 0 0 0 0 0 0 0 0 0 0 0 0 0 0 0 0 0 0 0 0 0 0 0 0 0 0 0 0 0 0 0 0 0 0 0 0 0 0 0 0 0 0 0 0 0 0 0 0 0 0 0 0 0 0 0 0 0 0 0 0 0 0 0 0 0 0 0 0 0 0 0 0 0 0 0 0 0 0 0 0 0 0 0 0 0 0 0 0 42 255 0 42 255 0 42 255 0 42 255 0 42 255 0 42 255 0 42 255 0 42 255 0 42 255 0 42 255 0 42 255 0 42 255 0 42 255 0 42 255 0 42 255 0 42 255 0 0 0 0 0 0 0 0 0 0 0 0 0 0 0 0 0 0 0 0 0 0 0 0 0 0 0 0 0 0 0 0 0 87 173 63 0 0 0 0 0 0 0 0 0 0 0 0 
163 163 163 141 141 141 125 125 125 132 132 132 137 137 137 136 136 136 144 144 144 144 144 144 148 148 148 159 159 159 168 168 168 173 173 173 135 135 135 119 119 119 128 128 128 182 182 182 127 127 127 104 104 104 116 116 116 116 116 116 104 104 104 116 116 116 116 116 116 116 116 116 143 143 143 116 116 116 127 127 127 127 127 127 127 127 127 143 143 143 127 127 127 127 127 127 185 133 92 121 85 58 121 85 58 89 61 41 185 133 92 121 85 58 121 85 58 121 85 58 185 133 92 121 85 58 121 85 58 121 85 58 89 61 41 89 61 41 185 133 92 121 85 58 141 188 93 89 61 41 156 203 108 100 164 58 105 169 63 89 61 41 112 176 70 89 61 41 116 180 74 127 191 85 146 193 98 151 198 103 89 61 41 87 151 45 96 160 54 89 61 41 188 152 98 188 152 98 159 132 77 159 132 77 159 132 77 159 132 77 180 144 90 180 144 90 115 94 57 188 152 98 188 152 98 180 144 90 188 152 98 188 152 98 188 152 98 159 132 77 200 200 200 157 157 157 163 163 163 163 163 163 157 157 157 163 163 163 163 163 163 163 163 163 176 176 176 163 163 163 168 168 168 168 168 168 168 168 168 176 176 176 168 168 168 135 135 135 135 135 135 157 157 157 163 163 163 163 163 163 157 157 157 163 163 163 163 163 163 163 163 163 176 176 176 163 163 163 168 168 168 168 168 168 168 168 168 176 176 176 168 168 168 135 135 135 124 69 54 140 77 60 107 60 47 175 157 151 155 86 67 127 70 55 124 69 54 115 63 49 124 69 54 124 69 54 124 69 54 175 157 151 130 73 56 143 80 63 124 69 54 141 78 61 219 68 26 193 60 23 168 52 20 145 45 17 219 68 26 193 60 23 168 52 20 145 45 17 219 68 26 193 60 23 168 52 20 145 45 17 219 68 26 193 60 23 168 52 20 145 45 17 219 68 26 142 142 142 86 86 86 145 45 17 219 68 26 142 142 142 86 86 86 0 0 0 0 0 0 86 86 86 142 142 142 145 45 17 219 68 26 86 86 86 142 142 142 145 45 17 219 68 26 142 142 142 142 142 142 145 45 17 219 68 26 142 142 142 142 142 142 145 45 17 219 68 26 142 142 142 142 142 142 145 45 17 219 68 26 142 142 142 142 142 142 145 45 17 0 0 0 0 0 0 221 221 221 255 255 255 221 221 221 206 206 206 0 0 0 0 0 0 237 237 237 0 0 0 0 0 0 221 221 221 0 0 0 
221 221 221 0 0 0 0 0 0 0 0 0 0 0 0 0 0 0 0 0 0 0 0 0 0 0 0 0 0 0 0 0 0 0 0 0 0 0 0 0 0 0 0 0 0 0 0 0 0 0 0 0 0 0 0 0 0 0 0 0 0 0 0 0 0 0 0 0 0 0 0 0 0 0 0 0 0 0 0 0 0 0 0 0 0 0 0 0 0 0 0 0 0 0 0 0 0 0 0 0 0 0 0 0 0 0 42 255 0 42 255 0 42 255 0 42 255 0 42 255 0 42 255 0 42 255 0 42 255 0 42 255 0 42 255 0 42 255 0 42 255 0 42 255 0 42 255 0 42 255 0 42 255 0 0 0 0 0 0 0 0 0 0 0 0 87 173 63 87 173 63 0 0 0 0 0 0 0 0 0 0 0 0 87 173 63 64 143 47 16 82 16 0 0 0 0 0 0 0 0 0 
118 118 118 133 133 133 138 138 138 151 151 151 145 145 145 153 153 153 125 125 125 146 146 146 127 127 127 131 131 131 141 141 141 151 151 151 143 143 143 139 139 139 167 167 167 125 125 125 127 127 127 143 143 143 127 127 127 127 127 127 127 127 127 104 104 104 127 127 127 143 143 143 127 127 127 127 127 127 116 116 116 116 116 116 116 116 116 116 116 116 116 116 116 127 127 127 150 108 74 108 108 108 185 133 92 121 85 58 150 108 74 89 61 41 121 85 58 185 133 92 150 108 74 150 108 74 121 85 58 150 108 74 121 85 58 185 133 92 150 108 74 121 85 58 89 61 41 108 108 108 89 61 41 89 61 41 113 177 71 89 61 41 89 61 41 89 61 41 95 159 53 89 61 41 109 173 67 89 61 41 121 85 58 89 61 41 89 61 41 121 85 58 105 84 51 105 84 51 105 84 51 115 94 57 115 94 57 115 94 57 115 94 57 115 94 57 115 94 57 115 94 57 105 84 51 105 84 51 105 84 51 105 84 51 115 94 57 115 94 57 200 200 200 176 176 176 168 168 168 168 168 168 168 168 168 157 157 157 168 168 168 176 176 176 168 168 168 168 168 168 163 163 163 163 163 163 163 163 163 163 163 163 163 163 163 135 135 135 135 135 135 176 176 176 168 168 168 168 168 168 168 168 168 157 157 157 168 168 168 176 176 176 168 168 168 168 168 168 163 163 163 163 163 163 163 163 163 163 163 163 163 163 163 135 135 135 160 142 136 159 140 135 156 138 132 177 159 153 158 138 132 158 138 132 158 138 132 155 136 131 158 138 132 160 140 134 158 138 132 181 163 157 158 138 132 158 138 132 155 136 131 163 145 139 219 68 26 193 60 23 168 52 20 145 45 17 219 68 26 193 60 23 168 52 20 145 45 17 219 68 26 193 60 23 168 52 20 145 45 17 219 68 26 193 60 23 168 52 20 145 45 17 168 52 20 145 45 17 145 45 17 86 86 86 168 52 20 145 45 17 86 86 86 145 45 17 86 86 86 0 0 0 145 45 17 145 45 17 86 86 86 145 45 17 145 45 17 145 45 17 168 52 20 145 45 17 145 45 17 145 45 17 168 52 20 145 45 17 145 45 17 145 45 17 168 52 20 145 45 17 145 45 17 145 45 17 168 52 20 145 45 17 145 45 17 145 45 17 0 0 0 0 0 0 0 0 0 206 206 206 0 0 0 0 0 0 0 0 0 237 237 237 206 206 206 0 0 0 0 0 0 0 0 0 237 237 237 0 0 0 0 0 0 0 0 0 0 0 0 
0 0 0 0 0 0 0 0 0 0 0 0 0 0 0 0 0 0 0 0 0 0 0 0 0 0 0 0 0 0 0 0 0 0 0 0 0 0 0 0 0 0 0 0 0 0 0 0 0 0 0 0 0 0 0 0 0 0 0 0 0 0 0 0 0 0 0 0 0 0 0 0 0 0 0 0 0 0 0 0 0 0 0 0 0 0 0 0 0 0 0 0 0 0 42 255 0 42 255 0 42 255 0 42 255 0 42 255 0 42 255 0 42 255 0 42 255 0 42 255 0 42 255 0 42 255 0 42 255 0 42 255 0 42 255 0 42 255 0 42 255 0 0 0 0 0 0 0 0 0 0 0 0 38 111 31 64 143 47 0 0 0 87 173 63 87 173 63 64 143 47 0 0 0 64 143 47 127 97 57 0 0 0 0 0 0 0 0 0 
162 162 162 131 131 131 173 173 173 131 131 131 172 172 172 174 174 174 136 136 136 172 172 172 186 186 186 117 117 117 128 128 128 167 167 167 171 171 171 126 126 126 136 136 136 141 141 141 127 127 127 143 143 143 143 143 143 116 116 116 116 116 116 116 116 116 116 116 116 116 116 116 116 116 116 116 116 116 143 143 143 143 143 143 143 143 143 143 143 143 143 143 143 104 104 104 150 108 74 121 85 58 150 108 74 185 133 92 89 61 41 150 108 74 121 85 58 121 85 58 150 108 74 89 61 41 121 85 58 108 108 108 121 85 58 150 108 74 89 61 41 121 85 58 150 108 74 121 85 58 150 108 74 185 133 92 89 61 41 150 108 74 121 85 58 121 85 58 89 61 41 89 61 41 89 61 41 108 108 108 121 85 58 150 108 74 89 61 41 121 85 58 188 152 98 159 132 77 159 132 77 159 132 77 159 132 77 188 152 98 188 152 98 159 132 77 188 152 98 159 132 77 159 132 77 115 94 57 180 144 90 180 144 90 180 144 90 188 152 98 200 200 200 176 176 176 176 176 176 163 163 163 163 163 163 163 163 163 163 163 163 163 163 163 163 163 163 163 163 163 176 176 176 176 176 176 176 176 176 176 176 176 176 176 176 120 120 120 135 135 135 176 176 176 176 176 176 163 163 163 163 163 163 163 163 163 163 163 163 163 163 163 163 163 163 163 163 163 176 176 176 176 176 176 176 176 176 176 176 176 176 176 176 120 120 120 137 76 59 155 86 67 155 86 67 155 86 67 155 86 67 146 80 62 155 86 67 175 157 151 165 91 71 165 91 71 159 88 69 155 86 67 155 86 67 155 86 67 155 86 67 174 154 150 219 68 26 193 60 23 168 52 20 145 45 17 219 68 26 193 60 23 168 52 20 145 45 17 219 68 26 193 60 23 168 52 20 145 45 17 219 68 26 193 60 23 168 52 20 145 45 17 219 68 26 219 68 26 219 68 26 168 52 20 86 86 86 219 68 26 86 86 86 168 52 20 86 86 86 219 68 26 0 0 0 0 0 0 86 86 86 219 68 26 219 68 26 168 52 20 219 68 26 219 68 26 219 68 26 168 52 20 219 68 26 219 68 26 219 68 26 168 52 20 219 68 26 219 68 26 219 68 26 168 52 20 219 68 26 219 68 26 219 68 26 168 52 20 0 0 0 0 0 0 0 0 0 237 237 237 221 221 221 0 0 0 206 206 206 237 237 237 0 0 0 221 221 221 0 0 0 221 221 221 0 0 0 221 221 221 0 0 0 0 0 0 
0 0 0 0 0 0 0 0 0 0 0 0 0 0 0 0 0 0 0 0 0 0 0 0 0 0 0 0 0 0 0 0 0 0 0 0 0 0 0 0 0 0 0 0 0 0 0 0 0 0 0 0 0 0 0 0 0 0 0 0 0 0 0 0 0 0 0 0 0 0 0 0 0 0 0 0 0 0 0 0 0 0 0 0 0 0 0 0 0 0 0 0 0 0 0 0 0 42 255 0 42 255 0 42 255 0 42 255 0 42 255 0 42 255 0 42 255 0 42 255 0 42 255 0 42 255 0 42 255 0 42 255 0 42 255 0 42 255 0 42 255 0 42 255 0 0 0 0 0 0 0 0 0 87 173 63 127 97 57 31 101 25 16 82 16 0 0 0 64 143 47 16 82 16 76 50 20 90 63 30 90 63 30 16 82 16 0 0 0 0 0 0 
153 153 153 152 152 152 120 120 120 166 166 166 129 129 129 150 150 150 149 149 149 155 155 155 135 135 135 149 149 149 136 136 136 131 131 131 120 120 120 136 136 136 142 142 142 148 148 148 116 116 116 116 116 116 127 127 127 127 127 127 127 127 127 116 116 116 116 116 116 116 116 116 127 127 127 104 104 104 127 127 127 127 127 127 116 116 116 116 116 116 104 104 104 127 127 127 121 85 58 89 61 41 150 108 74 150 108 74 121 85 58 150 108 74 89 61 41 89 61 41 89 61 41 121 85 58 121 85 58 89 61 41 121 85 58 121 85 58 121 85 58 185 133 92 121 85 58 89 61 41 150 108 74 150 108 74 121 85 58 150 108 74 89 61 41 89 61 41 89 61 41 121 85 58 121 85 58 89 61 41 121 85 58 121 85 58 121 85 58 185 133 92 159 132 77 159 132 77 115 94 57 180 144 90 180 144 90 180 144 90 188 152 98 159 132 77 180 144 90 180 144 90 180 144 90 180 144 90 159 132 77 159 132 77 159 132 77 159 132 77 197 197 197 163 163 163 168 168 168 168 168 168 168 168 168 163 163 163 163 163 163 163 163 163 168 168 168 157 157 157 168 168 168 168 168 168 163 163 163 163 163 163 157 157 157 135 135 135 128 128 128 163 163 163 168 168 168 168 168 168 168 168 168 163 163 163 163 163 163 163 163 163 168 168 168 157 157 157 168 168 168 168 168 168 163 163 163 163 163 163 157 157 157 135 135 135 155 86 67 124 69 54 154 85 66 124 69 54 106 59 46 124 69 54 121 67 53 175 157 151 155 86 67 124 69 54 115 63 49 124 69 54 109 61 47 124 69 54 124 69 54 177 159 153 219 219 219 219 219 219 219 219 219 206 206 206 219 219 219 219 219 219 219 219 219 219 219 219 206 206 206 219 219 219 219 219 219 206 206 206 206 206 206 219 219 219 219 219 219 206 206 206 219 68 26 142 142 142 142 142 142 145 45 17 219 68 26 0 0 0 0 0 0 145 45 17 86 86 86 142 142 142 86 86 86 86 86 86 0 0 0 142 142 142 142 142 142 145 45 17 219 68 26 142 142 142 142 142 142 145 45 17 219 68 26 142 142 142 142 142 142 145 45 17 219 68 26 142 142 142 142 142 142 145 45 17 219 68 26 142 142 142 142 142 142 145 45 17 0 0 0 0 0 0 206 206 206 0 0 0 0 0 0 206 206 206 0 0 0 206 206 206 0 0 0 0 0 0 221 221 221 0 0 0 
0 0 0 0 0 0 206 206 206 0 0 0 0 0 0 0 0 0 0 0 0 0 0 0 0 0 0 0 0 0 0 0 0 247 7 15 247 7 15 0 0 0 0 0 0 0 0 0 0 0 0 0 0 0 0 0 0 0 0 0 0 0 0 0 0 0 0 0 0 0 0 0 0 0 0 0 0 0 0 0 0 0 0 0 0 0 0 0 0 0 0 0 0 0 0 0 0 0 0 0 0 0 0 0 0 0 0 0 0 42 255 0 42 255 0 42 255 0 42 255 0 42 255 0 42 255 0 42 255 0 42 255 0 42 255 0 42 255 0 42 255 0 42 255 0 42 255 0 42 255 0 42 255 0 42 255 0 0 0 0 0 0 0 0 0 64 143 47 112 83 46 16 82 16 16 82 16 0 0 0 16 82 16 127 97 57 90 63 30 76 50 20 76 50 20 127 97 57 0 0 0 0 0 0 
126 126 126 156 156 156 165 165 165 144 144 144 146 146 146 131 131 131 138 138 138 127 127 127 132 132 132 135 135 135 181 181 181 172 172 172 145 145 145 167 167 167 151 151 151 143 143 143 143 143 143 143 143 143 127 127 127 128 128 128 127 127 127 116 116 116 143 143 143 143 143 143 127 127 127 127 127 127 127 127 127 127 127 127 143 143 143 143 143 143 143 143 143 104 104 104 185 133 92 121 85 58 121 85 58 121 85 58 135 135 135 121 85 58 121 85 58 185 133 92 185 133 92 121 85 58 185 133 92 185 133 92 121 85 58 150 108 74 121 85 58 150 108 74 185 133 92 121 85 58 121 85 58 121 85 58 135 135 135 121 85 58 121 85 58 185 133 92 185 133 92 121 85 58 185 133 92 185 133 92 121 85 58 150 108 74 121 85 58 150 108 74 188 152 98 188 152 98 188 152 98 180 144 90 188 152 98 188 152 98 188 152 98 159 132 77 159 132 77 159 132 77 115 94 57 188 152 98 188 152 98 188 152 98 188 152 98 188 152 98 205 205 205 176 176 176 168 168 168 168 168 168 168 168 168 163 163 163 176 176 176 176 176 176 168 168 168 168 168 168 168 168 168 168 168 168 176 176 176 176 176 176 176 176 176 120 120 120 146 146 146 176 176 176 168 168 168 168 168 168 168 168 168 163 163 163 176 176 176 176 176 176 168 168 168 168 168 168 168 168 168 168 168 168 176 176 176 176 176 176 176 176 176 120 120 120 155 86 67 98 55 42 136 76 58 110 61 48 124 69 54 101 55 43 124 69 54 181 161 155 167 94 71 110 61 48 131 73 57 118 66 50 124 69 54 124 69 54 124 69 54 174 155 150 206 206 206 219 219 219 0 0 0 0 0 0 0 0 0 206 206 206 0 0 0 206 206 206 219 219 219 0 0 0 206 206 206 0 0 0 0 0 0 0 0 0 219 219 219 206 206 206 219 68 26 142 142 142 86 86 86 86 86 86 219 68 26 142 142 142 0 0 0 86 86 86 0 0 0 86 86 86 0 0 0 86 86 86 86 86 86 0 0 0 142 142 142 145 45 17 219 68 26 142 142 142 142 142 142 145 45 17 219 68 26 142 142 142 142 142 142 145 45 17 219 68 26 142 142 142 142 142 142 145 45 17 219 68 26 142 142 142 142 142 142 145 45 17 0 0 0 0 0 0 221 221 221 0 0 0 206 206 206 0 0 0 206 206 206 221 221 221 0 0 0 206 206 206 0 0 0 221 221 221 0 0 0 0 0 0 221 221 221 
0 0 0 0 0 0 0 0 0 0 0 0 0 0 0 0 0 0 0 0 0 247 7 15 145 2 5 209 6 9 186 5 11 209 6 9 0 0 0 0 0 0 0 0 0 0 0 0 0 0 0 0 0 0 0 0 0 0 0 0 0 0 0 0 0 0 0 0 0 0 0 0 0 0 0 0 0 0 0 0 0 0 0 0 0 0 0 0 0 0 0 0 0 0 0 0 0 0 0 0 42 255 0 42 255 0 42 255 0 42 255 0 42 255 0 42 255 0 42 255 0 42 255 0 42 255 0 42 255 0 42 255 0 42 255 0 42 255 0 42 255 0 42 255 0 42 255 0 0 0 0 0 0 0 0 0 0 0 0 0 0 0 112 83 46 127 97 57 76 50 20 127 97 57 90 63 30 76 50 20 16 82 16 0 0 0 87 173 63 64 143 47 0 0 0 
143 143 143 135 135 135 157 157 157 139 139 139 144 144 144 124 124 124 164 164 164 132 132 132 151 151 151 173 173 173 135 135 135 129 129 129 143 143 143 160 160 160 127 127 127 169 169 169 127 127 127 127 127 127 127 127 127 116 116 116 116 116 116 116 116 116 116 116 116 116 116 116 116 116 116 104 104 104 116 116 116 116 116 116 116 116 116 116 116 116 127 127 127 127 127 127 121 85 58 121 85 58 185 133 92 185 133 92 150 108 74 150 108 74 121 85 58 121 85 58 150 108 74 89 61 41 150 108 74 150 108 74 121 85 58 121 85 58 150 108 74 150 108 74 121 85 58 121 85 58 185 133 92 185 133 92 150 108 74 150 108 74 121 85 58 121 85 58 150 108 74 89 61 41 150 108 74 150 108 74 121 85 58 121 85 58 150 108 74 150 108 74 115 94 57 115 94 57 105 84 51 105 84 51 105 84 51 105 84 51 105 84 51 115 94 57 115 94 57 115 94 57 105 84 51 105 84 51 105 84 51 105 84 51 115 94 57 115 94 57 168 168 168 135 135 135 135 135 135 128 128 128 128 128 128 128 128 128 128 128 128 128 128 128 128 128 128 120 120 120 128 128 128 128 128 128 128 128 128 128 128 128 135 135 135 135 135 135 135 135 135 168 168 168 168 168 168 163 163 163 163 163 163 163 163 163 163 163 163 163 163 163 163 163 163 157 157 157 163 163 163 163 163 163 163 163 163 163 163 163 168 168 168 135 135 135 158 138 132 158 138 132 158 138 132 156 138 132 157 137 133 160 140 134 158 138 132 177 159 153 158 138 132 158 138 132 155 136 131 158 138 132 158 138 132 158 138 132 158 138 132 177 159 153 206 206 206 206 206 206 206 206 206 0 0 0 206 206 206 206 206 206 0 0 0 0 0 0 206 206 206 0 0 0 206 206 206 206 206 206 0 0 0 206 206 206 206 206 206 206 206 206 168 52 20 145 45 17 145 45 17 145 45 17 86 86 86 0 0 0 0 0 0 0 0 0 0 0 0 0 0 0 86 86 86 145 45 17 168 52 20 0 0 0 145 45 17 145 45 17 168 52 20 145 45 17 145 45 17 145 45 17 168 52 20 145 45 17 145 45 17 145 45 17 168 52 20 145 45 17 145 45 17 145 45 17 168 52 20 145 45 17 145 45 17 145 45 17 206 206 206 255 255 255 237 237 237 206 206 206 237 237 237 221 221 221 237 237 237 237 237 237 221 221 221 0 0 0 0 0 0 0 0 0 
221 221 221 0 0 0 0 0 0 221 221 221 0 0 0 0 0 0 0 0 0 0 0 0 0 0 0 209 6 9 209 6 9 209 6 9 247 7 15 145 2 5 0 0 0 0 0 0 0 0 0 0 0 0 0 0 0 0 0 0 0 0 0 0 0 0 0 0 0 0 0 0 0 0 0 0 0 0 0 0 0 0 0 0 0 0 0 0 0 0 0 0 0 0 0 0 0 0 0 0 0 0 0 0 0 0 0 0 0 42 255 0 42 255 0 42 255 0 42 255 0 42 255 0 42 255 0 42 255 0 42 255 0 42 255 0 42 255 0 42 255 0 42 255 0 42 255 0 42 255 0 42 255 0 42 255 0 0 0 0 0 0 0 0 0 87 173 63 16 82 16 0 0 0 86 59 27 90 63 30 87 173 63 87 173 63 0 0 0 0 0 0 87 173 63 64 143 47 16 82 16 0 0 0 
167 167 167 155 155 155 182 182 182 170 170 170 172 172 172 129 129 129 173 173 173 156 156 156 179 179 179 170 170 170 130 130 130 146 146 146 133 133 133 147 147 147 158 158 158 126 126 126 127 127 127 143 143 143 143 143 143 104 104 104 143 143 143 116 116 116 127 127 127 127 127 127 127 127 127 143 143 143 143 143 143 143 143 143 143 143 143 143 143 143 143 143 143 143 143 143 150 108 74 121 85 58 121 85 58 150 108 74 121 85 58 150 108 74 121 85 58 89 61 41 121 85 58 150 108 74 150 108 74 121 85 58 121 85 58 121 85 58 89 61 41 121 85 58 150 108 74 121 85 58 121 85 58 150 108 74 121 85 58 150 108 74 121 85 58 89 61 41 121 85 58 150 108 74 150 108 74 121 85 58 121 85 58 121 85 58 89 61 41 121 85 58 188 152 98 188 152 98 188 152 98 188 152 98 188 152 98 115 94 57 159 132 77 188 152 98 188 152 98 180 144 90 180 144 90 180 144 90 188 152 98 188 152 98 188 152 98 159 132 77 200 200 200 205 205 205 205 205 205 193 193 193 205 205 205 197 197 197 200 200 200 200 200 200 200 200 200 205 205 205 205 205 205 205 205 205 205 205 205 205 205 205 205 205 205 176 176 176 135 135 135 176 176 176 176 176 176 157 157 157 176 176 176 163 163 163 168 168 168 168 168 168 168 168 168 176 176 176 176 176 176 176 176 176 176 176 176 176 176 176 176 176 176 146 146 146 159 88 69 155 86 67 155 86 67 175 157 151 151 83 65 155 86 67 163 91 71 178 99 78 159 88 69 155 86 67 155 86 67 175 157 151 155 86 67 155 86 67 178 99 78 126 69 54 206 206 206 206 206 206 206 206 206 0 0 0 206 206 206 206 206 206 0 0 0 206 206 206 0 0 0 0 0 0 206 206 206 206 206 206 0 0 0 206 206 206 206 206 206 206 206 206 219 68 26 219 68 26 219 68 26 168 52 20 219 68 26 219 68 26 0 0 0 0 0 0 0 0 0 86 86 86 219 68 26 86 86 86 86 86 86 0 0 0 219 68 26 168 52 20 219 68 26 219 68 26 219 68 26 168 52 20 219 68 26 219 68 26 219 68 26 168 52 20 219 68 26 219 68 26 219 68 26 168 52 20 219 68 26 219 68 26 219 68 26 168 52 20 0 0 0 221 221 221 0 0 0 0 0 0 221 221 221 0 0 0 0 0 0 255 255 255 237 237 237 221 221 221 206 206 206 221 221 221 237 237 237 221 221 221 
221 221 221 255 255 255 0 0 0 0 0 0 0 0 0 0 0 0 0 0 0 0 0 0 247 7 15 186 5 11 145 2 5 145 2 5 209 6 9 0 0 0 0 0 0 0 0 0 0 0 0 0 0 0 0 0 0 0 0 0 0 0 0 0 0 0 0 0 0 204 211 2 241 249 2 0 0 0 241 249 2 182 188 1 241 249 2 0 0 0 0 0 0 0 0 0 0 0 0 0 0 0 0 42 255 0 42 255 0 42 255 0 42 255 0 42 255 0 42 255 0 42 255 0 42 255 0 42 255 0 42 255 0 42 255 0 42 255 0 42 255 0 42 255 0 42 255 0 42 255 0 0 0 0 0 0 0 0 0 64 143 47 0 0 0 127 97 57 116 86 49 116 86 49 64 143 47 31 101 25 16 82 16 76 50 20 0 0 0 16 82 16 0 0 0 0 0 0 
151 151 151 130 130 130 183 183 183 141 141 141 140 140 140 152 152 152 170 170 170 128 128 128 135 135 135 145 145 145 146 146 146 169 169 169 142 142 142 179 179 179 143 143 143 129 129 129 127 127 127 116 116 116 116 116 116 116 116 116 116 116 116 116 116 116 116 116 116 127 127 127 104 104 104 127 127 127 127 127 127 116 116 116 116 116 116 116 116 116 143 143 143 127 127 127 121 85 58 150 108 74 89 61 41 121 85 58 121 85 58 89 61 41 89 61 41 121 85 58 121 85 58 121 85 58 121 85 58 121 85 58 185 133 92 185 133 92 121 85 58 150 108 74 121 85 58 150 108 74 89 61 41 121 85 58 121 85 58 89 61 41 89 61 41 121 85 58 121 85 58 121 85 58 121 85 58 121 85 58 185 133 92 185 133 92 121 85 58 150 108 74 159 132 77 159 132 77 159 132 77 159 132 77 159 132 77 188 152 98 180 144 90 180 144 90 159 132 77 159 132 77 159 132 77 115 94 57 188 152 98 159 132 77 159 132 77 159 132 77 200 200 200 163 163 163 163 163 163 163 163 163 163 163 163 163 163 163 163 163 163 168 168 168 157 157 157 168 168 168 168 168 168 163 163 163 163 163 163 163 163 163 176 176 176 135 135 135 135 135 135 163 163 163 163 163 163 163 163 163 163 163 163 163 163 163 163 163 163 168 168 168 157 157 157 168 168 168 168 168 168 163 163 163 163 163 163 163 163 163 176 176 176 135 135 135 124 69 54 124 69 54 124 69 54 173 153 149 148 82 64 124 69 54 124 69 54 124 69 54 134 74 58 137 76 59 121 67 53 171 152 147 155 86 67 136 76 58 124 69 54 124 69 54 206 206 206 175 175 175 175 175 175 0 0 0 206 206 206 175 175 175 0 0 0 206 206 206 206 206 206 0 0 0 206 206 206 206 206 206 0 0 0 175 175 175 175 175 175 206 206 206 219 68 26 142 142 142 86 86 86 86 86 86 0 0 0 0 0 0 0 0 0 0 0 0 0 0 0 0 0 0 142 142 142 145 45 17 0 0 0 86 86 86 142 142 142 145 45 17 219 68 26 142 142 142 142 142 142 145 45 17 219 68 26 142 142 142 142 142 142 145 45 17 219 68 26 142 142 142 142 142 142 145 45 17 219 68 26 142 142 142 142 142 142 145 45 17 0 0 0 0 0 0 206 206 206 0 0 0 0 0 0 237 237 237 206 206 206 237 237 237 0 0 0 206 206 206 0 0 0 0 0 0 221 221 221 0 0 0 0 0 0 
221 221 221 0 0 0 0 0 0 0 0 0 0 0 0 0 0 0 0 0 0 209 6 9 22 135 0 16 99 0 0 0 0 0 0 0 0 0 0 0 0 0 0 0 0 0 0 0 0 0 0 0 0 0 0 0 0 0 0 0 0 0 0 0 0 0 0 0 0 204 211 2 204 211 2 241 249 2 142 147 0 0 0 0 0 0 0 0 0 0 0 0 0 0 0 0 0 0 0 0 42 255 0 42 255 0 42 255 0 42 255 0 42 255 0 42 255 0 42 255 0 42 255 0 42 255 0 42 255 0 42 255 0 42 255 0 42 255 0 42 255 0 42 255 0 42 255 0 0 0 0 0 0 0 0 0 0 0 0 64 143 47 116 87 49 76 50 20 90 63 30 127 97 57 16 82 16 90 63 30 90 63 30 116 86 49 127 97 57 87 173 63 0 0 0 
155 155 155 158 158 158 151 151 151 165 165 165 130 130 130 182 182 182 142 142 142 147 147 147 192 192 192 121 121 121 167 167 167 131 131 131 143 143 143 136 136 136 151 151 151 143 143 143 127 127 127 127 127 127 143 143 143 116 116 116 116 116 116 143 143 143 143 143 143 116 116 116 104 104 104 116 116 116 143 143 143 143 143 143 143 143 143 127 127 127 127 127 127 127 127 127 121 85 58 150 108 74 121 85 58 185 133 92 185 133 92 121 85 58 185 133 92 150 108 74 89 61 41 185 133 92 185 133 92 89 61 41 150 108 74 150 108 74 135 135 135 121 85 58 121 85 58 150 108 74 121 85 58 185 133 92 185 133 92 121 85 58 185 133 92 150 108 74 89 61 41 185 133 92 185 133 92 89 61 41 150 108 74 150 108 74 135 135 135 121 85 58 188 152 98 180 144 90 180 144 90 180 144 90 188 152 98 188 152 98 159 132 77 159 132 77 159 132 77 159 132 77 180 144 90 180 144 90 180 144 90 180 144 90 180 144 90 159 132 77 200 200 200 168 168 168 176 176 176 163 163 163 163 163 163 176 176 176 176 176 176 163 163 163 157 157 157 163 163 163 176 176 176 176 176 176 176 176 176 168 168 168 168 168 168 135 135 135 135 135 135 168 168 168 176 176 176 163 163 163 163 163 163 176 176 176 176 176 176 163 163 163 157 157 157 163 163 163 176 176 176 176 176 176 176 176 176 168 168 168 168 168 168 135 135 135 137 76 59 124 69 54 136 76 58 182 163 158 155 86 67 124 69 54 95 53 41 124 69 54 107 60 47 130 73 56 124 69 54 174 154 150 155 86 67 124 69 54 134 74 58 124 69 54 175 175 175 175 175 175 206 206 206 175 175 175 175 175 175 206 206 206 175 175 175 175 175 175 175 175 175 206 206 206 175 175 175 175 175 175 206 206 206 175 175 175 175 175 175 175 175 175 219 68 26 142 142 142 142 142 142 145 45 17 219 68 26 0 0 0 0 0 0 0 0 0 0 0 0 142 142 142 86 86 86 145 45 17 0 0 0 142 142 142 142 142 142 145 45 17 219 68 26 142 142 142 142 142 142 145 45 17 219 68 26 142 142 142 142 142 142 145 45 17 219 68 26 142 142 142 142 142 142 145 45 17 219 68 26 142 142 142 142 142 142 145 45 17 0 0 0 0 0 0 206 206 206 0 0 0 0 0 0 206 206 206 0 0 0 206 206 206 0 0 0 0 0 0 
221 221 221 0 0 0 206 206 206 0 0 0 206 206 206 0 0 0 0 0 0 0 0 0 0 0 0 0 0 0 0 0 0 0 0 0 0 0 0 91 69 54 0 0 0 0 0 0 0 0 0 0 0 0 0 0 0 0 0 0 0 0 0 0 0 0 0 0 0 0 0 0 0 0 0 0 0 0 0 0 0 241 249 2 241 249 2 182 188 1 142 147 0 142 147 0 204 211 2 0 0 0 0 0 0 0 0 0 0 0 0 0 0 0 0 42 255 0 42 255 0 42 255 0 42 255 0 42 255 0 42 255 0 42 255 0 42 255 0 42 255 0 42 255 0 42 255 0 42 255 0 42 255 0 42 255 0 42 255 0 42 255 0 0 0 0 0 0 0 0 0 87 173 63 31 101 25 76 50 20 0 0 0 87 173 63 16 82 16 76 50 20 76 50 20 87 173 63 16 82 16 0 0 0 16 82 16 64 143 47 
132 132 132 173 173 173 134 134 134 163 163 163 151 151 151 132 132 132 146 146 146 137 137 137 151 151 151 146 146 146 140 140 140 123 123 123 179 179 179 127 127 127 125 125 125 138 138 138 104 104 104 127 127 127 127 127 127 127 127 127 116 116 116 127 127 127 127 127 127 127 127 127 143 143 143 143 143 143 127 127 127 127 127 127 127 127 127 143 143 143 143 143 143 104 104 104 150 108 74 121 85 58 121 85 58 150 108 74 150 108 74 185 133 92 121 85 58 150 108 74 108 108 108 150 108 74 150 108 74 121 85 58 89 61 41 150 108 74 121 85 58 89 61 41 150 108 74 121 85 58 121 85 58 150 108 74 150 108 74 185 133 92 121 85 58 150 108 74 108 108 108 150 108 74 150 108 74 121 85 58 89 61 41 150 108 74 121 85 58 89 61 41 115 94 57 105 84 51 115 94 57 115 94 57 105 84 51 105 84 51 105 84 51 115 94 57 115 94 57 115 94 57 115 94 57 115 94 57 105 84 51 105 84 51 105 84 51 115 94 57 193 193 193 168 168 168 168 168 168 168 168 168 163 163 163 168 168 168 168 168 168 168 168 168 176 176 176 176 176 176 168 168 168 168 168 168 168 168 168 176 176 176 176 176 176 120 120 120 120 120 120 168 168 168 168 168 168 168 168 168 163 163 163 168 168 168 168 168 168 168 168 168 176 176 176 176 176 176 168 168 168 168 168 168 168 168 168 176 176 176 176 176 176 120 120 120 158 138 132 158 138 132 153 133 127 177 159 153 158 138 132 158 138 132 158 138 132 158 138 132 158 138 132 158 138 132 156 138 132 178 160 154 157 137 133 160 142 136 155 136 131 158 138 132 182 56 21 160 49 19 139 43 16 120 37 14 182 56 21 160 49 19 139 43 16 120 37 14 182 56 21 160 49 19 139 43 16 120 37 14 182 56 21 160 49 19 139 43 16 120 37 14 168 52 20 145 45 17 145 45 17 145 45 17 0 0 0 145 45 17 0 0 0 145 45 17 0 0 0 86 86 86 145 45 17 0 0 0 86 86 86 145 45 17 145 45 17 145 45 17 168 52 20 145 45 17 145 45 17 145 45 17 168 52 20 145 45 17 145 45 17 145 45 17 168 52 20 145 45 17 145 45 17 145 45 17 168 52 20 145 45 17 145 45 17 145 45 17 0 0 0 0 0 0 0 0 0 221 221 221 0 0 0 206 206 206 0 0 0 237 237 237 0 0 0 206 206 206 237 237 237 221 221 221 0 0 0 0 0 0 
221 221 221 0 0 0 0 0 0 0 0 0 0 0 0 0 0 0 0 0 0 0 0 0 91 69 54 22 135 0 0 0 0 0 0 0 0 0 0 0 0 0 0 0 0 0 0 0 0 0 0 0 0 0 0 0 0 0 0 0 0 0 0 0 0 0 0 0 0 0 0 0 0 0 0 22 135 0 22 135 0 0 0 0 0 0 0 0 0 0 0 0 0 0 0 0 0 0 0 0 0 0 0 42 255 0 42 255 0 42 255 0 42 255 0 42 255 0 42 255 0 42 255 0 42 255 0 42 255 0 42 255 0 42 255 0 42 255 0 42 255 0 42 255 0 42 255 0 42 255 0 0 0 0 0 0 87 173 63 64 143 47 16 82 16 16 82 16 0 0 0 64 143 47 16 82 16 127 97 57 76 50 20 0 0 0 0 0 0 0 0 0 0 0 0 16 82 16 
186 186 186 151 151 151 129 129 129 138 138 138 153 153 153 145 145 145 133 133 133 122 122 122 138 138 138 145 145 145 138 138 138 125 125 125 159 159 159 165 165 165 121 121 121 151 151 151 127 127 127 116 116 116 116 116 116 116 116 116 116 116 116 116 116 116 116 116 116 116 116 116 143 143 143 143 143 143 116 116 116 116 116 116 116 116 116 116 116 116 116 116 116 127 127 127 121 85 58 89 61 41 150 108 74 121 85 58 150 108 74 150 108 74 185 133 92 121 85 58 121 85 58 121 85 58 121 85 58 121 85 58 121 85 58 121 85 58 185 133 92 185 133 92 121 85 58 89 61 41 150 108 74 121 85 58 150 108 74 150 108 74 185 133 92 121 85 58 121 85 58 121 85 58 121 85 58 121 85 58 121 85 58 121 85 58 185 133 92 185 133 92 188 152 98 188 152 98 188 152 98 188 152 98 188 152 98 159 132 77 188 152 98 159 132 77 159 132 77 115 94 57 159 132 77 159 132 77 180 144 90 188 152 98 188 152 98 188 152 98 200 200 200 163 163 163 163 163 163 163 163 163 163 163 163 163 163 163 163 163 163 163 163 163 176 176 176 176 176 176 163 163 163 163 163 163 163 163 163 163 163 163 163 163 163 135 135 135 135 135 135 163 163 163 163 163 163 163 163 163 163 163 163 163 163 163 163 163 163 163 163 163 176 176 176 176 176 176 163 163 163 163 163 163 163 163 163 163 163 163 163 163 163 135 135 135 157 87 69 159 88 69 170 94 74 155 86 67 155 86 67 155 86 67 146 80 62 171 151 147 148 82 64 178 99 78 155 86 67 155 86 67 151 83 65 155 86 67 157 87 69 184 164 158 219 68 26 193 60 23 168 52 20 145 45 17 219 68 26 193 60 23 168 52 20 145 45 17 219 68 26 193 60 23 168 52 20 145 45 17 219 68 26 193 60 23 168 52 20 145 45 17 219 68 26 219 68 26 219 68 26 86 86 86 219 68 26 219 68 26 86 86 86 168 52 20 86 86 86 0 0 0 0 0 0 86 86 86 86 86 86 219 68 26 219 68 26 168 52 20 219 68 26 219 68 26 219 68 26 168 52 20 219 68 26 219 68 26 219 68 26 168 52 20 219 68 26 219 68 26 219 68 26 168 52 20 219 68 26 219 68 26 219 68 26 168 52 20 0 0 0 0 0 0 0 0 0 237 237 237 221 221 221 0 0 0 221 221 221 221 221 221 206 206 206 0 0 0 0 0 0 0 0 0 221 221 221 221 221 221 0 0 0 0 0 0 
0 0 0 0 0 0 0 0 0 0 0 0 0 0 0 0 0 0 0 0 0 16 99 0 22 135 0 0 0 0 0 0 0 0 0 0 0 0 0 0 0 0 0 0 0 0 0 0 0 0 0 0 0 0 0 0 0 0 0 0 0 0 0 0 0 0 0 0 0 22 135 0 16 99 0 22 135 0 16 99 0 0 0 0 0 0 0 0 0 0 0 0 0 0 0 0 0 42 255 0 42 255 0 42 255 0 42 255 0 42 255 0 42 255 0 42 255 0 42 255 0 42 255 0 42 255 0 42 255 0 42 255 0 42 255 0 42 255 0 42 255 0 42 255 0 0 0 0 0 0 64 143 47 16 82 16 0 0 0 16 82 16 0 0 0 76 50 20 127 97 57 87 173 63 38 111 31 0 0 0 0 0 0 0 0 0 0 0 0 0 0 0 
129 129 129 168 168 168 118 118 118 146 146 146 125 125 125 153 153 153 129 129 129 195 195 195 161 161 161 147 147 147 168 168 168 155 155 155 160 160 160 136 136 136 168 168 168 174 174 174 127 127 127 143 143 143 143 143 143 143 143 143 143 143 143 143 143 143 127 127 127 116 116 116 116 116 116 116 116 116 104 104 104 116 116 116 127 127 127 127 127 127 143 143 143 143 143 143 121 85 58 150 108 74 121 85 58 121 85 58 116 88 68 121 85 58 150 108 74 150 108 74 121 85 58 89 61 41 185 133 92 89 61 41 121 85 58 185 133 92 150 108 74 150 108 74 121 85 58 150 108 74 121 85 58 121 85 58 116 88 68 121 85 58 150 108 74 150 108 74 121 85 58 89 61 41 185 133 92 89 61 41 121 85 58 185 133 92 150 108 74 150 108 74 180 144 90 159 132 77 115 94 57 188 152 98 188 152 98 188 152 98 188 152 98 159 132 77 188 152 98 180 144 90 180 144 90 159 132 77 159 132 77 159 132 77 159 132 77 180 144 90 200 200 200 176 176 176 163 163 163 176 176 176 157 157 157 168 168 168 168 168 168 163 163 163 163 163 163 163 163 163 157 157 157 163 163 163 168 168 168 168 168 168 176 176 176 146 146 146 135 135 135 176 176 176 163 163 163 176 176 176 157 157 157 168 168 168 168 168 168 163 163 163 163 163 163 163 163 163 157 157 157 163 163 163 168 168 168 168 168 168 176 176 176 146 146 146 155 86 67 124 69 54 121 67 53 124 69 54 124 69 54 124 69 54 106 59 46 171 151 147 155 86 67 121 67 53 124 69 54 124 69 54 124 69 54 126 69 54 128 71 56 175 157 151 219 68 26 193 60 23 168 52 20 145 45 17 219 68 26 193 60 23 168 52 20 145 45 17 219 68 26 193 60 23 168 52 20 145 45 17 219 68 26 193 60 23 168 52 20 145 45 17 219 68 26 142 142 142 86 86 86 145 45 17 219 68 26 142 142 142 142 142 142 145 45 17 219 68 26 86 86 86 142 142 142 145 45 17 219 68 26 86 86 86 142 142 142 145 45 17 219 68 26 142 142 142 142 142 142 145 45 17 219 68 26 142 142 142 142 142 142 145 45 17 219 68 26 142 142 142 142 142 142 145 45 17 219 68 26 142 142 142 142 142 142 145 45 17 0 0 0 0 0 0 206 206 206 0 0 0 0 0 0 206 206 206 237 237 237 0 0 0 0 0 0 0 0 0 206 206 206 221 221 221 
255 255 255 221 221 221 0 0 0 0 0 0 0 0 0 0 0 0 0 0 0 0 0 0 0 0 0 0 0 0 0 0 0 0 0 0 22 135 0 91 69 54 0 0 0 0 0 0 0 0 0 0 0 0 0 0 0 0 0 0 0 0 0 0 0 0 0 0 0 0 0 0 0 0 0 16 99 0 22 135 0 22 135 0 16 99 0 16 99 0 0 0 0 0 0 0 0 0 0 0 0 0 0 0 0 0 0 0 0 42 255 0 42 255 0 42 255 0 42 255 0 42 255 0 42 255 0 42 255 0 42 255 0 42 255 0 42 255 0 42 255 0 42 255 0 42 255 0 42 255 0 42 255 0 42 255 0 0 0 0 0 0 0 0 0 0 0 0 0 0 0 0 0 0 0 0 0 127 97 57 116 87 49 76 50 20 16 82 16 0 0 0 0 0 0 0 0 0 0 0 0 0 0 0 
163 163 163 161 161 161 192 192 192 123 123 123 179 179 179 171 171 171 148 148 148 147 147 147 126 126 126 149 149 149 149 149 149 135 135 135 169 169 169 157 157 157 139 139 139 121 121 121 127 127 127 127 127 127 127 127 127 116 116 116 116 116 116 116 116 116 116 116 116 116 116 116 127 127 127 127 127 127 143 143 143 143 143 143 127 127 127 116 116 116 116 116 116 127 127 127 150 108 74 121 85 58 89 61 41 185 133 92 121 85 58 89 61 41 121 85 58 89 61 41 185 133 92 185 133 92 121 85 58 150 108 74 121 85 58 121 85 58 150 108 74 150 108 74 150 108 74 121 85 58 89 61 41 185 133 92 121 85 58 89 61 41 121 85 58 89 61 41 185 133 92 185 133 92 121 85 58 150 108 74 121 85 58 121 85 58 150 108 74 150 108 74 188 152 98 188 152 98 159 132 77 159 132 77 159 132 77 188 152 98 188 152 98 159 132 77 188 152 98 188 152 98 159 132 77 180 144 90 188 152 98 188 152 98 188 152 98 188 152 98 200 200 200 168 168 168 168 168 168 163 163 163 163 163 163 163 163 163 163 163 163 163 163 163 168 168 168 168 168 168 176 176 176 176 176 176 168 168 168 163 163 163 163 163 163 135 135 135 135 135 135 168 168 168 168 168 168 163 163 163 163 163 163 163 163 163 163 163 163 163 163 163 168 168 168 168 168 168 176 176 176 176 176 176 168 168 168 163 163 163 163 163 163 135 135 135 155 86 67 106 59 46 134 74 58 124 69 54 124 69 54 124 69 54 124 69 54 176 156 152 155 86 67 124 69 54 124 69 54 124 69 54 130 73 56 124 69 54 128 71 56 175 157 151 219 68 26 193 60 23 168 52 20 145 45 17 219 68 26 193 60 23 168 52 20 145 45 17 219 68 26 193 60 23 168 52 20 145 45 17 219 68 26 193 60 23 168 52 20 145 45 17 219 68 26 142 142 142 142 142 142 145 45 17 219 68 26 142 142 142 142 142 142 145 45 17 219 68 26 142 142 142 142 142 142 145 45 17 219 68 26 142 142 142 142 142 142 145 45 17 219 68 26 142 142 142 142 142 142 145 45 17 219 68 26 142 142 142 142 142 142 145 45 17 219 68 26 142 142 142 142 142 142 145 45 17 219 68 26 142 142 142 142 142 142 145 45 17 0 0 0 206 206 206 0 0 0 0 0 0 0 0 0 0 0 0 255 255 255 221 221 221 206 206 206 206 206 206 0 0 0 
0 0 0 0 0 0 0 0 0 206 206 206 0 0 0 0 0 0 0 0 0 0 0 0 0 0 0 0 0 0 0 0 0 0 0 0 91 69 54 16 99 0 0 0 0 0 0 0 0 0 0 0 0 0 0 0 0 0 0 0 0 0 0 0 0 0 0 0 0 0 0 0 0 0 0 0 0 0 0 0 0 16 99 0 22 135 0 16 99 0 0 0 0 0 0 0 0 0 0 0 0 0 0 0 0 0 0 0 0 0 0 0 42 255 0 42 255 0 42 255 0 42 255 0 42 255 0 42 255 0 42 255 0 42 255 0 42 255 0 42 255 0 42 255 0 42 255 0 42 255 0 42 255 0 42 255 0 42 255 0 0 0 0 0 0 0 0 0 0 0 0 0 0 0 0 0 0 0 0 0 127 97 57 90 63 30 76 50 20 0 0 0 0 0 0 0 0 0 0 0 0 0 0 0 0 0 0 
133 133 133 150 150 150 136 136 136 137 137 137 164 164 164 152 152 152 148 148 148 147 147 147 142 142 142 191 191 191 124 124 124 169 169 169 132 132 132 144 144 144 136 136 136 158 158 158 116 116 116 116 116 116 116 116 116 116 116 116 104 104 104 143 143 143 143 143 143 127 127 127 127 127 127 127 127 127 127 127 127 116 116 116 116 116 116 116 116 116 127 127 127 127 127 127 150 108 74 121 85 58 185 133 92 150 108 74 150 108 74 121 85 58 135 135 135 121 85 58 150 108 74 150 108 74 121 85 58 121 85 58 150 108 74 150 108 74 121 85 58 89 61 41 150 108 74 121 85 58 185 133 92 150 108 74 150 108 74 121 85 58 135 135 135 121 85 58 150 108 74 150 108 74 121 85 58 121 85 58 150 108 74 150 108 74 121 85 58 89 61 41 115 94 57 115 94 57 115 94 57 124 98 62 105 84 51 105 84 51 124 98 62 105 84 51 115 94 57 115 94 57 115 94 57 105 84 51 76 61 38 105 84 51 105 84 51 115 94 57 163 163 163 128 128 128 128 128 128 128 128 128 120 120 120 146 146 146 146 146 146 135 135 135 135 135 135 135 135 135 135 135 135 128 128 128 128 128 128 128 128 128 135 135 135 135 135 135 128 128 128 128 128 128 128 128 128 128 128 128 120 120 120 146 146 146 146 146 146 135 135 135 135 135 135 135 135 135 135 135 135 128 128 128 128 128 128 128 128 128 135 135 135 135 135 135 158 138 132 157 137 133 152 134 128 158 140 134 158 138 132 158 140 134 158 138 132 177 159 153 160 140 134 158 138 132 155 136 131 158 138 132 160 140 134 158 138 132 158 138 132 172 153 148 196 60 23 178 55 21 160 49 19 145 45 17 196 60 23 178 55 21 160 49 19 145 45 17 196 60 23 178 55 21 160 49 19 145 45 17 196 60 23 178 55 21 160 49 19 145 45 17 168 52 20 145 45 17 145 45 17 145 45 17 168 52 20 145 45 17 145 45 17 145 45 17 168 52 20 145 45 17 145 45 17 145 45 17 168 52 20 145 45 17 145 45 17 145 45 17 168 52 20 145 45 17 145 45 17 145 45 17 168 52 20 145 45 17 145 45 17 145 45 17 168 52 20 145 45 17 145 45 17 145 45 17 168 52 20 145 45 17 145 45 17 145 45 17 206 206 206 0 0 0 0 0 0 0 0 0 0 0 0 0 0 0 206 206 206 0 0 0 0 0 0 0 0 0 0 0 0 0 0 0 0 0 0 0 0 0 0 0 0 
206 206 206 0 0 0 0 0 0 0 0 0 0 0 0 0 0 0 0 0 0 0 0 0 0 0 0 16 99 0 0 0 0 0 0 0 0 0 0 0 0 0 0 0 0 0 0 0 0 0 0 0 0 0 0 0 0 0 0 0 0 0 0 0 0 0 0 0 0 0 0 0 22 135 0 16 99 0 0 0 0 0 0 0 0 0 0 0 0 0 0 0 0 0 0 0 0 0 0 0 42 255 0 42 255 0 42 255 0 42 255 0 42 255 0 42 255 0 42 255 0 42 255 0 42 255 0 42 255 0 42 255 0 42 255 0 42 255 0 42 255 0 42 255 0 42 255 0 0 0 0 0 0 0 0 0 0 0 0 0 0 0 0 0 0 0 0 0 112 83 46 90 63 30 76 50 20 0 0 0 0 0 0 0 0 0 0 0 0 0 0 0 0 0 0 
125 125 125 100 100 100 98 98 98 176 176 176 169 169 169 127 127 127 112 112 112 169 169 169 162 162 162 126 126 126 100 100 100 82 82 82 90 90 90 109 109 109 166 166 166 176 176 176 87 87 87 51 51 51 51 51 51 51 51 51 51 51 51 87 87 87 151 151 151 151 151 151 7 7 7 151 151 151 87 87 87 51 51 51 51 51 51 51 51 51 51 51 51 87 87 87 199 190 141 226 216 168 225 215 167 219 213 156 230 221 172 218 212 156 210 204 148 216 210 154 226 220 165 221 215 160 216 208 155 223 213 164 220 209 161 247 245 210 202 196 141 217 210 155 131 126 125 95 92 89 165 161 161 145 140 139 129 127 127 114 112 110 129 127 127 163 162 161 140 140 140 140 140 140 90 88 84 145 140 139 145 140 139 129 127 127 129 127 127 88 86 80 70 57 38 105 84 51 108 87 54 155 123 76 61 48 29 109 88 55 149 117 70 65 52 33 102 81 48 104 83 50 103 82 49 124 98 62 109 88 55 124 98 62 105 84 51 156 124 77 106 85 52 105 84 51 60 47 28 105 84 51 105 84 51 103 82 49 60 47 28 60 47 28 60 47 28 105 84 51 106 85 52 60 47 28 110 89 56 105 84 51 108 87 54 109 88 55 190 190 190 180 180 180 181 181 181 186 186 186 191 191 191 195 195 195 196 196 196 195 195 195 195 195 195 195 195 195 196 196 196 184 184 184 185 185 185 185 185 185 185 185 185 186 186 186 216 175 45 216 173 45 218 177 45 224 187 47 227 196 51 232 204 57 234 208 58 234 206 57 235 201 55 236 199 56 235 210 64 234 214 68 237 217 73 239 220 78 240 221 82 234 204 57 0 173 160 0 173 160 0 173 160 0 173 160 0 173 160 0 188 178 0 194 184 0 191 181 0 189 179 0 188 178 0 196 186 0 199 190 10 202 194 25 206 198 30 207 199 0 189 179 145 239 172 145 239 172 131 237 161 115 235 149 112 236 147 47 201 83 145 239 172 145 239 172 145 239 172 47 201 83 140 236 167 140 236 167 140 236 167 123 233 154 123 233 154 124 228 153 227 38 12 227 38 12 227 38 12 209 43 19 227 38 12 227 38 12 227 38 12 227 38 12 227 38 12 198 32 11 187 32 10 227 38 12 227 38 12 227 38 12 227 38 12 227 38 12 107 63 127 107 63 127 107 63 127 107 63 127 107 63 127 107 63 127 107 63 127 107 63 127 107 63 127 107 63 127 107 63 127 107 63 127 107 63 127 
107 63 127 107 63 127 107 63 127 0 0 0 0 0 0 0 0 0 0 0 0 0 0 0 0 0 0 0 0 0 0 0 0 0 0 0 0 0 0 0 0 0 0 0 0 0 0 0 0 0 0 0 0 0 0 0 0 0 0 0 0 0 0 0 0 0 0 0 0 0 0 0 0 0 0 0 0 0 0 0 0 0 0 0 0 0 0 0 0 0 0 0 0 0 0 0 0 0 0 0 0 0 0 0 0 0 0 0 0 0 0 0 0 0 0 0 0 0 0 0 0 0 0 0 0 0 0 0 0 55 128 32 0 0 0 0 0 0 0 0 0 0 0 0 0 0 0 0 0 0 0 0 0 255 0 0 255 0 0 255 0 0 255 0 0 255 0 0 255 0 0 255 0 0 255 0 0 255 0 0 255 0 0 255 0 0 255 0 0 255 0 0 255 0 0 255 0 0 255 0 0 
137 137 137 98 98 98 169 169 169 172 172 172 135 135 135 103 103 103 169 169 169 134 134 134 176 176 176 141 141 141 142 142 142 98 98 98 99 99 99 163 163 163 127 127 127 127 127 127 87 87 87 87 87 87 151 151 151 151 151 151 151 151 151 151 151 151 151 151 151 151 151 151 51 51 51 151 151 151 151 151 151 151 151 151 7 7 7 87 87 87 87 87 87 51 51 51 222 215 161 216 210 154 224 213 170 231 219 177 191 180 136 210 204 148 208 202 146 211 204 149 226 223 190 230 218 175 255 255 223 220 214 158 222 211 163 216 210 154 223 213 164 233 227 171 95 92 89 88 86 82 165 161 159 144 139 136 91 88 85 118 115 112 145 140 139 109 107 105 126 126 126 90 88 84 90 88 84 129 127 127 129 127 127 171 170 169 103 101 99 129 127 127 63 50 31 101 80 47 111 90 57 56 43 24 63 50 31 152 120 73 65 52 33 102 81 48 153 121 74 61 48 29 104 83 50 154 122 75 76 61 38 124 98 62 76 61 38 149 117 70 105 84 51 180 144 90 177 141 87 180 144 90 180 144 90 180 144 90 180 144 90 180 144 90 174 138 84 177 141 87 180 144 90 180 144 90 185 149 95 186 150 96 180 144 90 100 79 46 202 202 202 232 232 232 232 232 232 234 234 234 237 237 237 238 238 238 237 237 237 237 237 237 230 230 230 230 230 230 230 230 230 230 230 230 230 230 230 230 230 230 230 230 230 189 189 189 231 200 69 253 234 100 254 234 95 255 238 91 254 245 90 254 247 89 254 247 87 254 246 88 254 244 88 255 243 90 255 246 89 255 246 87 255 245 85 255 243 81 255 243 78 234 204 57 0 189 179 100 222 217 100 222 217 110 224 219 130 228 224 135 229 225 130 228 224 130 228 224 125 227 223 125 227 223 130 228 224 130 228 224 125 227 223 120 226 222 115 225 220 0 191 181 145 239 172 79 227 121 77 227 119 71 221 113 57 203 92 145 239 172 132 236 162 89 231 129 89 231 129 89 231 129 47 201 83 94 232 133 81 227 122 80 226 121 87 231 128 54 198 95 227 38 12 201 35 11 192 34 10 208 35 11 176 32 9 193 32 10 161 27 8 161 27 8 158 26 8 128 18 6 168 29 9 185 34 10 194 34 10 192 34 10 201 35 11 227 38 12 107 63 127 214 127 255 214 127 255 214 127 255 214 127 255 214 127 255 214 127 255 214 127 255 214 127 255 
214 127 255 214 127 255 214 127 255 214 127 255 214 127 255 214 127 255 214 127 255 0 0 0 0 0 0 0 0 0 0 0 0 0 0 0 0 0 0 0 0 0 0 0 0 0 0 0 0 0 0 0 0 0 0 0 0 0 0 0 0 0 0 0 0 0 0 0 0 0 0 0 0 0 0 0 0 0 0 0 0 0 0 0 0 0 0 0 0 0 0 0 0 0 0 0 0 0 0 0 0 0 0 0 0 0 0 0 0 0 0 0 0 0 0 0 0 0 0 0 0 0 0 0 0 0 0 0 0 0 0 0 0 0 0 0 0 0 55 128 32 57 61 13 55 128 32 0 0 0 0 0 0 0 0 0 0 0 0 0 0 0 0 0 0 255 0 0 0 0 0 0 0 0 0 0 0 255 0 0 0 0 0 255 0 0 0 0 0 0 0 0 255 0 0 255 0 0 0 0 0 0 0 0 0 0 0 255 0 0 255 0 0 
98 98 98 160 160 160 122 122 122 127 127 127 127 127 127 82 82 82 169 169 169 146 146 146 127 127 127 127 127 127 133 133 133 86 86 86 100 100 100 98 98 98 151 151 151 131 131 131 87 87 87 7 7 7 51 51 51 51 51 51 7 7 7 51 51 51 51 51 51 51 51 51 151 151 151 51 51 51 87 87 87 87 87 87 87 87 87 151 151 151 87 87 87 87 87 87 226 214 170 238 226 182 249 238 194 214 207 152 216 208 153 214 208 152 219 213 157 219 213 157 220 214 158 226 220 165 230 218 175 232 220 177 217 207 158 207 200 144 210 204 148 248 236 193 145 140 139 129 127 127 144 139 136 144 139 136 90 88 84 129 127 127 111 107 105 129 127 127 129 127 127 129 127 127 114 112 110 129 127 127 171 170 169 159 157 157 99 97 93 145 140 139 58 45 26 94 75 47 100 79 46 65 52 33 104 83 50 153 121 74 62 49 30 103 82 49 152 120 73 60 47 28 103 82 49 124 98 62 76 61 38 124 98 62 76 61 38 153 121 74 60 47 28 182 146 92 157 130 75 158 131 76 159 132 77 151 124 69 159 132 77 155 128 73 167 140 85 159 132 77 159 132 77 159 132 77 159 132 77 162 135 80 181 145 91 105 84 51 196 196 196 230 230 230 230 230 230 230 230 230 230 230 230 230 230 230 230 230 230 230 230 230 230 230 230 230 230 230 230 230 230 230 230 230 230 230 230 230 230 230 230 230 230 189 189 189 232 208 69 255 254 110 255 254 110 255 254 110 255 254 110 252 252 84 251 252 85 251 251 86 251 250 88 252 248 89 254 250 85 255 249 79 254 246 73 251 243 66 250 241 59 234 206 47 0 195 185 140 231 227 140 231 227 140 231 227 145 232 228 140 231 227 140 231 227 140 231 227 135 229 225 135 229 225 140 231 227 135 229 225 120 226 222 105 223 218 90 220 214 0 191 181 131 237 161 79 227 121 71 221 113 57 203 92 145 239 172 115 235 149 91 231 131 77 227 119 76 226 118 76 226 118 71 213 108 47 201 83 89 231 129 76 224 118 75 223 117 48 182 77 227 38 12 192 34 10 185 34 10 201 34 11 182 31 10 168 30 9 152 24 8 154 26 8 134 21 7 125 17 6 157 26 8 159 26 8 166 28 9 150 23 8 192 34 10 227 38 12 107 63 127 214 127 255 214 127 255 214 127 255 214 127 255 214 127 255 214 127 255 214 127 255 214 127 255 214 127 255 
214 127 255 214 127 255 214 127 255 214 127 255 214 127 255 214 127 255 0 0 0 0 0 0 0 0 0 0 0 0 0 0 0 0 0 0 0 0 0 0 0 0 0 0 0 0 0 0 0 0 0 0 0 0 0 0 0 0 0 0 0 0 0 0 0 0 0 0 0 0 0 0 0 0 0 0 0 0 0 0 0 0 0 0 0 0 0 0 0 0 0 0 0 0 0 0 0 0 0 0 0 0 0 0 0 0 0 0 0 0 0 0 0 0 0 0 0 0 0 0 0 0 0 0 0 0 0 0 0 55 128 32 0 0 0 0 0 0 41 53 9 45 120 22 55 128 32 55 128 32 0 0 0 0 0 0 0 0 0 0 0 0 255 0 0 0 0 0 255 0 0 255 0 0 255 0 0 0 0 0 255 0 0 0 0 0 255 0 0 0 0 0 255 0 0 0 0 0 0 0 0 255 0 0 255 0 0 255 0 0 
98 98 98 98 98 98 155 155 155 125 125 125 113 113 113 86 86 86 127 127 127 129 129 129 143 143 143 127 127 127 86 86 86 88 88 88 165 165 165 98 98 98 98 98 98 83 83 83 87 87 87 151 151 151 87 87 87 87 87 87 87 87 87 7 7 7 87 87 87 151 151 151 87 87 87 87 87 87 51 51 51 51 51 51 51 51 51 51 51 51 51 51 51 87 87 87 204 199 143 214 206 152 216 208 155 221 215 160 208 201 147 223 217 161 209 202 147 221 212 163 176 170 114 214 207 151 217 210 155 226 220 165 232 223 174 231 222 173 218 212 156 191 184 129 118 115 112 129 127 127 144 139 136 90 88 84 90 88 84 129 127 127 129 127 127 129 127 127 151 151 151 123 123 121 114 112 110 145 140 139 128 127 126 99 97 93 92 89 86 145 140 139 109 88 55 69 56 37 99 78 45 64 51 32 124 98 62 124 98 62 62 49 30 104 83 50 152 120 73 60 47 28 104 83 50 152 120 73 61 48 29 156 124 77 66 53 34 124 98 62 105 84 51 180 144 90 163 136 81 183 147 93 188 152 98 188 152 98 188 152 98 188 152 98 188 152 98 184 148 94 188 152 98 185 149 95 189 153 99 159 132 77 180 144 90 60 47 28 183 183 183 222 222 222 220 220 220 220 220 220 220 220 220 220 220 220 220 220 220 224 224 224 224 224 224 224 224 224 224 224 224 217 217 217 216 216 216 214 214 214 214 214 214 177 177 177 234 210 69 255 254 110 255 254 110 255 254 110 255 254 110 253 253 81 254 255 83 254 253 85 253 251 88 252 249 88 254 248 78 255 248 72 255 247 71 255 248 69 255 248 67 233 207 50 0 197 188 145 232 228 145 232 228 140 231 227 140 231 227 145 232 228 155 234 230 150 233 229 145 232 228 135 229 225 130 228 224 130 228 224 125 227 223 125 227 223 125 227 223 0 191 181 112 236 147 71 221 113 57 203 92 145 239 172 115 235 149 117 235 150 93 231 132 79 227 121 72 224 115 71 221 113 69 213 106 57 203 92 47 201 83 76 224 118 74 218 115 48 182 77 227 38 12 188 32 10 174 31 9 170 30 9 209 43 19 150 24 8 112 14 6 123 17 6 121 16 6 141 21 8 134 21 7 154 25 8 180 31 10 181 31 10 186 33 10 227 38 12 107 63 127 214 127 255 214 127 255 214 127 255 214 127 255 214 127 255 214 127 255 214 127 255 214 127 255 214 127 255 214 127 255 
214 127 255 214 127 255 214 127 255 214 127 255 214 127 255 0 0 0 0 0 0 0 0 0 0 0 0 0 0 0 0 0 0 0 0 0 0 0 0 0 0 0 0 0 0 0 0 0 0 0 0 0 0 0 0 0 0 0 0 0 0 0 0 0 0 0 0 0 0 0 0 0 0 0 0 0 0 0 0 0 0 0 0 0 0 0 0 0 0 0 0 0 0 0 0 0 0 0 0 0 0 0 0 0 0 0 0 0 0 0 0 0 0 0 0 0 0 0 0 0 0 0 0 55 128 32 57 61 13 39 105 19 39 105 19 41 53 9 39 105 19 57 61 13 45 120 22 0 0 0 0 0 0 0 0 0 0 0 0 255 0 0 0 0 0 0 0 0 255 0 0 255 0 0 0 0 0 255 0 0 0 0 0 0 0 0 255 0 0 255 0 0 0 0 0 255 0 0 255 0 0 255 0 0 255 0 0 
153 153 153 169 169 169 86 86 86 86 86 86 86 86 86 86 86 86 104 104 104 127 127 127 80 80 80 85 85 85 169 169 169 154 154 154 127 127 127 127 127 127 98 98 98 111 111 111 87 87 87 151 151 151 151 151 151 51 51 51 51 51 51 51 51 51 51 51 51 51 51 51 51 51 51 51 51 51 151 151 151 151 151 151 151 151 151 151 151 151 151 151 151 7 7 7 228 222 167 214 207 151 232 220 177 214 207 151 232 220 177 232 220 177 230 217 174 232 220 177 208 199 149 205 199 144 210 204 148 230 218 175 215 203 159 194 188 132 238 228 182 201 194 139 177 170 167 129 127 127 114 112 110 129 127 127 129 127 127 145 140 139 129 127 127 151 151 151 116 116 116 91 88 85 129 127 127 145 140 139 114 112 110 140 137 136 129 127 127 129 127 127 106 85 52 65 52 33 108 87 54 103 82 49 124 98 62 124 98 62 108 87 54 103 82 49 110 89 56 66 53 34 106 85 52 154 122 75 61 48 29 154 122 75 60 47 28 124 98 62 76 61 38 179 143 89 157 130 75 188 152 98 180 144 90 185 149 95 180 144 90 180 144 90 180 144 90 183 147 93 180 144 90 184 148 94 188 152 98 159 132 77 180 144 90 105 84 51 196 196 196 240 240 240 238 238 238 239 239 239 238 238 238 240 240 240 239 239 239 239 239 239 239 239 239 230 230 230 230 230 230 230 230 230 230 230 230 230 230 230 230 230 230 190 190 190 234 209 69 255 253 87 255 254 110 253 253 82 253 251 76 255 254 78 255 253 78 255 252 82 255 251 86 255 250 88 254 248 78 254 247 71 253 246 70 253 245 69 253 245 69 234 210 57 0 196 186 150 233 229 140 231 227 145 232 228 135 229 225 150 233 229 145 232 228 145 232 228 145 232 228 145 232 228 130 228 224 125 227 223 120 226 222 115 225 220 115 225 220 0 195 185 112 236 147 57 203 92 145 239 172 117 235 150 115 235 149 104 234 141 93 231 132 77 227 119 71 221 113 71 221 113 69 213 106 64 208 98 57 203 91 47 201 83 74 218 115 48 182 77 227 38 12 182 33 10 135 20 6 152 25 8 176 30 9 135 19 7 120 15 6 119 15 6 119 15 6 119 15 6 120 15 6 133 19 6 170 29 9 200 32 11 209 43 19 228 36 12 107 63 127 214 127 255 214 127 255 214 127 255 214 127 255 214 127 255 214 127 255 214 127 255 214 127 255 
214 127 255 214 127 255 214 127 255 214 127 255 214 127 255 214 127 255 214 127 255 0 0 0 0 0 0 0 0 0 0 0 0 0 0 0 0 0 0 0 0 0 0 0 0 0 0 0 0 0 0 0 0 0 0 0 0 0 0 0 0 0 0 0 0 0 0 0 0 0 0 0 0 0 0 0 0 0 0 0 0 0 0 0 0 0 0 0 0 0 0 0 0 0 0 0 0 0 0 0 0 0 0 0 0 0 0 0 0 0 0 0 0 0 0 0 0 0 0 0 0 0 0 0 0 0 0 0 0 0 0 0 45 120 22 47 48 8 57 61 13 39 105 19 57 61 13 0 0 0 0 0 0 0 0 0 0 0 0 0 0 0 0 0 0 255 0 0 0 0 0 255 0 0 255 0 0 255 0 0 0 0 0 255 0 0 0 0 0 255 0 0 0 0 0 255 0 0 0 0 0 0 0 0 0 0 0 255 0 0 255 0 0 
175 175 175 124 124 124 114 114 114 174 174 174 162 162 162 173 173 173 98 98 98 86 86 86 104 104 104 191 191 191 158 158 158 127 127 127 143 143 143 127 127 127 135 135 135 104 104 104 51 51 51 51 51 51 87 87 87 87 87 87 87 87 87 51 51 51 51 51 51 51 51 51 87 87 87 7 7 7 87 87 87 87 87 87 51 51 51 51 51 51 7 7 7 87 87 87 205 199 143 223 216 160 207 200 146 255 255 241 211 204 149 233 227 172 222 215 161 221 209 167 214 208 152 241 234 180 220 214 158 197 190 134 207 200 146 209 203 147 218 212 156 194 188 132 170 158 152 94 90 86 117 114 111 129 127 127 118 115 112 145 140 139 114 112 110 129 127 127 91 88 85 91 88 85 129 127 127 129 127 127 117 114 111 129 127 127 129 127 127 177 170 167 108 87 54 94 75 47 108 87 54 102 81 48 154 122 75 104 83 50 102 81 48 106 85 52 107 86 53 61 48 29 105 84 51 143 111 64 62 49 30 124 98 62 64 51 32 103 82 49 60 47 28 180 144 90 156 129 74 188 152 98 180 144 90 159 132 77 163 136 81 164 137 82 159 132 77 159 132 77 159 132 77 180 144 90 185 149 95 155 128 73 180 144 90 105 84 51 196 196 196 230 230 230 230 230 230 230 230 230 230 230 230 230 230 230 230 230 230 230 230 230 230 230 230 230 230 230 230 230 230 230 230 230 230 230 230 230 230 230 230 230 230 190 190 190 234 210 67 254 254 90 253 253 83 255 241 68 255 241 68 255 249 73 255 249 74 255 249 76 255 249 80 254 249 81 253 251 79 253 251 77 253 250 76 252 249 74 252 248 73 234 209 58 0 196 186 155 234 230 145 232 228 105 223 218 105 223 218 130 228 224 130 228 224 135 229 225 135 229 225 135 229 225 135 229 225 135 229 225 135 229 225 125 227 223 125 227 223 0 195 185 47 201 83 145 239 172 117 235 150 111 235 146 95 233 134 99 233 137 91 231 131 76 226 118 71 221 113 72 224 115 69 213 106 69 213 106 69 213 106 57 203 95 47 201 83 48 182 77 227 38 12 181 33 10 158 26 8 127 17 6 148 24 8 116 15 6 144 16 8 116 15 6 116 15 6 116 15 6 118 15 6 156 26 8 187 28 10 171 30 9 185 34 10 228 35 12 107 63 127 214 127 255 214 127 255 214 127 255 214 127 255 214 127 255 214 127 255 214 127 255 214 127 255 214 127 255 214 127 255 
214 127 255 214 127 255 214 127 255 214 127 255 214 127 255 0 0 0 0 0 0 0 0 0 0 0 0 0 0 0 0 0 0 0 0 0 0 0 0 0 0 0 0 0 0 0 0 0 0 0 0 0 0 0 0 0 0 0 0 0 0 0 0 0 0 0 0 0 0 0 0 0 0 0 0 0 0 0 0 0 0 0 0 0 0 0 0 0 0 0 0 0 0 0 0 0 0 0 0 0 0 0 0 0 0 0 0 0 0 0 0 0 0 0 0 0 0 0 0 0 0 0 0 0 0 0 0 0 0 39 105 19 57 61 13 55 128 32 55 128 32 55 128 32 0 0 0 0 0 0 0 0 0 0 0 0 0 0 0 255 0 0 255 0 0 255 0 0 255 0 0 255 0 0 255 0 0 255 0 0 255 0 0 255 0 0 255 0 0 255 0 0 255 0 0 255 0 0 255 0 0 255 0 0 255 0 0 
119 119 119 135 135 135 94 94 94 156 156 156 130 130 130 122 122 122 126 126 126 98 98 98 98 98 98 98 98 98 127 127 127 141 141 141 136 136 136 145 145 145 94 94 94 90 90 90 151 151 151 151 151 151 87 87 87 99 99 99 87 87 87 51 51 51 151 151 151 151 151 151 87 87 87 87 87 87 87 87 87 87 87 87 151 151 151 151 151 151 151 151 151 7 7 7 188 182 126 223 211 169 203 191 148 219 213 157 191 184 130 226 219 163 216 208 155 210 204 148 214 207 152 214 208 152 232 220 177 255 247 204 220 213 159 230 218 175 221 215 160 217 205 162 123 115 111 94 90 86 129 127 127 151 151 151 151 151 151 98 96 94 114 112 110 129 127 127 129 127 127 129 127 127 118 115 112 129 127 127 129 127 127 144 136 132 129 127 127 82 79 76 104 83 50 124 98 62 76 61 38 108 87 54 151 119 72 98 77 44 104 83 50 60 47 28 145 113 66 60 47 28 124 98 62 89 71 44 55 42 23 124 98 62 62 49 30 110 89 56 60 47 28 180 144 90 159 132 77 186 150 96 182 146 92 157 130 75 186 150 96 187 151 97 191 155 101 188 152 98 159 132 77 180 144 90 184 148 94 159 132 77 180 144 90 60 47 28 185 185 185 220 220 220 220 220 220 220 220 220 220 220 220 219 219 219 224 224 224 224 224 224 224 224 224 224 224 224 217 217 217 217 217 217 217 217 217 216 216 216 217 217 217 177 177 177 231 211 64 251 252 90 250 250 84 255 249 74 255 249 74 253 245 70 255 248 73 255 249 74 255 249 76 255 250 78 249 251 73 249 253 72 252 252 72 253 248 70 254 243 66 234 206 54 0 196 186 145 232 228 135 229 225 130 228 224 130 228 224 115 225 220 130 228 224 130 228 224 135 229 225 135 229 225 130 228 224 135 229 225 135 229 225 125 227 223 110 224 219 0 193 183 145 239 172 87 233 128 98 234 137 98 234 137 98 234 137 97 233 136 131 237 161 131 237 161 116 236 150 103 235 140 68 216 110 70 216 108 63 213 102 57 209 96 57 209 96 48 182 77 227 38 12 181 33 10 158 26 8 118 15 6 115 15 6 116 15 6 116 15 6 116 15 6 112 14 6 116 15 6 116 15 6 119 15 6 188 28 10 172 30 9 185 34 10 227 38 12 107 63 127 214 127 255 214 127 255 214 127 255 214 127 255 214 127 255 214 127 255 214 127 255 214 127 255 214 127 255 
214 127 255 214 127 255 214 127 255 214 127 255 214 127 255 214 127 255 0 0 0 0 0 0 0 0 0 0 0 0 0 0 0 0 0 0 0 0 0 0 0 0 0 0 0 0 0 0 0 0 0 0 0 0 0 0 0 0 0 0 0 0 0 0 0 0 0 0 0 0 0 0 0 0 0 0 0 0 0 0 0 0 0 0 0 0 0 0 0 0 0 0 0 0 0 0 0 0 0 0 0 0 0 0 0 0 0 0 0 0 0 0 0 0 0 0 0 0 0 0 0 0 0 0 0 0 55 128 32 55 128 32 0 0 0 55 128 32 44 108 24 47 48 8 57 61 13 55 128 32 0 0 0 0 0 0 0 0 0 0 0 0 255 0 0 0 0 0 0 0 0 0 0 0 255 0 0 0 0 0 0 0 0 0 0 0 255 0 0 0 0 0 255 0 0 0 0 0 255 0 0 0 0 0 255 0 0 255 0 0 
121 121 121 119 119 119 116 116 116 86 86 86 77 77 77 76 76 76 86 86 86 137 137 137 167 167 167 129 129 129 93 93 93 99 99 99 114 114 114 83 83 83 93 93 93 103 103 103 87 87 87 87 87 87 87 87 87 51 51 51 51 51 51 51 51 51 51 51 51 51 51 51 51 51 51 7 7 7 51 51 51 51 51 51 51 51 51 51 51 51 87 87 87 87 87 87 218 212 156 214 208 152 230 218 174 216 210 154 219 213 157 209 202 147 229 222 168 251 244 189 221 215 160 208 196 153 214 208 152 211 204 149 223 217 161 224 213 170 238 234 204 230 218 175 94 90 86 129 127 127 143 138 137 151 151 151 116 116 116 89 87 85 129 127 127 183 181 182 183 181 182 97 94 91 145 140 139 144 136 132 144 136 132 144 136 132 89 87 83 129 127 127 107 86 53 154 122 75 62 49 30 107 86 53 155 123 76 61 48 29 154 122 75 65 52 33 153 121 74 58 45 26 124 98 62 76 61 38 102 81 48 124 98 62 63 50 31 110 89 56 60 47 28 181 145 91 159 132 77 201 165 111 180 144 90 159 132 77 188 152 98 180 144 90 180 144 90 187 151 97 161 134 79 173 137 83 188 152 98 159 132 77 180 144 90 116 95 62 196 196 196 241 241 241 238 238 238 237 237 237 233 233 233 233 233 233 233 233 233 233 233 233 230 230 230 230 230 230 230 230 230 230 230 230 230 230 230 230 230 230 230 230 230 189 189 189 232 212 62 253 253 98 253 250 90 255 249 74 255 241 68 255 241 68 255 241 68 255 241 68 255 241 68 254 243 69 250 247 65 251 251 65 253 251 67 253 247 64 252 241 59 233 206 52 0 196 186 155 234 230 140 231 227 130 228 224 105 223 218 105 223 218 105 223 218 105 223 218 105 223 218 110 224 219 115 225 220 125 227 223 130 228 224 115 225 220 95 221 215 0 191 181 145 239 172 87 233 128 87 233 128 94 232 133 79 231 122 79 231 122 112 236 147 100 234 138 100 234 138 87 233 128 66 216 109 63 213 102 63 213 102 55 209 95 57 209 96 47 179 75 227 38 12 193 33 10 163 27 8 129 18 6 115 15 6 116 15 6 116 15 6 116 15 6 116 15 6 144 16 8 116 15 6 156 26 8 159 26 8 171 30 9 194 34 10 227 38 12 107 63 127 214 127 255 214 127 255 214 127 255 214 127 255 214 127 255 214 127 255 214 127 255 214 127 255 214 127 255 214 127 255 214 127 255 
214 127 255 214 127 255 214 127 255 214 127 255 0 0 0 0 0 0 0 0 0 0 0 0 0 0 0 0 0 0 0 0 0 0 0 0 0 0 0 0 0 0 0 0 0 0 0 0 0 0 0 0 0 0 0 0 0 0 0 0 0 0 0 0 0 0 0 0 0 0 0 0 0 0 0 0 0 0 0 0 0 0 0 0 0 0 0 0 0 0 0 0 0 0 0 0 0 0 0 0 0 0 0 0 0 0 0 0 0 0 0 0 0 0 0 0 0 44 108 24 57 61 13 57 61 13 41 53 9 44 108 24 49 53 9 57 61 13 55 128 32 0 0 0 0 0 0 0 0 0 0 0 0 0 0 0 255 0 0 255 0 0 0 0 0 255 0 0 255 0 0 0 0 0 0 0 0 255 0 0 255 0 0 255 0 0 0 0 0 255 0 0 255 0 0 0 0 0 255 0 0 255 0 0 
98 98 98 169 169 169 169 169 169 169 169 169 129 129 129 93 93 93 172 172 172 150 150 150 169 169 169 169 169 169 144 144 144 108 108 108 155 155 155 140 140 140 101 101 101 98 98 98 87 87 87 151 151 151 151 151 151 7 7 7 151 151 151 51 51 51 87 87 87 87 87 87 87 87 87 151 151 151 151 151 151 151 151 151 151 151 151 151 151 151 151 151 151 151 151 151 224 217 162 223 211 169 237 225 182 231 219 175 224 212 169 211 204 149 232 220 177 223 211 169 213 204 154 255 254 210 193 186 131 220 213 159 214 206 152 219 207 164 221 211 163 219 213 157 129 127 127 165 161 159 120 116 112 129 127 127 89 87 85 129 127 127 140 137 136 111 110 105 88 86 82 82 79 74 129 127 127 101 97 93 89 87 83 89 87 83 89 87 83 145 140 139 105 84 51 153 121 74 63 50 31 112 91 58 148 116 69 65 52 33 105 84 51 64 51 32 105 84 51 66 53 34 147 115 68 60 47 28 108 87 54 107 86 53 63 50 31 124 98 62 105 84 51 180 144 90 172 145 90 188 152 98 180 144 90 159 132 77 186 150 96 180 144 90 180 144 90 188 152 98 158 131 76 180 144 90 188 152 98 156 129 74 184 148 94 105 84 51 197 197 197 230 230 230 230 230 230 230 230 230 230 230 230 230 230 230 230 230 230 230 230 230 230 230 230 230 230 230 230 230 230 230 230 230 230 230 230 230 230 230 230 230 230 189 189 189 234 212 65 255 251 99 255 253 101 255 249 74 255 253 107 255 241 68 255 241 68 255 241 68 255 241 68 255 241 68 255 241 68 255 241 68 255 241 68 251 239 58 247 233 53 232 200 47 0 197 188 150 233 229 160 235 232 130 228 224 160 235 232 105 223 218 105 223 218 105 223 218 105 223 218 105 223 218 105 223 218 105 223 218 105 223 218 85 219 213 60 213 207 0 187 176 131 237 161 87 233 128 91 233 131 85 233 127 91 233 131 79 231 122 107 235 143 100 234 138 95 233 134 86 232 127 62 216 106 63 213 102 60 208 99 60 208 98 57 209 96 47 179 75 227 38 12 194 34 10 163 27 8 133 19 7 117 15 6 112 14 6 116 15 6 116 15 6 116 15 6 116 15 6 116 15 6 123 17 6 127 18 6 157 26 8 178 32 10 227 38 12 107 63 127 214 127 255 214 127 255 214 127 255 214 127 255 214 127 255 214 127 255 214 127 255 214 127 255 
214 127 255 214 127 255 214 127 255 214 127 255 214 127 255 214 127 255 214 127 255 0 0 0 0 0 0 0 0 0 0 0 0 0 0 0 0 0 0 0 0 0 0 0 0 0 0 0 0 0 0 0 0 0 0 0 0 0 0 0 0 0 0 0 0 0 0 0 0 0 0 0 0 0 0 0 0 0 0 0 0 0 0 0 0 0 0 0 0 0 0 0 0 0 0 0 0 0 0 0 0 0 0 0 0 0 0 0 0 0 0 0 0 0 0 0 0 0 0 0 0 0 0 0 0 0 0 0 0 44 108 24 55 128 32 57 61 13 57 61 13 31 41 7 57 61 13 0 0 0 55 128 32 44 108 24 0 0 0 0 0 0 0 0 0 255 0 0 255 0 0 0 0 0 255 0 0 255 0 0 0 0 0 255 0 0 255 0 0 255 0 0 0 0 0 255 0 0 0 0 0 255 0 0 255 0 0 255 0 0 255 0 0 
98 98 98 127 127 127 135 135 135 127 127 127 141 141 141 80 80 80 102 102 102 114 114 114 169 169 169 169 169 169 108 108 108 127 127 127 78 78 78 98 98 98 169 169 169 169 169 169 87 87 87 51 51 51 51 51 51 51 51 51 51 51 51 51 51 51 51 51 51 87 87 87 7 7 7 87 87 87 87 87 87 51 51 51 51 51 51 51 51 51 151 151 151 87 87 87 193 187 132 216 209 155 228 216 173 217 210 155 216 210 154 221 210 166 208 199 149 210 204 148 218 212 156 220 213 159 220 213 159 238 232 177 218 212 156 224 213 169 215 205 157 234 227 172 129 127 127 120 116 112 85 83 77 129 127 127 129 127 127 129 127 127 117 114 111 140 137 136 129 127 127 129 127 127 129 127 127 140 137 136 129 127 127 129 127 127 129 127 127 145 140 139 105 84 51 156 124 77 70 57 38 103 82 49 109 88 55 148 116 69 66 53 34 106 85 52 106 85 52 57 44 25 149 117 70 66 53 34 107 86 53 149 117 70 65 52 33 124 98 62 105 84 51 183 147 93 156 129 74 188 152 98 179 143 89 154 127 72 188 152 98 188 152 98 188 152 98 190 154 100 159 132 77 180 144 90 189 153 99 157 130 75 180 144 90 105 84 51 183 183 183 222 222 222 220 220 220 220 220 220 224 224 224 224 224 224 224 224 224 221 221 221 221 221 221 224 224 224 217 217 217 217 217 217 214 214 214 214 214 214 220 220 220 177 177 177 234 211 73 255 250 105 255 254 108 255 249 74 255 251 100 254 251 96 254 251 93 254 252 91 253 253 91 253 254 89 252 255 88 254 255 87 254 253 86 255 250 83 255 247 79 234 206 58 0 198 189 150 233 229 165 236 233 130 228 224 150 233 229 150 233 229 145 232 228 150 233 229 150 233 229 150 233 229 155 234 230 155 234 230 150 233 229 140 231 227 130 228 224 0 193 183 47 203 84 95 225 132 92 234 132 95 225 132 89 233 130 89 233 130 117 235 150 97 233 135 97 233 135 97 233 135 63 207 100 60 202 97 60 204 97 61 201 97 57 209 96 47 179 75 227 38 12 194 34 10 161 27 8 125 17 6 114 14 6 119 15 6 119 15 6 156 26 8 112 14 6 119 15 6 119 15 6 123 17 6 127 18 6 157 26 8 178 32 10 227 38 12 107 63 127 214 127 255 214 127 255 214 127 255 214 127 255 214 127 255 214 127 255 214 127 255 214 127 255 214 127 255 
214 127 255 214 127 255 214 127 255 214 127 255 214 127 255 214 127 255 0 0 0 0 0 0 0 0 0 0 0 0 0 0 0 0 0 0 0 0 0 0 0 0 0 0 0 0 0 0 0 0 0 0 0 0 0 0 0 0 0 0 0 0 0 0 0 0 0 0 0 0 0 0 0 0 0 0 0 0 0 0 0 0 0 0 0 0 0 0 0 0 0 0 0 0 0 0 0 0 0 0 0 0 0 0 0 0 0 0 0 0 0 0 0 0 0 0 0 0 0 0 0 0 0 0 0 0 0 0 0 0 0 0 49 53 9 57 61 13 57 61 13 57 61 13 57 61 13 57 61 13 55 128 32 0 0 0 0 0 0 0 0 0 255 0 0 255 0 0 0 0 0 255 0 0 255 0 0 0 0 0 0 0 0 0 0 0 255 0 0 0 0 0 255 0 0 0 0 0 255 0 0 0 0 0 255 0 0 255 0 0 
82 82 82 91 91 91 137 137 137 127 127 127 80 80 80 98 98 98 98 98 98 105 105 105 90 90 90 127 127 127 127 127 127 80 80 80 97 97 97 169 169 169 169 169 169 130 130 130 87 87 87 87 87 87 151 151 151 51 51 51 51 51 51 151 151 151 151 151 151 51 51 51 7 7 7 51 51 51 151 151 151 151 151 151 151 151 151 87 87 87 87 87 87 87 87 87 223 217 162 224 212 168 169 163 108 229 217 174 199 192 137 237 225 182 215 209 153 219 207 164 241 230 186 241 234 178 230 224 169 214 207 151 218 212 156 251 251 234 214 208 151 218 212 156 114 112 110 140 137 136 129 127 127 140 137 136 151 151 151 151 151 151 114 112 110 140 137 136 144 136 132 144 136 132 89 87 83 140 137 136 114 112 110 140 137 136 170 158 152 170 158 152 69 56 37 124 98 62 64 51 32 106 85 52 103 82 49 150 118 71 58 45 26 100 79 46 62 49 30 94 75 47 159 127 80 64 51 32 106 85 52 155 123 76 67 54 35 149 117 70 102 81 48 177 141 87 159 132 77 183 147 93 180 144 90 159 132 77 159 132 77 159 132 77 159 132 77 159 132 77 159 132 77 185 149 95 189 153 99 159 132 77 180 144 90 104 83 50 197 197 197 242 242 242 243 243 243 243 243 243 242 242 242 242 242 242 242 242 242 236 236 236 236 236 236 236 236 236 236 236 236 230 230 230 230 230 230 230 230 230 230 230 230 188 188 188 234 211 79 255 252 115 255 254 116 255 254 114 255 253 110 255 253 107 254 254 105 254 255 103 253 255 101 253 254 99 254 254 94 255 254 94 255 253 94 255 247 86 254 239 76 232 195 51 0 198 189 165 236 233 170 237 234 170 237 234 165 236 233 160 235 232 165 236 233 165 236 233 160 235 232 160 235 232 155 234 230 160 235 232 155 234 230 135 229 225 100 222 217 0 184 173 146 238 172 47 203 84 95 225 132 89 231 129 92 226 130 83 223 123 77 225 119 77 215 113 75 215 111 60 206 98 52 194 85 60 198 93 61 197 93 51 191 84 47 179 75 63 197 98 227 38 12 194 34 10 121 15 6 121 15 6 120 15 6 116 15 6 119 15 6 119 15 6 209 43 19 119 15 6 123 17 6 122 17 6 139 21 7 163 28 8 209 43 19 227 38 12 107 63 127 214 127 255 214 127 255 214 127 255 214 127 255 214 127 255 214 127 255 214 127 255 214 127 255 214 127 255 
214 127 255 214 127 255 214 127 255 214 127 255 214 127 255 214 127 255 0 0 0 0 0 0 0 0 0 0 0 0 0 0 0 0 0 0 254 42 42 254 42 42 254 42 42 226 18 18 0 0 0 0 0 0 0 0 0 0 0 0 0 0 0 0 0 0 0 0 0 0 0 0 0 0 0 0 0 0 0 0 0 0 0 0 204 153 120 204 153 120 204 153 120 145 109 85 0 0 0 0 0 0 0 0 0 0 0 0 0 0 0 0 0 0 0 0 0 0 0 0 0 0 0 0 0 0 0 0 0 0 0 0 0 0 0 57 61 13 55 128 32 31 41 7 0 0 0 55 128 32 0 0 0 0 0 0 0 0 0 0 0 0 255 0 0 255 0 0 255 0 0 255 0 0 255 0 0 255 0 0 255 0 0 255 0 0 255 0 0 255 0 0 255 0 0 255 0 0 255 0 0 255 0 0 255 0 0 255 0 0 
86 86 86 97 97 97 86 86 86 90 90 90 98 98 98 162 162 162 174 174 174 130 130 130 115 115 115 81 81 81 98 98 98 98 98 98 175 175 175 133 133 133 145 145 145 127 127 127 7 7 7 87 87 87 87 87 87 87 87 87 51 51 51 87 87 87 87 87 87 87 87 87 151 151 151 151 151 151 87 87 87 87 87 87 87 87 87 151 151 151 151 151 151 7 7 7 206 199 144 229 217 174 229 223 166 201 189 145 221 215 160 214 207 152 220 213 159 216 208 153 221 215 160 220 213 159 216 210 154 255 250 194 210 204 148 210 204 148 209 202 147 187 179 126 117 114 111 182 180 181 180 178 179 140 137 136 98 96 94 82 79 74 140 137 136 129 127 127 101 97 93 89 87 83 89 87 83 140 137 136 114 112 110 140 137 136 123 115 111 103 99 93 62 49 30 124 98 62 63 50 31 103 82 49 111 90 57 154 122 75 66 53 34 154 122 75 56 43 24 94 75 47 157 125 78 61 48 29 108 87 54 151 119 72 60 47 28 155 123 76 60 47 28 179 143 89 159 132 77 188 152 98 179 143 89 182 146 92 180 144 90 179 143 89 180 144 90 180 144 90 180 144 90 185 149 95 188 152 98 164 137 82 180 144 90 101 80 47 198 198 198 230 230 230 230 230 230 230 230 230 230 230 230 230 230 230 230 230 230 230 230 230 230 230 230 230 230 230 230 230 230 230 230 230 230 230 230 230 230 230 230 230 230 187 187 187 234 211 82 255 253 120 255 253 120 255 254 119 255 254 117 255 254 115 255 255 113 255 254 110 254 252 107 254 251 105 255 252 98 255 247 89 252 237 79 249 228 71 248 222 64 230 188 47 0 199 190 170 237 234 170 237 234 170 237 234 170 237 234 170 237 234 170 237 234 165 236 233 160 235 232 155 234 230 155 234 230 135 229 225 95 221 215 60 213 207 35 208 200 0 178 166 146 238 172 137 237 165 47 203 84 77 217 113 77 217 113 95 225 132 77 225 119 77 215 113 66 212 107 60 202 97 61 197 93 57 191 88 49 187 78 47 179 75 137 237 168 51 191 87 227 38 12 148 21 8 129 18 6 163 28 8 132 16 7 120 15 6 156 26 8 160 26 8 125 15 6 120 15 6 129 19 6 138 21 7 153 25 8 163 28 8 182 33 10 227 38 12 107 63 127 214 127 255 214 127 255 214 127 255 214 127 255 214 127 255 214 127 255 214 127 255 214 127 255 214 127 255 214 127 255 214 127 255 
214 127 255 214 127 255 214 127 255 214 127 255 0 0 0 0 0 0 0 0 0 0 0 0 0 0 0 254 42 42 255 255 255 226 18 18 226 18 18 196 29 38 154 23 28 0 0 0 0 0 0 0 0 0 0 0 0 0 0 0 0 0 0 0 0 0 0 0 0 0 0 0 0 0 0 204 153 120 204 153 120 145 109 85 145 109 85 145 109 85 114 86 67 0 0 0 0 0 0 0 0 0 0 0 0 0 0 0 0 0 0 0 0 0 0 0 0 0 0 0 0 0 0 55 128 32 44 108 24 47 48 8 44 108 24 45 120 22 0 0 0 0 0 0 0 0 0 0 0 0 0 0 0 0 0 0 255 0 0 255 0 0 255 0 0 255 0 0 255 0 0 255 0 0 255 0 0 255 0 0 255 0 0 255 0 0 255 0 0 255 0 0 255 0 0 255 0 0 255 0 0 255 0 0 
98 98 98 158 158 158 153 153 153 151 151 151 89 89 89 125 125 125 163 163 163 143 143 143 171 171 171 169 169 169 98 98 98 98 98 98 169 169 169 132 132 132 132 132 132 90 90 90 87 87 87 51 51 51 51 51 51 51 51 51 51 51 51 51 51 51 51 51 51 51 51 51 151 151 151 151 151 151 51 51 51 51 51 51 51 51 51 51 51 51 51 51 51 87 87 87 238 226 182 221 215 160 211 204 149 239 231 178 223 217 161 210 203 149 226 218 164 190 183 127 199 191 137 220 213 159 216 208 155 209 202 147 224 213 169 229 217 174 208 201 145 214 206 152 140 137 136 168 167 166 98 96 92 129 127 127 140 137 136 129 127 127 171 170 169 111 109 105 140 137 136 129 127 127 129 127 127 140 137 136 151 151 151 129 127 127 103 99 93 129 127 127 59 46 27 154 122 75 57 44 25 102 81 48 107 86 53 154 122 75 56 43 24 106 85 52 63 50 31 101 80 47 151 119 72 60 47 28 106 85 52 98 77 44 64 51 32 152 120 73 60 47 28 180 144 90 159 132 77 191 155 101 189 153 99 183 147 93 187 151 97 188 152 98 188 152 98 188 152 98 191 155 101 188 152 98 186 150 96 159 132 77 181 145 91 60 47 28 183 183 183 220 220 220 220 220 220 220 220 220 220 220 220 220 220 220 225 225 225 225 225 225 224 224 224 224 224 224 216 216 216 216 216 216 216 216 216 214 214 214 217 217 217 177 177 177 234 212 81 255 254 115 254 252 112 253 252 112 255 253 114 255 255 114 255 255 111 255 252 108 253 250 105 253 248 101 255 242 87 254 232 74 246 220 61 244 214 57 246 212 55 232 187 46 0 199 190 170 237 234 160 235 232 160 235 232 165 236 233 170 237 234 170 237 234 160 235 232 150 233 229 140 231 227 120 226 222 80 218 212 25 206 198 5 201 193 0 200 191 0 178 166 120 236 153 111 235 146 108 234 144 47 203 84 77 217 113 77 217 113 77 225 119 66 212 107 60 208 98 59 205 97 56 198 90 51 191 84 47 179 75 141 237 168 77 225 119 51 191 87 199 32 11 185 30 10 185 34 10 165 28 9 163 28 8 188 30 10 183 31 10 159 26 8 125 17 6 147 24 8 139 21 7 153 25 8 163 28 8 131 19 6 182 33 10 227 38 12 107 63 127 214 127 255 214 127 255 214 127 255 214 127 255 214 127 255 214 127 255 214 127 255 214 127 255 214 127 255 
214 127 255 214 127 255 214 127 255 214 127 255 214 127 255 214 127 255 0 0 0 0 0 0 0 0 0 0 0 0 254 42 42 226 18 18 226 18 18 226 18 18 226 18 18 206 206 206 154 23 28 154 23 28 0 0 0 0 0 0 0 0 0 0 0 0 0 0 0 0 0 0 0 0 0 0 0 0 0 0 0 145 109 85 145 109 85 145 109 85 145 109 85 114 86 67 114 86 67 0 0 0 0 0 0 0 0 0 0 0 0 0 0 0 0 0 0 0 0 0 0 0 0 0 0 0 0 0 0 55 128 32 57 61 13 57 61 13 41 53 9 45 120 22 0 0 0 0 0 0 0 0 0 0 0 0 0 0 0 0 0 0 255 0 0 0 0 0 255 0 0 0 0 0 255 0 0 0 0 0 0 0 0 255 0 0 255 0 0 0 0 0 255 0 0 255 0 0 0 0 0 0 0 0 0 0 0 255 0 0 
162 162 162 166 166 166 142 142 142 135 135 135 104 104 104 97 97 97 80 80 80 102 102 102 116 116 116 132 132 132 125 125 125 98 98 98 122 122 122 136 136 136 127 127 127 86 86 86 87 87 87 151 151 151 51 51 51 151 151 151 7 7 7 87 87 87 87 87 87 51 51 51 51 51 51 51 51 51 7 7 7 51 51 51 87 87 87 87 87 87 151 151 151 151 151 151 222 216 166 230 218 175 204 199 143 179 173 118 209 202 147 210 204 148 211 204 149 244 232 189 224 213 170 246 233 190 230 218 175 223 217 162 227 221 164 214 208 152 230 218 175 213 201 158 165 161 159 117 114 111 129 127 127 129 127 127 117 114 111 140 137 136 171 170 169 111 110 105 140 137 136 114 112 110 151 151 151 116 116 116 82 79 74 114 112 110 140 137 136 129 127 127 65 52 33 109 88 55 94 75 47 108 87 54 104 83 50 124 98 62 76 61 38 110 89 56 109 88 55 99 78 45 103 82 49 61 48 29 106 85 52 148 116 69 156 124 77 58 45 26 60 47 28 180 144 90 153 126 71 159 132 77 164 137 82 159 132 77 159 132 77 159 132 77 154 127 72 160 133 78 159 132 77 163 136 81 167 140 85 164 137 82 178 142 88 60 47 28 198 198 198 242 242 242 240 240 240 239 239 239 242 242 242 242 242 242 242 242 242 241 241 241 238 238 238 230 230 230 230 230 230 230 230 230 230 230 230 230 230 230 230 230 230 186 186 186 234 213 75 254 255 100 251 252 97 251 251 97 254 254 100 255 254 101 255 254 100 255 252 98 253 248 95 252 244 89 251 231 71 252 224 62 250 220 58 250 216 56 252 214 55 233 185 44 0 199 190 165 236 233 150 233 229 145 232 228 160 235 232 160 235 232 160 235 232 155 234 230 140 231 227 120 226 222 70 215 209 45 210 203 30 207 199 15 203 195 15 203 195 0 177 165 98 226 134 84 226 124 79 225 120 74 220 115 47 203 84 75 217 112 75 215 111 66 212 104 58 208 97 58 202 95 48 192 82 47 179 75 136 236 167 77 225 122 61 209 99 50 188 86 199 32 11 207 35 11 194 34 10 131 19 6 185 34 10 209 43 19 175 30 9 163 28 8 163 28 8 163 28 8 163 28 8 178 32 10 178 32 10 185 34 10 192 34 10 227 38 12 107 63 127 214 127 255 214 127 255 214 127 255 214 127 255 214 127 255 214 127 255 214 127 255 214 127 255 214 127 255 
214 127 255 214 127 255 214 127 255 214 127 255 214 127 255 214 127 255 0 0 0 0 0 0 0 0 0 0 0 0 206 206 206 226 18 18 196 29 38 206 206 206 196 29 38 154 23 28 154 23 28 150 150 150 0 0 0 0 0 0 0 0 0 0 0 0 0 0 0 0 0 0 0 0 0 0 0 0 0 0 0 145 109 85 114 86 67 114 86 67 114 86 67 114 86 67 114 86 67 0 0 0 0 0 0 0 0 0 0 0 0 0 0 0 0 0 0 0 0 0 0 0 0 0 0 0 0 0 0 0 0 0 45 120 22 57 61 13 31 41 7 0 0 0 0 0 0 0 0 0 0 0 0 0 0 0 0 0 0 0 0 0 255 0 0 0 0 0 0 0 0 0 0 0 255 0 0 0 0 0 255 0 0 0 0 0 255 0 0 0 0 0 0 0 0 255 0 0 255 0 0 0 0 0 255 0 0 255 0 0 
102 102 102 140 140 140 162 162 162 127 127 127 116 116 116 127 127 127 126 126 126 93 93 93 95 95 95 92 92 92 127 127 127 98 98 98 108 108 108 86 86 86 86 86 86 101 101 101 87 87 87 87 87 87 87 87 87 51 51 51 51 51 51 51 51 51 51 51 51 51 51 51 87 87 87 87 87 87 151 151 151 151 151 151 87 87 87 51 51 51 51 51 51 87 87 87 226 214 170 216 205 162 215 207 152 207 201 145 222 211 167 213 201 157 220 214 158 225 219 163 200 193 140 223 216 162 187 180 126 214 208 152 230 218 175 203 191 147 207 201 145 224 213 170 120 116 112 114 112 110 171 170 169 137 136 133 114 112 110 140 137 136 111 110 105 88 86 82 129 127 127 114 112 110 151 151 151 98 96 94 129 127 127 117 114 111 129 127 127 144 139 136 58 45 26 103 82 49 151 119 72 64 51 32 107 86 53 124 98 62 76 61 38 62 49 30 146 114 67 104 83 50 152 120 73 59 46 27 101 80 47 124 98 62 61 48 29 103 82 49 76 61 38 180 144 90 180 144 90 180 144 90 180 144 90 183 147 93 173 137 83 174 138 84 180 144 90 180 144 90 171 135 81 180 144 90 180 144 90 180 144 90 180 144 90 105 84 51 197 197 197 230 230 230 230 230 230 230 230 230 230 230 230 230 230 230 230 230 230 230 230 230 230 230 230 230 230 230 230 230 230 230 230 230 230 230 230 230 230 230 230 230 230 185 185 185 234 213 68 255 253 86 253 251 83 253 247 81 254 247 82 255 248 83 255 246 84 255 245 85 255 243 84 254 241 81 252 224 64 252 215 54 246 208 48 245 204 45 246 202 44 230 180 40 0 198 189 150 233 229 140 231 227 125 227 223 130 228 224 135 229 225 130 228 224 125 227 223 120 226 222 110 224 219 50 211 204 15 203 195 0 197 188 0 194 184 0 193 183 0 172 159 98 226 134 84 226 124 74 220 115 74 220 115 72 216 109 47 203 84 68 214 109 62 212 101 56 208 95 57 205 95 47 179 75 132 236 162 77 225 119 77 225 119 62 206 96 49 185 84 227 38 12 209 43 19 207 35 11 194 34 10 213 36 11 212 36 11 185 34 10 185 34 10 131 19 6 194 34 10 194 34 10 209 43 19 186 33 10 192 34 10 201 35 11 227 38 12 107 63 127 214 127 255 214 127 255 214 127 255 214 127 255 214 127 255 214 127 255 214 127 255 214 127 255 214 127 255 214 127 255 
214 127 255 214 127 255 214 127 255 214 127 255 214 127 255 0 0 0 0 0 0 0 0 0 0 0 0 0 0 0 196 29 38 154 23 28 154 23 28 154 23 28 154 23 28 154 23 28 0 0 0 0 0 0 0 0 0 0 0 0 0 0 0 0 0 0 0 0 0 0 0 0 0 0 0 0 0 0 0 0 0 0 0 0 104 91 82 73 64 58 0 0 0 0 0 0 0 0 0 0 0 0 0 0 0 0 0 0 0 0 0 0 0 0 0 0 0 0 0 0 0 0 0 0 0 0 0 0 0 43 74 12 47 48 8 31 41 7 43 74 12 0 0 0 0 0 0 0 0 0 0 0 0 0 0 0 0 0 0 255 0 0 0 0 0 255 0 0 0 0 0 255 0 0 0 0 0 255 0 0 0 0 0 255 0 0 255 0 0 0 0 0 255 0 0 255 0 0 0 0 0 255 0 0 255 0 0 
134 134 134 84 84 84 119 119 119 135 135 135 127 127 127 86 86 86 103 103 103 163 163 163 127 127 127 127 127 127 80 80 80 105 105 105 163 163 163 169 169 169 98 98 98 129 129 129 51 51 51 51 51 51 51 51 51 51 51 51 7 7 7 151 151 151 151 151 151 87 87 87 87 87 87 87 87 87 87 87 87 51 51 51 51 51 51 51 51 51 87 87 87 87 87 87 214 206 152 227 221 166 214 208 152 193 187 132 255 255 209 223 216 160 199 193 137 237 225 182 218 212 156 241 230 186 209 202 147 222 211 163 223 212 164 219 213 157 214 208 152 198 192 137 89 87 83 140 137 136 128 127 126 85 83 77 129 127 127 129 127 127 129 127 127 140 137 136 129 127 127 140 137 136 129 127 127 129 127 127 129 127 127 140 137 136 129 127 127 117 115 111 94 75 47 104 83 50 124 98 62 62 49 30 100 79 46 105 84 51 104 83 50 64 51 32 105 84 51 108 87 54 103 82 49 55 42 23 103 82 49 105 84 51 101 80 47 124 98 62 105 84 51 111 90 57 60 47 28 108 87 54 105 84 51 104 83 50 60 47 28 106 85 52 105 84 51 105 84 51 105 84 51 105 84 51 60 47 28 60 47 28 60 47 28 105 84 51 191 191 191 186 186 186 186 186 186 185 185 185 185 185 185 185 185 185 184 184 184 183 183 183 188 188 188 189 189 189 188 188 188 188 188 188 180 180 180 180 180 180 180 180 180 181 181 181 238 216 61 238 215 60 238 214 60 238 212 59 237 210 58 237 209 58 240 208 56 238 205 53 239 205 55 242 209 58 253 205 54 255 204 53 255 203 53 253 199 51 251 195 49 250 191 48 0 193 183 0 193 183 0 193 183 0 193 183 0 193 183 0 193 183 0 199 190 0 193 183 0 194 184 5 201 193 0 198 189 0 198 189 0 197 188 0 194 184 0 190 180 0 187 176 98 226 134 54 200 92 51 191 87 51 191 87 50 190 86 50 190 86 47 179 75 47 179 75 47 179 75 47 179 75 63 197 98 51 191 87 51 191 87 50 190 86 50 188 86 50 188 86 227 38 12 227 38 12 227 38 12 227 38 12 227 38 12 227 38 12 227 38 12 227 38 12 227 38 12 227 38 12 227 38 12 227 38 12 227 38 12 227 38 12 227 38 12 227 38 12 107 63 127 214 127 255 214 127 255 214 127 255 214 127 255 214 127 255 214 127 255 214 127 255 214 127 255 214 127 255 214 127 255 214 127 255 214 127 255 214 127 255 214 127 255 
214 127 255 0 0 0 0 0 0 0 0 0 0 0 0 0 0 0 0 0 0 0 0 0 124 64 66 87 45 45 0 0 0 0 0 0 0 0 0 0 0 0 0 0 0 0 0 0 0 0 0 0 0 0 0 0 0 0 0 0 0 0 0 0 0 0 0 0 0 0 0 0 104 91 82 73 64 58 0 0 0 0 0 0 0 0 0 0 0 0 0 0 0 0 0 0 0 0 0 0 0 0 0 0 0 0 0 0 0 0 0 43 74 12 43 74 12 47 48 8 34 38 6 24 31 5 24 31 5 32 48 8 43 74 12 0 0 0 0 0 0 0 0 0 0 0 0 255 0 0 255 0 0 255 0 0 255 0 0 255 0 0 255 0 0 255 0 0 255 0 0 255 0 0 255 0 0 255 0 0 255 0 0 255 0 0 255 0 0 255 0 0 255 0 0 
127 127 127 116 116 116 116 116 116 116 116 116 116 116 116 127 127 127 143 143 143 143 143 143 104 104 104 143 143 143 127 127 127 116 116 116 116 116 116 116 116 116 116 116 116 127 127 127 127 127 127 116 116 116 116 116 116 116 116 116 116 116 116 127 127 127 143 143 143 143 143 143 104 104 104 143 143 143 127 127 127 116 116 116 116 116 116 116 116 116 116 116 116 127 127 127 127 127 127 116 116 116 116 116 116 116 116 116 116 116 116 127 127 127 143 143 143 143 143 143 104 104 104 143 143 143 127 127 127 116 116 116 116 116 116 116 116 116 116 116 116 127 127 127 188 152 98 188 152 98 188 152 98 180 144 90 188 152 98 188 152 98 188 152 98 159 132 77 159 132 77 159 132 77 115 94 57 188 152 98 188 152 98 188 152 98 188 152 98 159 132 77 173 173 173 173 173 173 173 173 173 163 163 163 146 146 146 129 129 129 59 101 59 58 98 58 104 104 104 173 173 173 173 173 173 173 173 173 131 131 131 104 104 104 176 176 176 142 142 142 16 16 24 16 16 24 16 16 24 15 15 22 14 14 22 16 16 24 14 14 23 15 15 22 16 16 24 9 9 14 15 15 23 16 16 28 17 17 33 16 16 23 9 9 14 16 16 24 148 148 148 150 150 150 147 147 147 134 134 134 134 134 134 143 143 143 127 127 127 140 140 140 158 158 158 150 150 150 138 138 138 135 135 135 137 137 137 129 129 129 112 112 112 141 141 141 0 0 0 0 0 0 0 0 0 0 0 0 0 0 0 133 133 133 0 0 0 0 0 0 0 0 0 0 0 0 0 0 0 0 0 0 0 0 0 0 0 0 0 0 0 0 0 0 148 148 148 150 150 150 147 147 147 134 134 134 134 134 134 143 143 143 127 127 127 140 140 140 158 158 158 150 150 150 138 138 138 135 135 135 137 137 137 129 129 129 112 112 112 141 141 141 255 255 255 255 255 255 255 255 255 255 255 255 255 255 255 255 255 255 255 255 255 255 255 255 255 255 255 255 255 255 255 255 255 255 255 255 255 255 255 255 255 255 255 255 255 255 255 255 107 63 127 107 63 127 107 63 127 107 63 127 107 63 127 107 63 127 107 63 127 107 63 127 107 63 127 107 63 127 107 63 127 107 63 127 107 63 127 107 63 127 107 63 127 107 63 127 25 20 12 25 20 12 14 11 6 25 20 12 25 20 12 25 19 11 14 11 6 14 11 6 14 11 6 25 20 12 25 20 12 14 11 6 26 21 13 
25 20 12 26 21 13 26 21 13 56 56 56 53 53 53 53 53 53 51 51 51 48 48 48 47 47 47 45 45 45 45 45 45 36 36 36 59 59 59 56 56 56 53 53 53 45 45 45 39 39 39 54 54 54 50 50 50 56 56 56 53 53 53 53 53 53 51 51 51 48 48 48 47 47 47 45 45 45 45 45 45 36 36 36 59 59 59 56 56 56 53 53 53 45 45 45 39 39 39 54 54 54 50 50 50 56 56 56 53 53 53 53 53 53 51 51 51 48 48 48 47 47 47 45 45 45 45 45 45 36 36 36 59 59 59 56 56 56 53 53 53 45 45 45 39 39 39 54 54 54 50 50 50 255 0 0 255 0 0 255 0 0 255 0 0 255 0 0 255 0 0 255 0 0 255 0 0 255 0 0 255 0 0 255 0 0 255 0 0 255 0 0 255 0 0 255 0 0 255 0 0 
127 127 127 127 127 127 143 143 143 143 143 143 143 143 143 143 143 143 143 143 143 143 143 143 116 116 116 143 143 143 143 143 143 143 143 143 104 104 104 127 127 127 127 127 127 116 116 116 127 127 127 127 127 127 143 143 143 143 143 143 143 143 143 143 143 143 143 143 143 143 143 143 116 116 116 143 143 143 143 143 143 143 143 143 104 104 104 127 127 127 127 127 127 116 116 116 127 127 127 127 127 127 143 143 143 143 143 143 143 143 143 143 143 143 143 143 143 143 143 143 116 116 116 143 143 143 143 143 143 143 143 143 104 104 104 127 127 127 127 127 127 116 116 116 188 152 98 44 34 19 39 30 17 39 30 17 39 30 17 39 30 17 117 142 17 94 114 13 44 34 19 44 34 19 39 30 17 39 30 17 39 30 17 39 30 17 44 34 19 159 132 77 173 173 173 173 173 173 112 112 112 129 129 129 75 75 75 58 98 58 68 145 68 68 145 68 58 98 58 129 129 129 136 136 136 129 129 129 143 143 143 56 81 56 117 117 117 154 154 154 14 14 22 17 17 23 9 9 14 9 9 14 10 10 15 16 16 16 15 15 29 16 16 24 8 8 13 54 42 80 16 16 24 16 16 24 16 16 29 8 8 12 60 48 86 16 16 24 149 149 149 140 140 140 160 160 160 151 151 151 153 153 153 0 0 0 136 136 136 130 130 130 127 127 127 169 169 169 166 166 166 147 147 147 129 129 129 140 140 140 135 135 135 139 139 139 0 0 0 0 0 0 0 0 0 0 0 0 0 0 0 181 181 181 0 0 0 0 0 0 0 0 0 0 0 0 0 0 0 126 126 126 0 0 0 0 0 0 0 0 0 0 0 0 149 149 149 140 140 140 160 160 160 151 151 151 153 153 153 128 128 128 136 136 136 130 130 130 127 127 127 169 169 169 166 166 166 147 147 147 129 129 129 140 140 140 135 135 135 139 139 139 255 255 255 43 185 176 43 185 176 43 185 176 43 185 176 43 185 176 43 203 192 43 203 192 43 203 192 43 203 192 43 203 192 43 203 192 43 185 176 43 185 176 43 185 176 204 236 240 107 63 127 214 127 255 214 127 255 214 127 255 214 127 255 214 127 255 214 127 255 214 127 255 214 127 255 214 127 255 214 127 255 214 127 255 214 127 255 214 127 255 214 127 255 214 127 255 25 20 12 180 144 90 177 141 87 43 35 21 175 114 70 175 114 70 175 114 70 175 114 70 171 110 66 173 112 68 175 114 70 175 114 70 44 36 23 186 150 96 
180 144 90 24 19 11 56 56 56 108 108 108 90 90 90 97 97 97 71 71 71 87 87 87 114 114 114 114 114 114 76 76 76 97 97 97 100 100 100 97 97 97 87 87 87 69 69 69 86 86 86 50 50 50 56 56 56 108 108 108 90 90 90 97 97 97 71 71 71 87 87 87 114 114 114 114 114 114 76 76 76 97 97 97 100 100 100 97 97 97 87 87 87 69 69 69 86 86 86 50 50 50 56 56 56 108 108 108 90 90 90 97 97 97 71 71 71 87 87 87 114 114 114 114 114 114 76 76 76 97 97 97 100 100 100 97 97 97 87 87 87 69 69 69 86 86 86 50 50 50 255 0 0 0 0 0 0 0 0 0 0 0 255 0 0 0 0 0 255 0 0 0 0 0 0 0 0 255 0 0 255 0 0 0 0 0 0 0 0 0 0 0 255 0 0 255 0 0 
127 127 127 104 104 104 116 116 116 116 116 116 252 238 75 116 116 116 116 116 116 116 116 116 143 143 143 116 116 116 127 127 127 127 127 127 255 255 181 252 238 75 127 127 127 127 127 127 127 127 127 104 104 104 116 116 116 116 116 116 188 153 128 116 116 116 116 116 116 116 116 116 143 143 143 116 116 116 127 127 127 127 127 127 216 175 147 188 153 128 127 127 127 127 127 127 127 127 127 104 104 104 116 116 116 116 116 116 55 55 55 116 116 116 116 116 116 116 116 116 143 143 143 116 116 116 127 127 127 127 127 127 63 63 63 55 55 55 127 127 127 127 127 127 188 152 98 188 22 22 145 17 17 44 34 19 49 91 142 42 78 122 117 142 17 94 114 13 54 42 21 54 42 21 54 42 21 117 142 17 94 114 13 63 46 24 65 49 26 159 132 77 58 97 58 129 129 129 129 129 129 55 75 55 58 98 58 68 145 68 173 173 173 62 119 62 79 79 79 55 71 55 139 139 139 129 129 129 55 79 55 58 98 58 58 98 58 133 133 133 16 16 24 9 9 15 58 46 84 60 48 86 60 48 86 14 14 22 14 14 21 9 9 14 60 48 86 30 24 43 18 18 27 13 13 21 8 8 12 60 48 86 30 24 43 16 16 25 163 163 163 0 0 0 178 178 178 132 132 132 137 137 137 0 0 0 144 144 144 0 0 0 148 148 148 159 159 159 168 168 168 173 173 173 0 0 0 119 119 119 128 128 128 0 0 0 0 0 0 0 0 0 181 181 181 0 0 0 0 0 0 133 133 133 0 0 0 0 0 0 181 181 181 0 0 0 126 126 126 0 0 0 0 0 0 0 0 0 0 0 0 97 97 97 163 163 163 185 185 185 178 178 178 132 132 132 137 137 137 136 136 136 144 144 144 144 144 144 148 148 148 159 159 159 168 168 168 173 173 173 135 135 135 119 119 119 128 128 128 182 182 182 255 255 255 43 185 176 43 203 192 43 203 192 43 203 192 43 203 192 43 203 192 73 213 204 73 213 204 43 203 192 43 203 192 43 203 192 43 203 192 43 203 192 43 185 176 204 236 240 107 63 127 214 127 255 214 127 255 214 127 255 214 127 255 214 127 255 214 127 255 214 127 255 214 127 255 214 127 255 214 127 255 214 127 255 214 127 255 214 127 255 214 127 255 214 127 255 14 11 6 182 146 92 38 31 18 161 106 62 162 107 62 157 102 57 162 107 62 160 104 60 167 112 67 162 107 62 162 107 62 162 107 62 162 107 62 39 32 19 181 145 91 25 20 12 
41 41 41 82 82 82 120 120 120 85 85 85 98 98 98 143 143 143 143 143 143 122 122 122 101 101 101 81 81 81 132 132 132 127 127 127 95 95 95 120 120 120 80 80 80 48 48 48 41 41 41 82 82 82 120 120 120 85 85 85 98 98 98 143 143 143 143 143 143 122 122 122 101 101 101 81 81 81 132 132 132 127 127 127 95 95 95 120 120 120 80 80 80 48 48 48 41 41 41 82 82 82 120 120 120 85 85 85 98 98 98 92 92 92 92 92 92 122 122 122 101 101 101 81 81 81 132 132 132 127 127 127 95 95 95 120 120 120 80 80 80 48 48 48 255 0 0 0 0 0 255 0 0 255 0 0 255 0 0 0 0 0 255 0 0 0 0 0 255 0 0 0 0 0 255 0 0 0 0 0 0 0 0 255 0 0 255 0 0 255 0 0 
127 127 127 143 143 143 127 127 127 127 127 127 127 127 127 104 104 104 127 127 127 255 255 181 248 175 43 127 127 127 116 116 116 116 116 116 116 116 116 116 116 116 116 116 116 127 127 127 127 127 127 143 143 143 127 127 127 127 127 127 127 127 127 104 104 104 127 127 127 216 175 147 175 142 119 127 127 127 116 116 116 116 116 116 116 116 116 116 116 116 116 116 116 127 127 127 127 127 127 143 143 143 127 127 127 127 127 127 127 127 127 104 104 104 127 127 127 63 63 63 52 52 52 127 127 127 116 116 116 116 116 116 116 116 116 116 116 116 116 116 116 127 127 127 105 84 51 181 181 181 137 137 137 17 142 107 49 91 142 42 78 122 117 142 17 94 114 13 188 22 22 145 17 17 54 42 21 117 142 17 94 114 13 17 142 107 12 107 80 115 94 57 59 109 59 56 88 56 55 76 55 58 98 58 180 180 180 59 104 59 146 146 146 129 129 129 82 82 82 58 98 58 55 79 55 85 85 85 58 98 58 166 166 166 179 179 179 58 98 58 13 13 18 9 9 14 30 24 43 33 27 46 14 14 22 16 16 17 16 16 16 70 58 96 30 24 43 30 24 43 15 15 22 16 16 24 8 8 14 15 15 23 16 16 24 16 16 26 0 0 0 0 0 0 0 0 0 0 0 0 145 145 145 0 0 0 0 0 0 0 0 0 127 127 127 0 0 0 141 141 141 0 0 0 0 0 0 0 0 0 0 0 0 0 0 0 0 0 0 0 0 0 129 129 129 97 97 97 0 0 0 133 133 133 125 125 125 0 0 0 133 133 133 0 0 0 97 97 97 0 0 0 126 126 126 0 0 0 181 181 181 97 97 97 118 118 118 133 133 133 138 138 138 151 151 151 145 145 145 153 153 153 125 125 125 123 123 123 127 127 127 131 131 131 141 141 141 151 151 151 143 143 143 139 139 139 142 142 142 125 125 125 255 255 255 43 185 176 43 203 192 43 203 192 43 222 214 73 213 204 73 213 204 73 213 204 73 213 204 73 213 204 73 213 204 43 222 214 43 203 192 43 203 192 43 185 176 204 236 240 107 63 127 214 127 255 214 127 255 214 127 255 214 127 255 214 127 255 214 127 255 214 127 255 214 127 255 214 127 255 214 127 255 214 127 255 214 127 255 214 127 255 214 127 255 214 127 255 25 20 12 43 35 21 164 109 65 83 54 34 77 45 25 84 56 35 84 56 35 84 56 35 77 45 25 75 43 24 84 56 35 83 55 34 84 56 35 162 107 62 43 35 21 14 11 6 45 45 45 80 80 80 92 92 92 111 111 111 
110 110 110 38 38 38 51 51 51 50 50 50 35 35 35 41 41 41 33 33 33 66 66 66 105 105 105 139 139 139 105 105 105 41 41 41 45 45 45 80 80 80 92 92 92 111 111 111 152 152 152 103 103 103 136 136 136 135 135 135 95 95 95 110 110 110 89 89 89 91 91 91 105 105 105 139 139 139 105 105 105 41 41 41 45 45 45 80 80 80 92 92 92 95 95 95 200 200 200 197 197 197 81 81 81 111 111 111 111 111 111 111 111 111 197 197 197 200 200 200 95 95 95 139 139 139 105 105 105 41 41 41 255 0 0 0 0 0 0 0 0 255 0 0 255 0 0 0 0 0 255 0 0 0 0 0 0 0 0 255 0 0 255 0 0 0 0 0 255 0 0 255 0 0 255 0 0 255 0 0 
127 127 127 143 143 143 143 143 143 116 116 116 116 116 116 116 116 116 116 116 116 116 116 116 116 116 116 116 116 116 143 143 143 143 143 143 143 143 143 143 143 143 143 143 143 104 104 104 127 127 127 143 143 143 143 143 143 116 116 116 116 116 116 116 116 116 116 116 116 116 116 116 116 116 116 116 116 116 143 143 143 143 143 143 143 143 143 143 143 143 143 143 143 104 104 104 127 127 127 143 143 143 143 143 143 116 116 116 116 116 116 116 116 116 116 116 116 116 116 116 116 116 116 116 116 116 143 143 143 143 143 143 143 143 143 143 143 143 143 143 143 104 104 104 188 152 98 188 22 22 145 17 17 17 142 107 49 91 142 42 78 122 73 73 73 63 63 63 188 22 22 145 17 17 63 46 24 117 142 17 94 114 13 181 181 181 137 137 137 188 152 98 175 175 175 173 173 173 104 104 104 58 98 58 173 173 173 134 134 134 134 134 134 85 85 85 58 98 58 66 137 66 155 155 155 65 133 65 57 93 57 127 127 127 167 167 167 104 104 104 14 14 18 9 9 11 30 24 43 16 16 25 16 16 20 16 16 20 13 13 20 16 16 24 15 15 15 13 13 20 16 16 27 9 9 18 30 24 43 15 15 26 16 16 25 17 17 26 0 0 0 0 0 0 0 0 0 0 0 0 0 0 0 0 0 0 0 0 0 0 0 0 0 0 0 0 0 0 0 0 0 0 0 0 0 0 0 0 0 0 0 0 0 0 0 0 181 181 181 0 0 0 129 129 129 129 129 129 0 0 0 133 133 133 97 97 97 0 0 0 133 133 133 0 0 0 97 97 97 126 126 126 0 0 0 0 0 0 124 124 124 125 125 125 162 162 162 131 131 131 173 173 173 131 131 131 172 172 172 174 174 174 136 136 136 172 172 172 186 186 186 117 117 117 128 128 128 167 167 167 171 171 171 126 126 126 136 136 136 141 141 141 255 255 255 43 203 192 43 203 192 43 222 214 73 213 204 84 217 208 111 227 220 111 227 220 111 227 220 111 227 220 84 217 208 73 213 204 43 222 214 43 203 192 43 203 192 204 236 240 107 63 127 214 127 255 214 127 255 214 127 255 214 127 255 214 127 255 214 127 255 214 127 255 214 127 255 214 127 255 214 127 255 214 127 255 214 127 255 214 127 255 214 127 255 214 127 255 18 14 9 174 113 69 161 105 61 84 56 35 158 90 51 163 94 52 82 53 33 175 114 70 175 114 70 75 43 24 158 90 51 177 116 73 84 56 35 162 107 62 175 114 70 25 20 12 56 56 56 
114 114 114 120 120 120 76 76 76 53 53 53 0 0 0 0 0 0 0 0 0 0 0 0 0 0 0 0 0 0 55 55 55 83 83 83 134 134 134 112 112 112 36 36 36 56 56 56 114 114 114 120 120 120 105 105 105 143 143 143 123 123 123 123 123 123 91 91 91 105 105 105 137 137 137 149 149 149 148 148 148 115 115 115 134 134 134 112 112 112 36 36 36 56 56 56 114 114 114 142 142 142 197 197 197 176 176 176 176 176 176 111 111 111 81 81 81 132 132 132 132 132 132 197 197 197 176 176 176 176 176 176 121 121 121 112 112 112 36 36 36 255 0 0 0 0 0 255 0 0 255 0 0 255 0 0 0 0 0 255 0 0 0 0 0 255 0 0 0 0 0 255 0 0 0 0 0 0 0 0 0 0 0 255 0 0 255 0 0 
116 116 116 116 116 116 127 127 127 127 127 127 127 127 127 255 255 255 255 255 181 116 116 116 127 127 127 104 104 104 255 255 255 255 255 181 116 116 116 116 116 116 104 104 104 127 127 127 116 116 116 116 116 116 127 127 127 127 127 127 127 127 127 226 192 170 216 175 147 116 116 116 127 127 127 104 104 104 226 192 170 216 175 147 116 116 116 116 116 116 104 104 104 127 127 127 116 116 116 116 116 116 127 127 127 127 127 127 127 127 127 69 69 69 63 63 63 116 116 116 127 127 127 104 104 104 69 69 69 63 63 63 116 116 116 116 116 116 104 104 104 127 127 127 159 132 77 188 22 22 145 17 17 17 142 107 49 91 142 42 78 122 73 73 73 63 63 63 65 49 26 188 22 22 145 17 17 117 142 17 94 114 13 17 142 107 12 107 80 159 132 77 119 119 119 134 134 134 127 127 127 58 98 58 60 113 60 138 138 138 129 129 129 55 80 55 67 141 67 192 192 192 124 124 124 62 122 62 108 108 108 103 103 103 55 75 55 56 81 56 16 16 24 16 16 24 16 16 21 9 9 19 9 9 11 9 9 14 8 8 13 9 9 14 16 16 24 14 14 21 9 9 15 16 16 24 16 16 25 16 16 24 14 14 21 15 15 21 0 0 0 0 0 0 0 0 0 0 0 0 0 0 0 0 0 0 0 0 0 0 0 0 0 0 0 0 0 0 0 0 0 0 0 0 0 0 0 0 0 0 0 0 0 0 0 0 133 133 133 97 97 97 0 0 0 128 128 128 0 0 0 119 119 119 97 97 97 0 0 0 115 115 115 97 97 97 136 136 136 133 133 133 181 181 181 0 0 0 127 127 127 0 0 0 153 153 153 152 152 152 120 120 120 166 166 166 129 129 129 150 150 150 149 149 149 155 155 155 135 135 135 149 149 149 136 136 136 131 131 131 120 120 120 136 136 136 142 142 142 148 148 148 255 255 255 43 203 192 43 203 192 73 213 204 84 217 208 111 227 220 156 242 237 196 255 254 196 255 254 156 242 237 111 227 220 84 217 208 73 213 204 43 203 192 43 203 192 204 236 240 107 63 127 214 127 255 214 127 255 214 127 255 214 127 255 214 127 255 214 127 255 214 127 255 214 127 255 214 127 255 214 127 255 214 127 255 214 127 255 214 127 255 214 127 255 214 127 255 14 11 6 175 114 70 160 105 60 84 56 35 175 114 70 162 107 62 67 39 22 145 84 47 162 107 62 76 50 29 141 80 45 158 90 51 83 55 34 160 104 60 175 114 70 25 20 12 43 43 43 89 89 89 126 126 126 
41 41 41 0 0 0 0 0 0 0 0 0 0 0 0 0 0 0 0 0 0 0 0 0 0 0 0 163 163 163 104 104 104 56 56 56 36 36 36 43 43 43 89 89 89 126 126 126 111 111 111 124 124 124 125 125 125 120 120 120 88 88 88 145 145 145 145 145 145 124 124 124 131 131 131 123 123 123 104 104 104 56 56 56 36 36 36 43 43 43 89 89 89 126 126 126 197 197 197 101 101 101 197 197 197 176 176 176 111 111 111 81 81 81 197 197 197 176 176 176 121 121 121 197 197 197 104 104 104 56 56 56 36 36 36 255 0 0 255 0 0 255 0 0 255 0 0 255 0 0 255 0 0 255 0 0 255 0 0 255 0 0 255 0 0 255 0 0 255 0 0 255 0 0 255 0 0 255 0 0 255 0 0 
143 143 143 143 143 143 127 127 127 255 255 255 255 255 181 252 238 75 252 238 75 248 175 43 127 127 127 127 127 127 252 238 75 248 175 43 143 143 143 143 143 143 143 143 143 104 104 104 143 143 143 143 143 143 127 127 127 226 192 170 216 175 147 188 153 128 188 153 128 175 142 119 127 127 127 127 127 127 188 153 128 175 142 119 143 143 143 143 143 143 143 143 143 104 104 104 143 143 143 143 143 143 127 127 127 69 69 69 63 63 63 55 55 55 55 55 55 52 52 52 127 127 127 127 127 127 55 55 55 52 52 52 143 143 143 143 143 143 143 143 143 104 104 104 188 152 98 188 22 22 145 17 17 17 142 107 49 91 142 42 78 122 117 142 17 94 114 13 63 46 24 188 22 22 145 17 17 117 142 17 94 114 13 17 142 107 12 107 80 188 152 98 129 129 129 129 129 129 61 117 61 58 98 58 58 104 58 55 79 55 82 82 82 59 101 59 58 101 58 63 125 63 160 160 160 61 117 61 119 119 119 129 129 129 61 116 61 100 100 100 16 16 24 17 17 17 17 17 28 16 16 25 60 48 86 60 48 86 60 48 86 60 48 86 15 15 20 9 9 13 60 48 86 14 14 21 8 8 13 9 9 12 8 8 15 15 15 22 0 0 0 0 0 0 0 0 0 0 0 0 0 0 0 0 0 0 0 0 0 0 0 0 0 0 0 0 0 0 0 0 0 0 0 0 0 0 0 0 0 0 0 0 0 0 0 0 181 181 181 97 97 97 0 0 0 127 127 127 0 0 0 116 116 116 97 97 97 0 0 0 97 97 97 124 124 124 97 97 97 0 0 0 181 181 181 0 0 0 127 127 127 0 0 0 126 126 126 156 156 156 165 165 165 144 144 144 146 146 146 131 131 131 138 138 138 127 127 127 132 132 132 135 135 135 181 181 181 172 172 172 145 145 145 167 167 167 151 151 151 143 143 143 255 255 255 43 185 176 43 203 192 73 213 204 111 227 220 156 242 237 196 255 254 214 255 254 214 255 254 196 255 254 156 242 237 111 227 220 73 213 204 43 203 192 43 203 192 204 236 240 107 63 127 214 127 255 214 127 255 214 127 255 214 127 255 214 127 255 214 127 255 214 127 255 214 127 255 214 127 255 214 127 255 214 127 255 214 127 255 214 127 255 214 127 255 214 127 255 14 11 6 175 114 70 162 107 62 84 55 35 82 54 33 75 49 28 84 55 35 84 55 35 78 46 26 84 56 35 76 50 29 74 42 24 83 54 34 162 107 62 175 114 70 14 11 6 50 50 50 97 97 97 127 127 127 41 41 41 0 0 0 13 13 13 15 15 15 
18 18 18 16 16 16 19 19 19 21 21 21 0 0 0 166 166 166 135 135 135 97 97 97 35 35 35 50 50 50 97 97 97 127 127 127 111 111 111 116 116 116 89 89 89 104 104 104 121 121 121 113 113 113 133 133 133 143 143 143 127 127 127 130 130 130 135 135 135 97 97 97 35 35 35 50 50 50 97 97 97 127 127 127 197 197 197 121 121 121 197 197 197 168 168 168 197 197 197 197 197 197 176 176 176 176 176 176 132 132 132 197 197 197 135 135 135 97 97 97 35 35 35 255 0 0 0 0 0 0 0 0 0 0 0 255 0 0 0 0 0 0 0 0 0 0 0 255 0 0 0 0 0 255 0 0 0 0 0 255 0 0 0 0 0 255 0 0 255 0 0 
127 127 127 127 127 127 127 127 127 116 116 116 116 116 116 116 116 116 116 116 116 116 116 116 116 116 116 104 104 104 116 116 116 116 116 116 116 116 116 116 116 116 127 127 127 127 127 127 127 127 127 127 127 127 127 127 127 116 116 116 116 116 116 116 116 116 116 116 116 116 116 116 116 116 116 104 104 104 116 116 116 116 116 116 116 116 116 116 116 116 127 127 127 127 127 127 127 127 127 127 127 127 127 127 127 116 116 116 116 116 116 116 116 116 116 116 116 116 116 116 116 116 116 104 104 104 116 116 116 116 116 116 116 116 116 116 116 116 127 127 127 127 127 127 115 94 57 115 94 57 105 84 51 105 84 51 105 84 51 105 84 51 105 84 51 115 94 57 115 94 57 115 94 57 105 84 51 105 84 51 105 84 51 105 84 51 115 94 57 115 94 57 129 129 129 129 129 129 55 76 55 57 94 57 67 141 67 173 173 173 58 98 58 57 93 57 58 99 58 57 90 57 81 81 81 136 136 136 129 129 129 82 82 82 58 101 58 188 188 188 16 16 29 16 16 24 8 8 8 13 13 20 16 16 24 27 21 40 30 24 43 23 17 36 19 19 28 9 9 11 30 24 43 8 8 12 48 36 74 60 48 86 30 24 43 16 16 32 0 0 0 0 0 0 0 0 0 0 0 0 0 0 0 0 0 0 0 0 0 0 0 0 0 0 0 0 0 0 0 0 0 0 0 0 0 0 0 0 0 0 0 0 0 0 0 0 133 133 133 133 133 133 97 97 97 126 126 126 97 97 97 115 115 115 120 120 120 114 114 114 97 97 97 126 126 126 97 97 97 0 0 0 127 127 127 0 0 0 97 97 97 0 0 0 143 143 143 135 135 135 157 157 157 139 139 139 144 144 144 124 124 124 164 164 164 132 132 132 151 151 151 173 173 173 135 135 135 129 129 129 143 143 143 160 160 160 127 127 127 169 169 169 255 255 255 43 185 176 73 213 204 73 213 204 111 227 220 196 255 254 214 255 254 238 255 255 238 255 255 214 255 254 196 255 254 111 227 220 73 213 204 73 213 204 43 203 192 204 236 240 107 63 127 214 127 255 214 127 255 214 127 255 214 127 255 214 127 255 214 127 255 214 127 255 214 127 255 214 127 255 214 127 255 214 127 255 214 127 255 214 127 255 214 127 255 214 127 255 14 11 6 175 115 71 162 107 62 88 59 39 175 114 70 162 107 62 84 56 35 175 114 70 175 114 70 84 55 35 163 108 63 171 110 66 84 56 35 162 107 62 175 114 70 28 23 15 47 47 47 92 92 92 
91 91 91 38 38 38 113 113 113 182 182 182 170 170 170 169 169 169 170 170 170 166 166 166 165 165 165 107 107 107 168 168 168 89 89 89 82 82 82 58 58 58 47 47 47 92 92 92 91 91 91 101 101 101 140 140 140 143 143 143 105 105 105 100 100 100 106 106 106 91 91 91 88 88 88 124 124 124 135 135 135 89 89 89 82 82 82 58 58 58 47 47 47 92 92 92 197 197 197 176 176 176 197 197 197 176 176 176 176 176 176 157 157 157 157 157 157 168 168 168 176 176 176 197 197 197 176 176 176 176 176 176 82 82 82 58 58 58 255 0 0 255 0 0 0 0 0 255 0 0 255 0 0 0 0 0 0 0 0 255 0 0 255 0 0 255 0 0 0 0 0 255 0 0 255 0 0 0 0 0 255 0 0 255 0 0 
127 127 127 255 255 181 252 238 75 104 104 104 143 143 143 116 116 116 127 127 127 127 127 127 255 255 255 255 255 181 143 143 143 143 143 143 143 143 143 143 143 143 143 143 143 143 143 143 127 127 127 216 175 147 188 153 128 104 104 104 143 143 143 116 116 116 127 127 127 127 127 127 226 192 170 216 175 147 143 143 143 143 143 143 143 143 143 143 143 143 143 143 143 143 143 143 127 127 127 63 63 63 55 55 55 104 104 104 143 143 143 116 116 116 127 127 127 127 127 127 69 69 69 63 63 63 143 143 143 143 143 143 143 143 143 143 143 143 143 143 143 143 143 143 188 152 98 159 132 77 159 132 77 159 132 77 159 132 77 188 152 98 180 144 90 180 144 90 159 132 77 159 132 77 159 132 77 115 94 57 188 152 98 159 132 77 159 132 77 159 132 77 127 127 127 54 70 54 58 98 58 181 181 181 68 145 68 61 117 61 59 107 59 173 173 173 165 165 165 61 116 61 58 100 58 57 89 57 56 83 56 69 69 69 192 192 192 173 173 173 15 15 22 9 9 14 60 48 86 30 24 43 15 15 23 17 17 26 36 30 49 30 24 43 16 16 25 15 15 22 16 16 29 8 8 13 27 21 40 30 24 43 15 15 22 18 18 27 0 0 0 0 0 0 0 0 0 0 0 0 0 0 0 0 0 0 0 0 0 0 0 0 0 0 0 0 0 0 0 0 0 0 0 0 0 0 0 0 0 0 0 0 0 0 0 0 0 0 0 133 133 133 97 97 97 125 125 125 97 97 97 114 114 114 122 122 122 0 0 0 119 119 119 130 130 130 138 138 138 133 133 133 127 127 127 136 136 136 126 126 126 0 0 0 139 139 139 152 152 152 162 162 162 150 150 150 151 151 151 136 136 136 147 147 147 147 147 147 167 167 167 159 159 159 134 134 134 139 139 139 135 135 135 137 137 137 118 118 118 134 134 134 255 255 255 43 203 192 73 213 204 73 213 204 111 227 220 196 255 254 214 255 254 238 255 255 238 255 255 214 255 254 196 255 254 111 227 220 73 213 204 73 213 204 43 185 176 204 236 240 107 63 127 214 127 255 214 127 255 214 127 255 214 127 255 214 127 255 214 127 255 214 127 255 214 127 255 214 127 255 214 127 255 214 127 255 214 127 255 214 127 255 214 127 255 214 127 255 25 20 12 175 114 70 152 91 51 84 56 35 175 114 70 162 107 62 84 55 35 175 114 70 175 114 70 84 56 35 161 106 62 175 114 70 84 56 35 160 105 60 177 116 73 25 20 12 
47 47 47 68 68 68 120 120 120 131 131 131 94 94 94 80 80 80 79 79 79 91 91 91 89 89 89 85 85 85 80 80 80 76 76 76 119 119 119 93 93 93 120 120 120 59 59 59 47 47 47 68 68 68 120 120 120 140 140 140 158 158 158 120 120 120 118 118 118 149 149 149 145 145 145 135 135 135 121 121 121 111 111 111 106 106 106 93 93 93 120 120 120 59 59 59 47 47 47 68 68 68 197 197 197 176 176 176 176 176 176 176 176 176 157 157 157 35 35 35 33 33 33 157 157 157 176 176 176 176 176 176 176 176 176 176 176 176 120 120 120 59 59 59 255 0 0 255 0 0 0 0 0 255 0 0 255 0 0 0 0 0 255 0 0 255 0 0 255 0 0 0 0 0 255 0 0 0 0 0 255 0 0 255 0 0 255 0 0 255 0 0 
127 127 127 116 116 116 116 116 116 116 116 116 116 116 116 116 116 116 116 116 116 255 255 181 248 175 43 248 175 43 248 175 43 116 116 116 116 116 116 116 116 116 143 143 143 127 127 127 127 127 127 116 116 116 116 116 116 116 116 116 116 116 116 116 116 116 116 116 116 216 175 147 175 142 119 175 142 119 175 142 119 116 116 116 116 116 116 116 116 116 143 143 143 127 127 127 127 127 127 116 116 116 116 116 116 116 116 116 116 116 116 116 116 116 116 116 116 63 63 63 52 52 52 52 52 52 52 52 52 116 116 116 116 116 116 116 116 116 143 143 143 127 127 127 159 132 77 39 30 17 39 30 17 39 30 17 39 30 17 39 30 17 39 30 17 44 34 19 44 34 19 44 34 19 39 30 17 39 30 17 49 91 142 42 78 122 44 34 19 159 132 77 139 139 139 104 104 104 173 173 173 176 176 176 62 122 62 56 81 56 173 173 173 113 113 113 181 181 181 63 126 63 144 144 144 58 98 58 105 105 105 188 188 188 129 129 129 129 129 129 14 14 21 16 16 24 16 16 24 16 16 30 16 16 25 16 16 23 16 16 24 34 28 47 15 15 24 13 13 20 15 15 20 7 7 17 30 24 43 14 14 21 16 16 24 16 16 24 0 0 0 0 0 0 0 0 0 0 0 0 0 0 0 0 0 0 0 0 0 0 0 0 0 0 0 0 0 0 0 0 0 0 0 0 0 0 0 0 0 0 0 0 0 0 0 0 0 0 0 125 125 125 97 97 97 0 0 0 97 97 97 97 97 97 125 125 125 116 116 116 97 97 97 0 0 0 97 97 97 97 97 97 126 126 126 97 97 97 123 123 123 0 0 0 149 149 149 135 135 135 170 170 170 146 146 146 147 147 147 138 138 138 151 151 151 129 129 129 130 130 130 158 158 158 156 156 156 156 156 156 134 134 134 157 157 157 138 138 138 134 134 134 255 255 255 43 203 192 43 203 192 73 213 204 111 227 220 156 242 237 196 255 254 214 255 254 214 255 254 196 255 254 156 242 237 111 227 220 73 213 204 43 203 192 43 203 192 204 236 240 107 63 127 214 127 255 214 127 255 214 127 255 214 127 255 214 127 255 214 127 255 214 127 255 214 127 255 214 127 255 214 127 255 214 127 255 214 127 255 214 127 255 214 127 255 214 127 255 25 20 12 177 116 72 139 77 44 77 45 25 81 53 32 74 49 28 84 56 35 84 56 35 77 45 25 84 56 35 76 50 29 82 53 33 84 56 35 161 105 61 175 114 70 25 20 12 75 75 75 142 142 142 197 197 197 197 197 197 
197 197 197 200 200 200 205 205 205 205 205 205 193 193 193 205 205 205 200 200 200 197 197 197 197 197 197 197 197 197 142 142 142 63 63 63 75 75 75 142 142 142 197 197 197 197 197 197 197 197 197 200 200 200 205 205 205 205 205 205 193 193 193 205 205 205 200 200 200 197 197 197 197 197 197 197 197 197 142 142 142 63 63 63 75 75 75 142 142 142 197 197 197 168 168 168 176 176 176 157 157 157 33 33 33 0 0 0 0 0 0 33 33 33 200 200 200 176 176 176 176 176 176 176 176 176 142 142 142 63 63 63 255 0 0 255 0 0 0 0 0 255 0 0 255 0 0 0 0 0 0 0 0 0 0 0 255 0 0 0 0 0 255 0 0 0 0 0 255 0 0 0 0 0 255 0 0 255 0 0 
127 127 127 127 127 127 143 143 143 116 116 116 252 238 75 143 143 143 143 143 143 116 116 116 104 104 104 116 116 116 143 143 143 143 143 143 143 143 143 127 127 127 127 127 127 127 127 127 127 127 127 127 127 127 143 143 143 116 116 116 188 153 128 143 143 143 143 143 143 116 116 116 104 104 104 116 116 116 143 143 143 143 143 143 143 143 143 127 127 127 127 127 127 127 127 127 127 127 127 127 127 127 143 143 143 116 116 116 55 55 55 143 143 143 143 143 143 116 116 116 104 104 104 116 116 116 143 143 143 143 143 143 143 143 143 127 127 127 127 127 127 127 127 127 188 152 98 39 30 17 54 42 21 54 42 21 188 22 22 145 17 17 63 46 24 63 46 24 54 42 21 168 155 10 137 126 8 44 34 19 49 91 142 42 78 122 54 42 21 159 132 77 104 104 104 66 138 66 124 124 124 129 129 129 129 129 129 79 79 79 173 173 173 147 147 147 129 129 129 61 117 61 135 135 135 82 82 82 58 100 58 104 104 104 153 153 153 133 133 133 16 16 16 16 16 24 17 17 26 15 15 23 15 15 22 16 16 24 15 15 26 15 15 28 16 16 24 9 9 14 14 14 22 16 16 35 16 16 24 9 9 18 16 16 24 16 16 24 0 0 0 0 0 0 0 0 0 0 0 0 0 0 0 0 0 0 0 0 0 0 0 0 0 0 0 0 0 0 0 0 0 0 0 0 0 0 0 0 0 0 0 0 0 0 0 0 0 0 0 124 124 124 97 97 97 0 0 0 97 97 97 0 0 0 97 97 97 119 119 119 97 97 97 0 0 0 97 97 97 121 121 121 124 124 124 97 97 97 120 120 120 0 0 0 159 159 159 172 172 172 165 165 165 146 146 146 133 133 133 156 156 156 143 143 143 145 145 145 167 167 167 141 141 141 167 167 167 154 154 154 138 138 138 126 126 126 130 130 130 164 164 164 255 255 255 43 203 192 43 203 192 73 213 204 84 217 208 111 227 220 156 242 237 196 255 254 196 255 254 156 242 237 111 227 220 84 217 208 73 213 204 43 203 192 43 203 192 204 236 240 107 63 127 214 127 255 214 127 255 214 127 255 214 127 255 214 127 255 214 127 255 214 127 255 214 127 255 214 127 255 214 127 255 214 127 255 214 127 255 214 127 255 214 127 255 214 127 255 24 19 11 173 112 68 162 107 62 75 43 24 158 90 51 162 107 62 76 50 29 162 107 62 141 80 45 66 37 21 162 107 62 178 117 73 84 56 35 162 107 62 175 114 70 25 20 12 75 75 75 121 121 121 
176 176 176 176 176 176 176 176 176 127 127 127 66 66 66 66 66 66 61 61 61 66 66 66 127 127 127 176 176 176 157 157 157 168 168 168 121 121 121 48 48 48 75 75 75 121 121 121 176 176 176 176 176 176 176 176 176 176 176 176 176 176 176 176 176 176 163 163 163 176 176 176 176 176 176 176 176 176 157 157 157 168 168 168 121 121 121 48 48 48 75 75 75 121 121 121 176 176 176 176 176 176 168 168 168 157 157 157 33 33 33 19 19 19 16 16 16 33 33 33 200 200 200 176 176 176 157 157 157 168 168 168 121 121 121 48 48 48 255 0 0 255 0 0 255 0 0 255 0 0 255 0 0 255 0 0 255 0 0 255 0 0 255 0 0 255 0 0 255 0 0 255 0 0 255 0 0 255 0 0 255 0 0 255 0 0 
104 104 104 127 127 127 127 127 127 127 127 127 116 116 116 127 127 127 127 127 127 127 127 127 143 143 143 143 143 143 127 127 127 255 255 181 248 175 43 143 143 143 143 143 143 104 104 104 104 104 104 127 127 127 127 127 127 127 127 127 116 116 116 127 127 127 127 127 127 127 127 127 143 143 143 143 143 143 127 127 127 216 175 147 175 142 119 143 143 143 143 143 143 104 104 104 104 104 104 127 127 127 127 127 127 127 127 127 116 116 116 127 127 127 127 127 127 127 127 127 143 143 143 143 143 143 127 127 127 63 63 63 52 52 52 143 143 143 143 143 143 104 104 104 115 94 57 135 54 8 119 48 7 99 40 5 188 22 22 145 17 17 54 42 21 65 49 26 94 114 13 181 181 181 137 137 137 145 17 17 49 91 142 42 78 122 17 142 107 115 94 57 58 98 58 58 98 58 65 135 65 127 127 127 116 116 116 82 82 82 129 129 129 131 131 131 145 145 145 129 129 129 55 79 55 57 93 57 67 142 67 58 98 58 58 98 58 82 82 82 16 16 32 9 9 14 10 10 15 16 16 24 15 15 22 15 15 22 16 16 24 15 15 22 9 9 14 60 48 86 15 15 23 16 16 25 8 8 13 64 52 90 30 24 43 16 16 24 0 0 0 0 0 0 0 0 0 0 0 0 0 0 0 0 0 0 0 0 0 0 0 0 0 0 0 0 0 0 0 0 0 0 0 0 0 0 0 0 0 0 0 0 0 0 0 0 0 0 0 97 97 97 137 137 137 0 0 0 97 97 97 0 0 0 97 97 97 124 124 124 97 97 97 0 0 0 97 97 97 118 118 118 122 122 122 97 97 97 0 0 0 0 0 0 124 124 124 151 151 151 136 136 136 156 156 156 147 147 147 143 143 143 134 134 134 129 129 129 137 137 137 137 137 137 140 140 140 138 138 138 135 135 135 133 133 133 134 134 134 130 130 130 255 255 255 43 203 192 43 203 192 43 222 214 73 213 204 84 217 208 111 227 220 111 227 220 111 227 220 111 227 220 84 217 208 73 213 204 43 222 214 43 203 192 43 185 176 204 236 240 107 63 127 214 127 255 214 127 255 214 127 255 214 127 255 214 127 255 214 127 255 214 127 255 214 127 255 214 127 255 214 127 255 214 127 255 214 127 255 214 127 255 214 127 255 214 127 255 14 11 6 174 113 69 162 107 62 84 56 35 158 89 50 176 115 71 82 53 33 174 113 69 175 114 70 82 53 33 158 90 51 178 117 73 84 56 35 165 110 65 175 114 70 24 19 11 75 75 75 127 127 127 168 168 168 121 121 121 63 63 63 
59 59 59 0 0 0 0 0 0 0 0 0 0 0 0 61 61 61 61 61 61 118 118 118 163 163 163 118 118 118 50 50 50 75 75 75 127 127 127 168 168 168 168 168 168 168 168 168 157 157 157 168 168 168 176 176 176 168 168 168 168 168 168 163 163 163 163 163 163 163 163 163 163 163 163 118 118 118 50 50 50 75 75 75 127 127 127 168 168 168 176 176 176 176 176 176 176 176 176 157 157 157 19 19 19 19 19 19 200 200 200 168 168 168 176 176 176 176 176 176 163 163 163 118 118 118 50 50 50 255 0 0 255 0 0 255 0 0 255 0 0 255 0 0 255 0 0 255 0 0 255 0 0 255 0 0 255 0 0 255 0 0 255 0 0 255 0 0 255 0 0 255 0 0 255 0 0 
127 127 127 116 116 116 116 116 116 116 116 116 116 116 116 116 116 116 116 116 116 116 116 116 255 255 181 255 255 255 255 255 181 252 238 75 252 238 75 248 175 43 116 116 116 127 127 127 127 127 127 116 116 116 116 116 116 116 116 116 116 116 116 116 116 116 116 116 116 116 116 116 216 175 147 226 192 170 216 175 147 188 153 128 188 153 128 175 142 119 116 116 116 127 127 127 127 127 127 116 116 116 116 116 116 116 116 116 116 116 116 116 116 116 116 116 116 116 116 116 63 63 63 69 69 69 63 63 63 55 55 55 55 55 55 52 52 52 116 116 116 127 127 127 188 152 98 135 54 8 119 48 7 99 40 5 188 22 22 145 17 17 49 91 142 54 42 21 94 114 13 181 181 181 137 137 137 145 17 17 49 91 142 42 78 122 17 142 107 188 152 98 173 173 173 173 173 173 55 79 55 55 79 55 55 79 55 55 79 55 59 102 59 129 129 129 56 87 56 55 79 55 173 173 173 156 156 156 61 117 61 129 129 129 58 98 58 58 98 58 16 16 24 60 48 86 58 46 84 33 27 46 15 15 23 15 15 15 17 14 29 14 14 21 9 9 9 58 46 84 30 24 43 16 16 24 16 16 25 16 16 20 15 15 21 15 15 22 0 0 0 0 0 0 0 0 0 0 0 0 0 0 0 0 0 0 0 0 0 0 0 0 0 0 0 0 0 0 0 0 0 0 0 0 0 0 0 0 0 0 0 0 0 0 0 0 0 0 0 97 97 97 97 97 97 135 135 135 97 97 97 117 117 117 97 97 97 128 128 128 97 97 97 144 144 144 97 97 97 117 117 117 97 97 97 127 127 127 0 0 0 0 0 0 172 172 172 140 140 140 153 153 153 134 134 134 163 163 163 160 160 160 134 134 134 149 149 149 148 148 148 129 129 129 132 132 132 148 148 148 165 165 165 143 143 143 129 129 129 137 137 137 255 255 255 43 185 176 43 203 192 43 203 192 43 222 214 73 213 204 73 213 204 73 213 204 73 213 204 73 213 204 73 213 204 43 222 214 43 203 192 43 203 192 43 185 176 204 236 240 107 63 127 214 127 255 214 127 255 214 127 255 214 127 255 214 127 255 214 127 255 214 127 255 214 127 255 214 127 255 214 127 255 214 127 255 214 127 255 214 127 255 214 127 255 214 127 255 14 11 6 43 35 21 162 107 62 85 56 36 84 56 35 75 43 24 84 55 35 84 56 35 84 56 35 84 56 35 85 56 36 84 56 35 84 55 35 162 107 62 44 35 22 14 11 6 75 75 75 127 127 127 127 127 127 61 61 61 0 0 0 0 0 0 0 0 0 0 0 0 
0 0 0 0 0 0 0 0 0 0 0 0 66 66 66 176 176 176 127 127 127 45 45 45 75 75 75 127 127 127 176 176 176 163 163 163 163 163 163 163 163 163 163 163 163 163 163 163 163 163 163 163 163 163 176 176 176 176 176 176 176 176 176 176 176 176 127 127 127 45 45 45 75 75 75 127 127 127 176 176 176 176 176 176 176 176 176 168 168 168 176 176 176 200 200 200 200 200 200 163 163 163 176 176 176 176 176 176 168 168 168 176 176 176 127 127 127 45 45 45 255 0 0 0 0 0 255 0 0 0 0 0 255 0 0 0 0 0 0 0 0 255 0 0 255 0 0 0 0 0 255 0 0 255 0 0 0 0 0 0 0 0 0 0 0 255 0 0 
127 127 127 143 143 143 116 116 116 255 255 181 248 175 43 127 127 127 127 127 127 116 116 116 116 116 116 248 175 43 248 175 43 116 116 116 127 127 127 127 127 127 143 143 143 143 143 143 127 127 127 143 143 143 116 116 116 216 175 147 175 142 119 127 127 127 127 127 127 116 116 116 116 116 116 175 142 119 175 142 119 116 116 116 127 127 127 127 127 127 143 143 143 143 143 143 127 127 127 143 143 143 116 116 116 63 63 63 52 52 52 127 127 127 127 127 127 116 116 116 116 116 116 52 52 52 52 52 52 116 116 116 127 127 127 127 127 127 143 143 143 143 143 143 180 144 90 135 54 8 119 48 7 99 40 5 188 22 22 145 17 17 49 91 142 94 114 13 54 42 21 168 155 10 137 126 8 145 17 17 49 91 142 42 78 122 17 142 107 180 144 90 180 180 180 126 126 126 60 109 60 179 179 179 66 140 66 178 178 178 58 98 58 82 82 82 59 102 59 199 199 199 161 161 161 129 129 129 145 145 145 129 129 129 137 137 137 81 81 81 15 15 33 16 16 24 30 24 43 30 24 43 16 16 31 7 7 11 30 24 43 16 16 24 9 9 14 35 29 48 30 24 43 30 24 43 16 16 25 16 16 26 15 15 26 18 18 27 0 0 0 0 0 0 0 0 0 0 0 0 0 0 0 0 0 0 0 0 0 0 0 0 0 0 0 0 0 0 0 0 0 0 0 0 0 0 0 0 0 0 0 0 0 0 0 0 0 0 0 128 128 128 146 146 146 139 139 139 97 97 97 119 119 119 97 97 97 132 132 132 125 125 125 144 144 144 97 97 97 118 118 118 97 97 97 126 126 126 113 113 113 0 0 0 166 166 166 159 159 159 119 119 119 143 143 143 127 127 127 140 140 140 139 139 139 173 173 173 146 146 146 171 171 171 150 150 150 141 141 141 138 138 138 136 136 136 153 153 153 159 159 159 255 255 255 43 185 176 43 203 192 43 203 192 43 203 192 43 203 192 43 203 192 73 213 204 73 213 204 43 203 192 43 203 192 43 203 192 43 203 192 43 203 192 43 185 176 204 236 240 107 63 127 214 127 255 214 127 255 214 127 255 214 127 255 214 127 255 214 127 255 214 127 255 214 127 255 214 127 255 214 127 255 214 127 255 214 127 255 214 127 255 214 127 255 214 127 255 14 11 6 180 144 90 37 30 17 162 107 62 165 110 65 162 107 62 162 107 62 162 107 62 159 104 59 163 107 63 162 107 62 164 109 65 167 112 67 39 33 19 178 142 88 14 11 6 74 74 74 
118 118 118 63 63 63 0 0 0 17 17 17 24 24 24 24 24 24 24 24 24 25 25 25 23 23 23 25 25 25 17 17 17 0 0 0 178 178 178 113 113 113 50 50 50 74 74 74 118 118 118 168 168 168 168 168 168 168 168 168 163 163 163 163 163 163 163 163 163 168 168 168 157 157 157 168 168 168 168 168 168 163 163 163 163 163 163 113 113 113 50 50 50 74 74 74 118 118 118 176 176 176 176 176 176 176 176 176 176 176 176 176 176 176 168 168 168 168 168 168 168 168 168 163 163 163 163 163 163 176 176 176 168 168 168 113 113 113 50 50 50 255 0 0 0 0 0 0 0 0 0 0 0 255 0 0 0 0 0 255 0 0 0 0 0 255 0 0 0 0 0 0 0 0 255 0 0 255 0 0 0 0 0 255 0 0 255 0 0 
127 127 127 127 127 127 127 127 127 116 116 116 116 116 116 116 116 116 116 116 116 116 116 116 127 127 127 127 127 127 143 143 143 143 143 143 127 127 127 116 116 116 116 116 116 127 127 127 127 127 127 127 127 127 127 127 127 116 116 116 116 116 116 116 116 116 116 116 116 116 116 116 127 127 127 127 127 127 143 143 143 143 143 143 127 127 127 116 116 116 116 116 116 127 127 127 127 127 127 127 127 127 127 127 127 116 116 116 116 116 116 116 116 116 116 116 116 116 116 116 127 127 127 127 127 127 143 143 143 143 143 143 127 127 127 116 116 116 116 116 116 127 127 127 188 152 98 135 54 8 119 48 7 99 40 5 188 22 22 145 17 17 49 91 142 94 114 13 65 49 26 168 155 10 137 126 8 145 17 17 49 91 142 42 78 122 17 142 107 188 152 98 121 121 121 137 137 137 56 85 56 159 159 159 132 132 132 124 124 124 128 128 128 58 98 58 58 98 58 58 98 58 129 129 129 143 143 143 138 138 138 146 146 146 85 85 85 55 79 55 16 16 25 16 16 23 16 16 24 30 24 43 17 17 25 16 16 24 12 12 19 15 15 23 9 9 15 26 20 39 30 24 43 30 24 43 30 24 43 16 16 25 15 15 23 12 12 22 0 0 0 0 0 0 0 0 0 0 0 0 0 0 0 0 0 0 0 0 0 0 0 0 0 0 0 0 0 0 0 0 0 0 0 0 0 0 0 0 0 0 0 0 0 0 0 0 0 0 0 106 106 106 109 109 109 97 97 97 136 136 136 109 109 109 97 97 97 125 125 125 96 96 96 125 125 125 97 97 97 96 96 96 97 97 97 96 96 96 109 109 109 0 0 0 142 142 142 158 158 158 152 152 152 134 134 134 160 160 160 149 149 149 142 142 142 136 136 136 129 129 129 141 141 141 166 166 166 155 155 155 155 155 155 162 162 162 145 145 145 150 150 150 255 255 255 43 185 176 43 185 176 43 185 176 43 185 176 43 203 192 43 203 192 43 203 192 43 203 192 43 203 192 43 185 176 43 203 192 43 185 176 43 185 176 43 185 176 204 236 240 107 63 127 214 127 255 214 127 255 214 127 255 214 127 255 214 127 255 214 127 255 214 127 255 214 127 255 214 127 255 214 127 255 214 127 255 214 127 255 214 127 255 214 127 255 214 127 255 18 14 9 180 144 90 180 144 90 43 35 21 175 114 70 177 116 72 171 110 66 171 110 66 175 114 70 175 114 70 169 108 65 175 114 70 43 35 21 180 144 90 180 144 90 25 20 12 77 77 77 
127 127 127 63 63 63 17 17 17 40 40 40 38 38 38 42 42 42 42 42 42 40 40 40 40 40 40 40 40 40 40 40 40 18 18 18 183 183 183 127 127 127 45 45 45 77 77 77 127 127 127 121 121 121 121 121 121 121 121 121 118 118 118 127 127 127 127 127 127 121 121 121 121 121 121 121 121 121 121 121 121 127 127 127 127 127 127 127 127 127 45 45 45 77 77 77 127 127 127 121 121 121 121 121 121 121 121 121 113 113 113 113 113 113 121 121 121 121 121 121 113 113 113 113 113 113 113 113 113 121 121 121 121 121 121 127 127 127 45 45 45 255 0 0 0 0 0 255 0 0 0 0 0 255 0 0 0 0 0 255 0 0 0 0 0 255 0 0 255 0 0 0 0 0 255 0 0 255 0 0 0 0 0 255 0 0 255 0 0 
116 116 116 116 116 116 116 116 116 116 116 116 104 104 104 143 143 143 143 143 143 127 127 127 127 127 127 127 127 127 127 127 127 116 116 116 116 116 116 116 116 116 127 127 127 127 127 127 116 116 116 116 116 116 116 116 116 116 116 116 104 104 104 143 143 143 143 143 143 127 127 127 127 127 127 127 127 127 127 127 127 116 116 116 116 116 116 116 116 116 127 127 127 127 127 127 116 116 116 116 116 116 116 116 116 116 116 116 104 104 104 143 143 143 143 143 143 127 127 127 127 127 127 127 127 127 127 127 127 116 116 116 116 116 116 116 116 116 127 127 127 127 127 127 115 94 57 115 94 57 115 94 57 124 98 62 105 84 51 105 84 51 124 98 62 105 84 51 115 94 57 115 94 57 115 94 57 105 84 51 76 61 38 105 84 51 105 84 51 115 94 57 124 124 124 121 121 121 119 119 119 57 91 57 55 73 55 55 72 55 55 79 55 58 98 58 68 145 68 131 131 131 101 101 101 58 99 58 56 87 56 57 89 57 56 82 56 108 108 108 16 16 24 15 15 21 16 16 24 15 15 29 16 16 25 17 17 26 16 16 24 16 16 24 16 16 25 17 17 28 16 16 20 17 17 26 16 16 24 16 16 24 15 15 23 16 16 30 0 0 0 0 0 0 0 0 0 0 0 0 0 0 0 0 0 0 0 0 0 0 0 0 0 0 0 0 0 0 0 0 0 0 0 0 0 0 0 0 0 0 0 0 0 0 0 0 117 117 117 129 129 129 106 106 106 97 97 97 106 106 106 96 96 96 96 96 96 106 106 106 97 97 97 106 106 106 106 106 106 106 106 106 97 97 97 109 109 109 96 96 96 0 0 0 138 138 138 141 141 141 147 147 147 126 126 126 153 153 153 136 136 136 156 156 156 155 155 155 146 146 146 181 181 181 130 130 130 129 129 129 138 138 138 152 152 152 131 131 131 164 164 164 204 236 240 204 236 240 204 236 240 204 236 240 204 236 240 204 236 240 204 236 240 204 236 240 204 236 240 204 236 240 204 236 240 204 236 240 204 236 240 204 236 240 204 236 240 204 236 240 107 63 127 214 127 255 214 127 255 214 127 255 214 127 255 214 127 255 214 127 255 214 127 255 214 127 255 214 127 255 214 127 255 214 127 255 214 127 255 214 127 255 214 127 255 214 127 255 25 20 12 26 21 13 14 11 6 26 21 13 25 20 12 80 38 22 73 33 19 80 38 22 80 38 22 80 38 22 80 38 22 25 20 12 14 11 6 14 11 6 14 11 6 25 20 12 63 63 63 97 97 97 
50 50 50 41 41 41 41 41 41 41 41 41 41 41 41 41 41 41 41 41 41 38 38 38 41 41 41 41 41 41 41 41 41 165 165 165 97 97 97 50 50 50 63 63 63 50 50 50 50 50 50 48 48 48 48 48 48 48 48 48 48 48 48 48 48 48 48 48 48 45 45 45 48 48 48 48 48 48 48 48 48 48 48 48 50 50 50 50 50 50 63 63 63 48 48 48 50 50 50 41 41 41 41 41 41 41 41 41 48 48 48 48 48 48 48 48 48 48 48 48 41 41 41 41 41 41 41 41 41 48 48 48 48 48 48 50 50 50 255 0 0 255 0 0 255 0 0 255 0 0 255 0 0 255 0 0 255 0 0 255 0 0 255 0 0 255 0 0 255 0 0 255 0 0 255 0 0 255 0 0 255 0 0 255 0 0 
209 209 73 206 206 70 183 183 47 206 206 70 206 206 70 206 206 70 206 206 70 206 206 70 223 223 87 206 206 70 83 83 0 229 229 78 222 222 86 206 206 70 206 206 70 206 206 70 254 254 254 254 254 254 254 254 254 0 0 0 254 254 254 254 254 254 254 254 254 254 254 254 254 254 254 254 254 254 254 254 254 254 254 254 254 254 254 254 254 254 254 254 254 192 245 254 127 127 127 116 116 116 116 116 116 116 116 116 116 116 116 127 127 127 143 143 143 143 143 143 104 104 104 143 143 143 127 127 127 116 116 116 116 116 116 116 116 116 116 116 116 127 127 127 127 127 127 116 116 116 116 116 116 116 116 116 116 116 116 127 127 127 143 143 143 143 143 143 104 104 104 143 143 143 127 127 127 116 116 116 116 116 116 116 116 116 116 116 116 127 127 127 151 151 151 0 0 0 173 173 173 159 159 159 90 90 90 0 0 0 0 0 0 0 0 0 127 127 127 0 0 0 0 0 0 0 0 0 0 0 0 86 86 86 0 0 0 171 171 171 151 151 151 44 44 44 173 173 173 159 159 159 90 90 90 44 44 44 44 44 44 44 44 44 127 127 127 44 44 44 44 44 44 44 44 44 44 44 44 86 86 86 44 44 44 171 171 171 159 159 159 152 152 152 160 160 160 156 156 156 144 144 144 156 156 156 151 151 151 148 148 148 148 148 148 148 148 148 148 148 148 154 154 154 141 141 141 143 143 143 142 142 142 96 96 96 0 0 0 0 0 0 0 0 0 0 0 0 0 0 0 0 0 0 0 0 0 0 0 0 148 100 40 0 0 0 0 0 0 0 0 0 0 0 0 0 0 0 0 0 0 0 0 0 0 0 0 0 0 0 0 0 0 0 0 0 0 0 0 0 0 0 0 0 0 0 0 0 0 0 0 0 0 0 0 0 0 0 0 0 0 0 0 0 0 0 0 0 0 0 0 0 60 51 34 60 51 34 60 51 34 60 51 34 60 51 34 60 51 34 60 51 34 60 51 34 60 51 34 60 51 34 60 51 34 60 51 34 60 51 34 60 51 34 60 51 34 60 51 34 60 51 34 60 51 34 60 51 34 60 51 34 60 51 34 60 51 34 60 51 34 60 51 34 60 51 34 60 51 34 60 51 34 60 51 34 60 51 34 60 51 34 60 51 34 60 51 34 25 20 12 159 132 77 159 132 77 159 132 77 159 132 77 45 36 23 180 119 75 91 47 28 88 45 26 180 119 75 45 36 23 188 152 98 188 152 98 188 152 98 188 152 98 25 20 12 25 20 12 159 132 77 159 132 77 159 132 77 159 132 77 45 36 23 180 119 75 91 47 28 88 45 26 180 119 75 45 36 23 188 152 98 188 152 98 188 152 98 188 152 98 25 20 12 56 56 56 
53 53 53 53 53 53 51 51 51 48 48 48 47 47 47 45 45 45 45 45 45 36 36 36 59 59 59 56 56 56 53 53 53 45 45 45 39 39 39 54 54 54 50 50 50 56 56 56 53 53 53 53 53 53 51 51 51 48 48 48 47 47 47 45 45 45 45 45 45 36 36 36 59 59 59 56 56 56 53 53 53 45 45 45 39 39 39 54 54 54 50 50 50 0 0 0 0 0 0 0 0 0 0 0 0 0 0 0 0 0 0 0 0 0 0 0 0 0 0 0 0 0 0 0 0 0 0 0 0 0 0 0 0 0 0 0 0 0 0 0 0 
199 199 63 56 56 0 229 229 78 207 207 71 192 192 56 206 206 70 56 56 0 56 56 0 206 206 70 210 210 74 206 206 70 206 206 70 206 206 70 206 206 70 37 35 6 206 206 70 254 254 254 0 0 0 0 0 0 0 0 0 0 0 0 0 0 0 0 0 0 192 245 254 0 0 0 0 0 0 0 0 0 0 0 0 0 0 0 0 0 0 0 0 0 179 214 219 127 127 127 127 127 127 143 143 143 143 143 143 143 143 143 143 143 143 143 143 143 143 143 143 116 116 116 143 143 143 143 143 143 143 143 143 104 104 104 127 127 127 127 127 127 116 116 116 127 127 127 127 127 127 143 143 143 143 143 143 143 143 143 143 143 143 143 143 143 143 143 143 116 116 116 143 143 143 143 143 143 143 143 143 104 104 104 127 127 127 127 127 127 116 116 116 135 135 135 0 0 0 187 187 187 153 153 153 0 0 0 84 84 84 0 0 0 0 0 0 86 86 86 78 78 78 0 0 0 179 179 179 180 180 180 80 80 80 0 0 0 84 84 84 135 135 135 44 44 44 187 187 187 153 153 153 44 44 44 84 84 84 44 44 44 44 44 44 86 86 86 78 78 78 44 44 44 179 179 179 180 180 180 80 80 80 44 44 44 84 84 84 156 156 156 136 136 136 136 136 136 136 136 136 121 121 121 136 136 136 136 136 136 136 136 136 115 115 115 127 127 127 127 127 127 121 121 121 127 127 127 127 127 127 123 123 123 97 97 97 0 0 0 0 0 0 0 0 0 0 0 0 0 0 0 0 0 0 0 0 0 0 0 0 148 100 40 0 0 0 0 0 0 0 0 0 0 0 0 0 0 0 0 0 0 0 0 0 0 0 0 0 0 0 0 0 0 0 0 0 0 0 0 0 0 0 0 0 0 181 181 181 0 0 0 0 0 0 0 0 0 0 0 0 0 0 0 0 0 0 0 0 0 0 0 0 60 51 34 101 79 49 210 193 171 210 193 171 101 79 49 71 61 41 101 79 49 210 193 171 210 193 171 101 79 49 71 61 41 101 79 49 210 193 171 210 193 171 101 79 49 60 51 34 60 51 34 86 69 43 86 69 43 86 69 43 79 64 41 51 43 27 86 69 43 86 69 43 86 69 43 79 64 41 51 43 27 86 69 43 86 69 43 86 69 43 79 64 41 60 51 34 25 20 12 188 152 98 180 144 90 115 94 57 180 144 90 180 144 90 38 32 18 88 45 26 88 45 26 38 32 18 159 132 77 180 144 90 159 132 77 180 144 90 188 152 98 25 20 12 25 20 12 188 152 98 180 144 90 115 94 57 180 144 90 180 144 90 38 32 18 88 45 26 88 45 26 38 32 18 159 132 77 180 144 90 159 132 77 180 144 90 188 152 98 25 20 12 56 56 56 108 108 108 90 90 90 97 97 97 71 71 71 
87 87 87 114 114 114 114 114 114 76 76 76 97 97 97 100 100 100 97 97 97 87 87 87 69 69 69 86 86 86 50 50 50 56 56 56 108 108 108 90 90 90 97 97 97 71 71 71 87 87 87 114 114 114 114 114 114 76 76 76 97 97 97 100 100 100 97 97 97 87 87 87 69 69 69 86 86 86 50 50 50 0 0 0 0 0 0 0 0 0 0 0 0 0 0 0 0 0 0 0 0 0 0 0 0 0 0 0 0 0 0 0 0 0 0 0 0 0 0 0 0 0 0 0 0 0 0 0 0 
206 206 70 206 206 70 206 206 70 208 208 72 206 206 70 220 220 84 82 82 0 99 99 0 217 217 66 206 206 70 191 191 55 226 226 90 56 56 0 203 203 67 252 252 101 206 206 70 254 254 254 0 0 0 0 0 0 254 254 254 0 0 0 0 0 0 192 245 254 0 0 0 0 0 0 0 0 0 0 0 0 0 0 0 0 0 0 0 0 0 0 0 0 0 0 0 127 127 127 104 104 104 116 116 116 116 116 116 119 206 251 116 116 116 116 116 116 116 116 116 143 143 143 116 116 116 127 127 127 127 127 127 199 231 254 119 206 251 127 127 127 127 127 127 127 127 127 104 104 104 116 116 116 116 116 116 151 3 3 116 116 116 116 116 116 116 116 116 143 143 143 116 116 116 127 127 127 127 127 127 255 0 0 151 3 3 127 127 127 127 127 127 0 0 0 0 0 0 143 143 143 0 0 0 81 81 81 175 175 175 162 162 162 0 0 0 158 158 158 170 170 170 95 95 95 177 177 177 148 148 148 0 0 0 176 176 176 171 171 171 44 44 44 44 44 44 143 143 143 44 44 44 81 81 81 175 175 175 162 162 162 44 44 44 158 158 158 170 170 170 95 95 95 177 177 177 148 148 148 44 44 44 176 176 176 171 171 171 144 144 144 121 121 121 121 121 121 121 121 121 136 136 136 121 121 121 127 127 127 127 127 127 127 127 127 136 136 136 127 127 127 127 127 127 127 127 127 115 115 115 107 107 107 93 93 93 0 0 0 0 0 0 0 0 0 0 0 0 0 0 0 0 0 0 0 0 0 148 100 40 91 52 6 0 0 0 0 0 0 0 0 0 148 100 40 0 0 0 0 0 0 0 0 0 0 0 0 0 0 0 0 0 0 0 0 0 0 0 0 0 0 0 97 97 97 181 181 181 126 126 126 126 126 126 0 0 0 0 0 0 0 0 0 0 0 0 0 0 0 0 0 0 60 51 34 210 193 171 228 219 206 217 203 184 202 182 156 71 61 41 210 193 171 223 212 197 217 203 184 202 182 156 71 61 41 210 193 171 228 219 206 217 203 184 202 182 156 60 51 34 60 51 34 86 69 43 73 60 39 73 60 39 66 55 36 51 43 27 86 69 43 73 60 39 73 60 39 66 55 36 51 43 27 86 69 43 73 60 39 73 60 39 66 55 36 60 51 34 25 20 12 188 152 98 159 132 77 159 132 77 125 88 49 159 132 77 180 144 90 43 35 21 45 36 23 188 152 98 188 152 98 180 144 90 115 94 57 188 152 98 188 152 98 25 20 12 25 20 12 188 152 98 159 132 77 159 132 77 125 88 49 159 132 77 180 144 90 43 35 21 45 36 23 188 152 98 188 152 98 180 144 90 115 94 57 188 152 98 188 152 98 
25 20 12 41 41 41 82 82 82 120 120 120 85 85 85 98 98 98 143 143 143 143 143 143 122 122 122 101 101 101 81 81 81 132 132 132 127 127 127 95 95 95 120 120 120 80 80 80 48 48 48 41 41 41 82 82 82 120 120 120 85 85 85 98 98 98 143 143 143 143 143 143 122 122 122 101 101 101 81 81 81 132 132 132 127 127 127 95 95 95 120 120 120 80 80 80 48 48 48 0 0 0 0 0 0 0 0 0 0 0 0 0 0 0 0 0 0 0 0 0 34 53 34 57 90 57 0 0 0 0 0 0 0 0 0 0 0 0 0 0 0 0 0 0 0 0 0 
206 206 70 195 195 59 220 220 84 56 56 0 56 56 0 210 210 74 229 229 78 60 60 0 229 229 78 199 199 63 192 192 56 44 44 0 99 99 0 200 200 49 206 206 70 217 217 81 254 254 254 0 0 0 254 254 254 0 0 0 0 0 0 0 0 0 0 0 0 0 0 0 0 0 0 0 0 0 0 0 0 0 0 0 0 0 0 0 0 0 192 245 254 179 214 219 127 127 127 143 143 143 127 127 127 127 127 127 127 127 127 104 104 104 127 127 127 199 231 254 93 236 245 127 127 127 116 116 116 116 116 116 116 116 116 116 116 116 116 116 116 127 127 127 127 127 127 143 143 143 127 127 127 127 127 127 127 127 127 104 104 104 127 127 127 255 0 0 143 3 3 127 127 127 116 116 116 116 116 116 116 116 116 116 116 116 116 116 116 127 127 127 0 0 0 0 0 0 0 0 0 0 0 0 0 0 0 173 173 173 138 138 138 0 0 0 171 171 171 154 154 154 79 79 79 175 175 175 139 139 139 0 0 0 173 173 173 154 154 154 44 44 44 44 44 44 44 44 44 44 44 44 44 44 44 173 173 173 138 138 138 44 44 44 171 171 171 154 154 154 79 79 79 175 175 175 139 139 139 44 44 44 173 173 173 154 154 154 151 151 151 115 115 115 127 127 127 136 136 136 127 127 127 127 127 127 121 121 121 121 121 121 121 121 121 121 121 121 121 121 121 127 127 127 127 127 127 136 136 136 110 110 110 95 95 95 0 0 0 0 0 0 0 0 0 0 0 0 0 0 0 0 0 0 0 0 0 148 100 40 91 52 6 0 0 0 0 0 0 0 0 0 148 100 40 91 52 6 0 0 0 0 0 0 0 0 0 0 0 0 0 0 0 0 0 0 0 0 0 0 0 0 126 126 126 181 181 181 126 126 126 0 0 0 0 0 0 0 0 0 0 0 0 0 0 0 0 0 0 0 0 0 60 51 34 210 193 171 217 203 184 210 193 171 190 170 142 71 61 41 210 193 171 217 203 184 210 193 171 202 182 156 71 61 41 210 193 171 217 203 184 210 193 171 190 170 142 60 51 34 60 51 34 86 69 43 73 60 39 73 60 39 66 55 36 51 43 27 86 69 43 73 60 39 73 60 39 66 55 36 51 43 27 86 69 43 73 60 39 73 60 39 66 55 36 60 51 34 25 20 12 105 84 51 105 84 51 74 60 36 74 60 36 115 94 57 115 94 57 27 22 13 27 22 13 115 94 57 67 54 33 105 84 51 105 84 51 105 84 51 115 94 57 25 20 12 25 20 12 105 84 51 105 84 51 74 60 36 74 60 36 115 94 57 115 94 57 27 22 13 27 22 13 115 94 57 67 54 33 40 30 11 40 30 11 40 30 11 115 94 57 25 20 12 45 45 45 80 80 80 92 92 92 
111 111 111 110 110 110 38 38 38 51 51 51 50 50 50 35 35 35 41 41 41 33 33 33 66 66 66 105 105 105 139 139 139 105 105 105 41 41 41 45 45 45 80 80 80 92 92 92 111 111 111 152 152 152 103 103 103 136 136 136 135 135 135 95 95 95 110 110 110 89 89 89 91 91 91 105 105 105 139 139 139 105 105 105 41 41 41 0 0 0 0 0 0 0 0 0 0 0 0 0 0 0 0 0 0 34 53 34 46 73 46 34 53 34 34 53 34 0 0 0 0 0 0 0 0 0 0 0 0 0 0 0 0 0 0 
206 206 70 206 206 70 206 206 70 99 99 0 99 99 0 206 206 70 167 167 31 195 195 59 206 206 70 189 189 53 206 206 70 206 206 70 229 229 78 206 206 70 255 255 121 206 206 70 254 254 254 254 254 254 0 0 0 0 0 0 0 0 0 0 0 0 0 0 0 0 0 0 0 0 0 254 254 254 0 0 0 0 0 0 0 0 0 192 245 254 0 0 0 179 214 219 127 127 127 143 143 143 143 143 143 116 116 116 116 116 116 116 116 116 116 116 116 116 116 116 116 116 116 116 116 116 143 143 143 143 143 143 143 143 143 143 143 143 143 143 143 104 104 104 127 127 127 143 143 143 143 143 143 116 116 116 116 116 116 116 116 116 116 116 116 116 116 116 116 116 116 116 116 116 143 143 143 143 143 143 143 143 143 143 143 143 143 143 143 104 104 104 0 0 0 161 161 161 160 160 160 0 0 0 0 0 0 165 165 165 82 82 82 0 0 0 153 153 153 141 141 141 0 0 0 0 0 0 141 141 141 0 0 0 147 147 147 138 138 138 44 44 44 161 161 161 160 160 160 44 44 44 44 44 44 165 165 165 82 82 82 44 44 44 153 153 153 141 141 141 44 44 44 44 44 44 141 141 141 44 44 44 147 147 147 138 138 138 148 148 148 121 121 121 121 121 121 121 121 121 121 121 121 121 121 121 136 136 136 136 136 136 136 136 136 136 136 136 136 136 136 115 115 115 127 127 127 136 136 136 116 116 116 93 93 93 0 0 0 0 0 0 0 0 0 148 100 40 148 100 40 0 0 0 0 0 0 148 100 40 148 100 40 91 52 6 91 52 6 148 100 40 148 100 40 0 0 0 0 0 0 0 0 0 0 0 0 0 0 0 0 0 0 0 0 0 0 0 0 97 97 97 97 97 97 126 126 126 97 97 97 97 97 97 0 0 0 0 0 0 0 0 0 0 0 0 0 0 0 0 0 0 60 51 34 101 79 49 202 182 156 190 170 142 101 79 49 71 61 41 101 79 49 202 182 156 190 170 142 101 79 49 71 61 41 101 79 49 202 182 156 190 170 142 101 79 49 60 51 34 60 51 34 79 64 41 66 55 36 66 55 36 63 53 35 51 43 27 79 64 41 66 55 36 66 55 36 63 53 35 51 43 27 79 64 41 66 55 36 66 55 36 63 53 35 60 51 34 25 20 12 159 132 77 159 132 77 125 88 49 159 132 77 188 152 98 188 152 98 38 32 18 45 36 23 159 132 77 125 88 49 115 94 57 180 144 90 180 144 90 180 144 90 25 20 12 25 20 12 159 132 77 159 132 77 125 88 49 159 132 77 188 152 98 188 152 98 38 32 18 45 36 23 159 132 77 125 88 49 40 30 11 112 89 56 
40 30 11 112 89 56 25 20 12 56 56 56 114 114 114 120 120 120 76 76 76 53 53 53 0 0 0 0 0 0 0 0 0 0 0 0 0 0 0 0 0 0 55 55 55 83 83 83 134 134 134 112 112 112 36 36 36 56 56 56 114 114 114 120 120 120 105 105 105 143 143 143 123 123 123 123 123 123 91 91 91 105 105 105 137 137 137 149 149 149 148 148 148 115 115 115 134 134 134 112 112 112 36 36 36 0 0 0 0 0 0 0 0 0 0 0 0 0 0 0 0 0 0 0 0 0 80 54 26 19 8 3 0 0 0 0 0 0 0 0 0 0 0 0 0 0 0 0 0 0 0 0 0 
206 206 70 186 186 50 206 206 70 206 206 70 229 229 78 190 190 54 206 206 70 210 210 74 37 37 0 206 206 70 214 214 78 206 206 70 99 99 0 219 219 83 213 213 77 206 206 70 254 254 254 0 0 0 0 0 0 0 0 0 0 0 0 0 0 0 0 0 0 0 0 0 254 254 254 0 0 0 0 0 0 0 0 0 192 245 254 0 0 0 0 0 0 0 0 0 116 116 116 116 116 116 127 127 127 127 127 127 127 127 127 255 255 255 199 231 254 116 116 116 127 127 127 104 104 104 255 255 255 199 231 254 116 116 116 116 116 116 104 104 104 127 127 127 116 116 116 116 116 116 127 127 127 127 127 127 127 127 127 255 0 0 170 4 4 116 116 116 127 127 127 104 104 104 255 0 0 170 4 4 116 116 116 116 116 116 104 104 104 127 127 127 0 0 0 176 176 176 134 134 134 0 0 0 79 79 79 141 141 141 93 93 93 0 0 0 82 82 82 154 154 154 0 0 0 87 87 87 0 0 0 91 91 91 0 0 0 132 132 132 44 44 44 176 176 176 134 134 134 44 44 44 79 79 79 141 141 141 93 93 93 44 44 44 82 82 82 154 154 154 44 44 44 87 87 87 44 44 44 91 91 91 44 44 44 132 132 132 147 147 147 121 121 121 121 121 121 121 121 121 127 127 127 115 115 115 127 127 127 127 127 127 121 121 121 121 121 121 115 115 115 127 127 127 121 121 121 121 121 121 106 106 106 97 97 97 0 0 0 0 0 0 0 0 0 0 0 0 91 52 6 148 100 40 0 0 0 0 0 0 148 100 40 148 100 40 148 100 40 91 52 6 91 52 6 148 100 40 0 0 0 0 0 0 0 0 0 0 0 0 0 0 0 0 0 0 97 97 97 126 126 126 126 126 126 181 181 181 126 126 126 126 126 126 0 0 0 0 0 0 0 0 0 0 0 0 0 0 0 0 0 0 60 51 34 71 61 41 71 61 41 71 61 41 71 61 41 71 61 41 71 61 41 71 61 41 71 61 41 71 61 41 71 61 41 71 61 41 71 61 41 71 61 41 71 61 41 60 51 34 60 51 34 51 43 27 51 43 27 51 43 27 51 43 27 46 39 23 51 43 27 51 43 27 51 43 27 51 43 27 46 39 23 51 43 27 51 43 27 51 43 27 51 43 27 60 51 34 25 20 12 159 132 77 115 94 57 40 30 11 180 144 90 40 30 11 188 152 98 38 32 18 43 35 21 180 144 90 153 104 58 180 144 90 159 132 77 159 132 77 159 132 77 25 20 12 25 20 12 159 132 77 115 94 57 40 30 11 180 144 90 180 144 90 188 152 98 38 32 18 43 35 21 180 144 90 153 104 58 40 30 11 40 30 11 40 30 11 99 82 48 25 20 12 43 43 43 89 89 89 126 126 126 41 41 41 
0 0 0 0 0 0 0 0 0 0 0 0 0 0 0 0 0 0 0 0 0 0 0 0 163 163 163 104 104 104 56 56 56 36 36 36 43 43 43 89 89 89 126 126 126 111 111 111 124 124 124 125 125 125 120 120 120 88 88 88 145 145 145 145 145 145 124 124 124 131 131 131 123 123 123 104 104 104 56 56 56 36 36 36 0 0 0 0 0 0 0 0 0 57 90 57 46 73 46 0 0 0 57 90 57 46 29 10 19 8 3 0 0 0 57 90 57 46 73 46 0 0 0 0 0 0 0 0 0 0 0 0 
220 220 84 56 56 0 206 206 70 234 234 98 99 99 0 206 206 70 206 206 70 206 206 70 229 229 78 211 211 75 206 206 70 181 181 45 251 251 100 229 229 78 206 206 70 206 206 70 0 0 0 0 0 0 0 0 0 0 0 0 0 0 0 0 0 0 0 0 0 192 245 254 0 0 0 0 0 0 0 0 0 0 0 0 0 0 0 0 0 0 0 0 0 179 214 219 143 143 143 143 143 143 127 127 127 255 255 255 199 231 254 119 206 251 119 206 251 93 236 245 127 127 127 127 127 127 119 206 251 93 236 245 143 143 143 143 143 143 143 143 143 104 104 104 143 143 143 143 143 143 127 127 127 184 5 5 170 4 4 151 3 3 151 3 3 143 3 3 127 127 127 127 127 127 151 3 3 143 3 3 143 143 143 143 143 143 143 143 143 104 104 104 83 83 83 148 148 148 0 0 0 80 80 80 88 88 88 0 0 0 162 162 162 167 167 167 0 0 0 0 0 0 101 101 101 0 0 0 0 0 0 82 82 82 89 89 89 92 92 92 83 83 83 148 148 148 44 44 44 80 80 80 88 88 88 44 44 44 162 162 162 167 167 167 44 44 44 44 44 44 101 101 101 44 44 44 44 44 44 82 82 82 89 89 89 92 92 92 141 141 141 114 114 114 120 120 120 116 116 116 110 110 110 110 110 110 110 110 110 110 110 110 116 116 116 116 116 116 112 112 112 101 101 101 108 108 108 116 116 116 114 114 114 97 97 97 0 0 0 0 0 0 0 0 0 0 0 0 0 0 0 91 52 6 148 100 40 91 52 6 148 100 40 91 52 6 91 52 6 0 0 0 91 52 6 0 0 0 0 0 0 0 0 0 0 0 0 0 0 0 0 0 0 0 0 0 0 0 0 97 97 97 97 97 97 126 126 126 97 97 97 97 97 97 126 126 126 0 0 0 0 0 0 0 0 0 0 0 0 0 0 0 60 51 34 101 79 49 210 193 171 210 193 171 101 79 49 71 61 41 101 79 49 210 193 171 210 193 171 101 79 49 71 61 41 101 79 49 210 193 171 210 193 171 101 79 49 60 51 34 60 51 34 86 69 43 86 69 43 86 69 43 79 64 41 51 43 27 86 69 43 86 69 43 86 69 43 79 64 41 51 43 27 86 69 43 86 69 43 86 69 43 79 64 41 60 51 34 25 20 12 188 152 98 188 152 98 40 30 11 117 94 61 40 30 11 117 94 61 38 32 18 38 32 18 159 132 77 74 60 36 188 152 98 188 152 98 188 152 98 188 152 98 25 20 12 25 20 12 188 152 98 188 152 98 40 30 11 188 152 98 188 152 98 188 152 98 38 32 18 38 32 18 159 132 77 74 60 36 216 216 216 216 216 216 181 181 181 117 94 61 25 20 12 50 50 50 97 97 97 127 127 127 41 41 41 0 0 0 13 13 13 
15 15 15 18 18 18 16 16 16 19 19 19 21 21 21 0 0 0 166 166 166 135 135 135 97 97 97 35 35 35 50 50 50 97 97 97 127 127 127 111 111 111 116 116 116 89 89 89 104 104 104 121 121 121 113 113 113 133 133 133 143 143 143 127 127 127 130 130 130 135 135 135 97 97 97 35 35 35 0 0 0 0 0 0 57 90 57 46 73 46 57 90 57 57 90 57 46 73 46 19 8 3 46 29 10 57 90 57 46 73 46 0 0 0 0 0 0 0 0 0 0 0 0 0 0 0 
188 188 52 106 106 7 229 229 78 208 208 72 229 229 78 218 218 82 193 193 57 203 203 67 206 206 70 206 206 70 214 214 78 178 178 42 157 157 21 206 206 70 216 216 80 204 204 68 254 254 254 0 0 0 192 245 254 0 0 0 0 0 0 0 0 0 192 245 254 0 0 0 0 0 0 0 0 0 0 0 0 0 0 0 0 0 0 0 0 0 0 0 0 179 214 219 127 127 127 127 127 127 127 127 127 116 116 116 116 116 116 116 116 116 116 116 116 116 116 116 116 116 116 104 104 104 116 116 116 116 116 116 116 116 116 116 116 116 127 127 127 127 127 127 127 127 127 127 127 127 127 127 127 116 116 116 116 116 116 116 116 116 116 116 116 116 116 116 116 116 116 104 104 104 116 116 116 116 116 116 116 116 116 116 116 116 127 127 127 127 127 127 162 162 162 182 182 182 0 0 0 166 166 166 181 181 181 88 88 88 175 175 175 145 145 145 0 0 0 168 168 168 187 187 187 83 83 83 0 0 0 82 82 82 0 0 0 98 98 98 162 162 162 182 182 182 44 44 44 166 166 166 181 181 181 88 88 88 175 175 175 145 145 145 44 44 44 168 168 168 187 187 187 83 83 83 44 44 44 82 82 82 44 44 44 98 98 98 93 93 93 93 93 93 93 93 93 93 93 93 93 93 93 93 93 93 93 93 93 93 93 93 91 91 91 93 93 93 97 97 97 98 98 98 96 96 96 96 96 96 95 95 95 93 93 93 0 0 0 0 0 0 0 0 0 0 0 0 0 0 0 0 0 0 91 52 6 148 100 40 91 52 6 91 52 6 0 0 0 0 0 0 0 0 0 0 0 0 0 0 0 0 0 0 0 0 0 0 0 0 0 0 0 0 0 0 97 97 97 126 126 126 126 126 126 181 181 181 126 126 126 126 126 126 97 97 97 0 0 0 0 0 0 0 0 0 0 0 0 0 0 0 60 51 34 210 193 171 228 219 206 217 203 184 202 182 156 71 61 41 210 193 171 228 219 206 228 219 206 202 182 156 71 61 41 210 193 171 228 219 206 217 203 184 202 182 156 60 51 34 60 51 34 86 69 43 73 60 39 73 60 39 66 55 36 51 43 27 86 69 43 73 60 39 73 60 39 66 55 36 51 43 27 86 69 43 73 60 39 73 60 39 66 55 36 60 51 34 25 20 12 115 94 57 105 84 51 105 84 51 216 216 216 105 84 51 105 84 51 27 22 13 27 22 13 115 94 57 105 84 51 67 54 33 105 84 51 105 84 51 115 94 57 25 20 12 25 20 12 115 94 57 105 84 51 40 30 11 105 84 51 105 84 51 105 84 51 27 22 13 27 22 13 115 94 57 105 84 51 255 255 255 216 216 216 181 181 181 71 58 35 25 20 12 47 47 47 92 92 92 
91 91 91 38 38 38 113 113 113 182 182 182 170 170 170 169 169 169 170 170 170 166 166 166 165 165 165 107 107 107 168 168 168 89 89 89 82 82 82 58 58 58 47 47 47 92 92 92 91 91 91 101 101 101 140 140 140 143 143 143 105 105 105 100 100 100 106 106 106 91 91 91 88 88 88 124 124 124 135 135 135 89 89 89 82 82 82 58 58 58 0 0 0 57 90 57 34 53 34 80 54 26 80 54 26 0 0 0 46 73 46 46 29 10 46 29 10 34 53 34 0 0 0 0 0 0 57 90 57 0 0 0 0 0 0 0 0 0 
206 206 70 229 229 78 217 217 66 209 209 73 210 210 74 206 206 70 194 194 58 57 57 0 229 229 78 56 56 0 56 56 0 56 56 0 180 180 44 206 206 70 56 56 0 206 206 70 254 254 254 192 245 254 0 0 0 0 0 0 0 0 0 0 0 0 0 0 0 0 0 0 0 0 0 0 0 0 0 0 0 0 0 0 0 0 0 0 0 0 0 0 0 179 214 219 127 127 127 199 231 254 119 206 251 104 104 104 143 143 143 116 116 116 127 127 127 127 127 127 255 255 255 199 231 254 143 143 143 143 143 143 143 143 143 143 143 143 143 143 143 143 143 143 127 127 127 255 0 0 151 3 3 104 104 104 143 143 143 116 116 116 127 127 127 127 127 127 255 0 0 170 4 4 143 143 143 143 143 143 143 143 143 143 143 143 143 143 143 143 143 143 184 184 184 143 143 143 0 0 0 155 155 155 148 148 148 84 84 84 151 151 151 145 145 145 0 0 0 148 148 148 145 145 145 0 0 0 0 0 0 187 187 187 158 158 158 86 86 86 184 184 184 143 143 143 44 44 44 155 155 155 148 148 148 84 84 84 151 151 151 145 145 145 44 44 44 148 148 148 145 145 145 44 44 44 44 44 44 187 187 187 158 158 158 86 86 86 148 148 148 151 151 151 151 151 151 151 151 151 156 156 156 156 156 156 150 150 150 95 95 95 164 164 164 157 157 157 155 155 155 141 141 141 152 152 152 156 156 156 144 144 144 156 156 156 0 0 0 0 0 0 0 0 0 0 0 0 0 0 0 148 100 40 148 100 40 148 100 40 91 52 6 0 0 0 0 0 0 91 52 6 0 0 0 0 0 0 0 0 0 0 0 0 0 0 0 0 0 0 0 0 0 0 0 0 126 126 126 97 97 97 97 97 97 126 126 126 97 97 97 97 97 97 126 126 126 0 0 0 0 0 0 0 0 0 0 0 0 0 0 0 60 51 34 210 193 171 217 203 184 210 193 171 190 170 142 71 61 41 210 193 171 217 203 184 210 193 171 190 170 142 71 61 41 210 193 171 217 203 184 210 193 171 190 170 142 60 51 34 60 51 34 86 69 43 73 60 39 73 60 39 66 55 36 51 43 27 86 69 43 73 60 39 73 60 39 66 55 36 51 43 27 86 69 43 73 60 39 73 60 39 66 55 36 60 51 34 25 20 12 188 152 98 188 152 98 216 216 216 117 94 61 216 216 216 99 82 48 45 36 23 45 36 23 180 144 90 180 144 90 180 144 90 188 152 98 188 152 98 188 152 98 25 20 12 25 20 12 188 152 98 188 152 98 40 30 11 181 181 181 115 94 57 159 132 77 45 36 23 45 36 23 180 144 90 180 144 90 112 89 56 216 216 216 
181 181 181 117 94 61 25 20 12 47 47 47 68 68 68 120 120 120 131 131 131 94 94 94 141 141 141 140 140 140 148 148 148 146 146 146 144 144 144 141 141 141 76 76 76 119 119 119 93 93 93 120 120 120 59 59 59 47 47 47 68 68 68 112 112 112 139 139 139 163 163 163 112 112 112 110 110 110 151 151 151 146 146 146 132 132 132 114 114 114 100 100 100 93 93 93 75 75 75 120 120 120 59 59 59 0 0 0 0 0 0 57 90 57 80 54 26 57 90 57 57 90 57 34 53 34 80 54 26 80 54 26 57 90 57 34 53 34 80 54 26 80 54 26 0 0 0 0 0 0 0 0 0 
206 206 70 206 206 70 206 206 70 56 56 0 206 206 70 206 206 70 220 220 84 210 210 74 206 206 70 99 99 0 83 83 0 99 99 0 229 229 78 56 56 0 107 107 8 107 107 8 254 254 254 0 0 0 0 0 0 0 0 0 0 0 0 0 0 0 0 0 0 0 0 0 254 254 254 0 0 0 0 0 0 0 0 0 0 0 0 0 0 0 0 0 0 0 0 0 127 127 127 116 116 116 116 116 116 116 116 116 116 116 116 116 116 116 116 116 116 199 231 254 93 236 245 93 236 245 93 236 245 116 116 116 116 116 116 116 116 116 143 143 143 127 127 127 127 127 127 116 116 116 116 116 116 116 116 116 116 116 116 116 116 116 116 116 116 170 4 4 143 3 3 143 3 3 143 3 3 116 116 116 116 116 116 116 116 116 143 143 143 127 127 127 141 141 141 78 78 78 0 0 0 89 89 89 141 141 141 0 0 0 154 154 154 0 0 0 86 86 86 0 0 0 149 149 149 0 0 0 86 86 86 172 172 172 146 146 146 0 0 0 141 141 141 78 78 78 44 44 44 89 89 89 141 141 141 44 44 44 154 154 154 44 44 44 86 86 86 44 44 44 149 149 149 44 44 44 86 86 86 172 172 172 146 146 146 44 44 44 121 121 121 121 121 121 127 127 127 115 115 115 127 127 127 127 127 127 111 111 111 93 93 93 148 148 148 136 136 136 127 127 127 127 127 127 121 121 121 121 121 121 121 121 121 121 121 121 0 0 0 148 100 40 148 100 40 148 100 40 148 100 40 148 100 40 91 52 6 148 100 40 148 100 40 91 52 6 148 100 40 148 100 40 148 100 40 148 100 40 0 0 0 0 0 0 0 0 0 0 0 0 0 0 0 126 126 126 97 97 97 126 126 126 126 126 126 181 181 181 126 126 126 126 126 126 97 97 97 97 97 97 0 0 0 0 0 0 0 0 0 0 0 0 60 51 34 101 79 49 202 182 156 190 170 142 101 79 49 71 61 41 101 79 49 202 182 156 190 170 142 101 79 49 71 61 41 101 79 49 202 182 156 190 170 142 101 79 49 60 51 34 60 51 34 79 64 41 66 55 36 66 55 36 63 53 35 51 43 27 79 64 41 66 55 36 66 55 36 63 53 35 51 43 27 79 64 41 66 55 36 66 55 36 63 53 35 60 51 34 25 20 12 159 132 77 159 132 77 181 181 181 99 82 48 181 181 181 112 89 56 43 35 21 38 32 18 159 132 77 159 132 77 115 94 57 188 152 98 159 132 77 159 132 77 25 20 12 25 20 12 159 132 77 181 181 181 216 216 216 181 181 181 117 94 61 180 144 90 43 35 21 38 32 18 159 132 77 159 132 77 115 94 57 255 255 255 
181 181 181 99 82 48 25 20 12 75 75 75 142 142 142 197 197 197 217 217 217 217 217 217 229 229 229 243 243 243 243 243 243 240 240 240 243 243 243 229 229 229 217 217 217 217 217 217 197 197 197 142 142 142 63 63 63 41 41 41 82 82 82 144 144 144 146 146 146 126 126 126 91 91 91 144 144 144 112 112 112 148 148 148 128 128 128 129 129 129 106 106 106 107 107 107 151 151 151 80 80 80 48 48 48 0 0 0 0 0 0 0 0 0 0 0 0 80 54 26 46 29 10 80 54 26 46 29 10 57 90 57 80 54 26 46 29 10 19 8 3 57 90 57 0 0 0 0 0 0 0 0 0 
206 206 70 212 212 76 206 206 70 229 229 78 206 206 70 197 197 61 25 25 0 211 211 75 236 236 100 220 220 84 235 235 84 229 229 78 206 206 70 255 255 110 85 85 0 200 200 49 0 0 0 0 0 0 0 0 0 0 0 0 0 0 0 0 0 0 0 0 0 254 254 254 0 0 0 0 0 0 0 0 0 0 0 0 0 0 0 254 254 254 0 0 0 0 0 0 127 127 127 127 127 127 143 143 143 116 116 116 119 206 251 143 143 143 143 143 143 116 116 116 104 104 104 116 116 116 143 143 143 143 143 143 143 143 143 127 127 127 127 127 127 127 127 127 127 127 127 127 127 127 143 143 143 116 116 116 151 3 3 143 143 143 143 143 143 116 116 116 104 104 104 116 116 116 143 143 143 143 143 143 143 143 143 127 127 127 127 127 127 127 127 127 95 95 95 0 0 0 0 0 0 0 0 0 0 0 0 75 75 75 88 88 88 0 0 0 169 169 169 171 171 171 0 0 0 0 0 0 88 88 88 153 153 153 0 0 0 0 0 0 95 95 95 44 44 44 44 44 44 44 44 44 44 44 44 75 75 75 88 88 88 44 44 44 169 169 169 171 171 171 44 44 44 44 44 44 88 88 88 153 153 153 44 44 44 44 44 44 136 136 136 136 136 136 121 121 121 115 115 115 121 121 121 136 136 136 118 118 118 96 96 96 151 151 151 127 127 127 127 127 127 127 127 127 127 127 127 136 136 136 121 121 121 121 121 121 0 0 0 0 0 0 0 0 0 91 52 6 91 52 6 91 52 6 0 0 0 148 100 40 148 100 40 91 52 6 91 52 6 0 0 0 91 52 6 91 52 6 148 100 40 0 0 0 0 0 0 0 0 0 0 0 0 0 0 0 0 0 0 97 97 97 97 97 97 181 181 181 97 97 97 97 97 97 126 126 126 0 0 0 0 0 0 0 0 0 0 0 0 0 0 0 60 51 34 71 61 41 71 61 41 71 61 41 71 61 41 71 61 41 71 61 41 71 61 41 71 61 41 71 61 41 71 61 41 71 61 41 71 61 41 71 61 41 71 61 41 60 51 34 60 51 34 51 43 27 51 43 27 51 43 27 51 43 27 46 39 23 51 43 27 51 43 27 51 43 27 51 43 27 46 39 23 51 43 27 51 43 27 51 43 27 51 43 27 60 51 34 25 20 12 180 144 90 180 144 90 180 144 90 188 152 98 188 152 98 159 132 77 30 21 11 38 32 18 159 132 77 180 144 90 180 144 90 153 104 58 180 144 90 180 144 90 25 20 12 25 20 12 180 144 90 112 89 56 112 89 56 181 181 181 117 94 61 159 132 77 30 21 11 38 32 18 159 132 77 180 144 90 180 144 90 216 216 216 181 181 181 112 89 56 25 20 12 75 75 75 121 121 121 203 203 203 218 218 218 
236 236 236 224 224 224 66 66 66 66 66 66 61 61 61 66 66 66 224 224 224 236 236 236 209 209 209 198 198 198 121 121 121 48 48 48 45 45 45 80 80 80 119 119 119 122 122 122 122 122 122 86 86 86 144 144 144 131 131 131 122 122 122 122 122 122 125 125 125 89 89 89 107 107 107 106 106 106 105 105 105 41 41 41 0 0 0 0 0 0 0 0 0 57 90 57 57 90 57 80 54 26 46 29 10 57 90 57 34 53 34 46 29 10 34 53 34 0 0 0 0 0 0 0 0 0 0 0 0 0 0 0 
30 30 0 215 215 64 206 206 70 206 206 70 206 206 70 206 206 70 214 214 63 215 215 79 206 206 70 204 204 68 204 204 68 18 18 0 207 207 71 206 206 70 229 229 78 204 204 68 254 254 254 0 0 0 0 0 0 0 0 0 0 0 0 0 0 0 192 245 254 0 0 0 0 0 0 0 0 0 0 0 0 0 0 0 254 254 254 0 0 0 0 0 0 179 214 219 104 104 104 127 127 127 127 127 127 127 127 127 116 116 116 127 127 127 127 127 127 127 127 127 143 143 143 143 143 143 127 127 127 199 231 254 93 236 245 143 143 143 143 143 143 104 104 104 104 104 104 127 127 127 127 127 127 127 127 127 116 116 116 127 127 127 127 127 127 127 127 127 143 143 143 143 143 143 127 127 127 255 0 0 143 3 3 143 143 143 143 143 143 104 104 104 173 173 173 0 0 0 173 173 173 180 180 180 0 0 0 0 0 0 0 0 0 0 0 0 173 173 173 153 153 153 0 0 0 171 171 171 135 135 135 0 0 0 81 81 81 169 169 169 173 173 173 44 44 44 173 173 173 180 180 180 44 44 44 44 44 44 44 44 44 44 44 44 173 173 173 153 153 153 44 44 44 171 171 171 135 135 135 44 44 44 81 81 81 169 169 169 127 127 127 127 127 127 127 127 127 136 136 136 136 136 136 127 127 127 110 110 110 95 95 95 156 156 156 136 136 136 115 115 115 115 115 115 127 127 127 127 127 127 127 127 127 121 121 121 0 0 0 0 0 0 0 0 0 0 0 0 148 100 40 0 0 0 0 0 0 0 0 0 148 100 40 91 52 6 91 52 6 0 0 0 0 0 0 0 0 0 148 100 40 0 0 0 0 0 0 0 0 0 0 0 0 126 126 126 97 97 97 126 126 126 126 126 126 181 181 181 126 126 126 126 126 126 97 97 97 97 97 97 0 0 0 0 0 0 0 0 0 0 0 0 60 51 34 101 79 49 210 193 171 210 193 171 101 79 49 71 61 41 101 79 49 210 193 171 210 193 171 101 79 49 71 61 41 101 79 49 210 193 171 210 193 171 101 79 49 60 51 34 60 51 34 86 69 43 86 69 43 86 69 43 79 64 41 51 43 27 86 69 43 86 69 43 86 69 43 79 64 41 51 43 27 86 69 43 86 69 43 86 69 43 79 64 41 60 51 34 25 20 12 105 84 51 115 94 57 115 94 57 105 84 51 105 84 51 105 84 51 17 14 8 27 22 13 115 94 57 115 94 57 115 94 57 67 54 33 105 84 51 105 84 51 25 20 12 25 20 12 105 84 51 115 94 57 115 94 57 65 52 31 65 52 31 105 84 51 17 14 8 27 22 13 115 94 57 115 94 57 115 94 57 41 33 20 181 181 181 65 52 31 25 20 12 
75 75 75 171 171 171 214 214 214 222 222 222 63 63 63 59 59 59 252 0 0 205 0 0 252 0 0 205 0 0 61 61 61 61 61 61 222 222 222 212 212 212 165 165 165 50 50 50 56 56 56 114 114 114 136 136 136 122 122 122 115 115 115 89 89 89 122 122 122 122 122 122 129 129 129 122 122 122 89 89 89 100 100 100 142 142 142 106 106 106 112 112 112 36 36 36 0 0 0 0 0 0 0 0 0 0 0 0 0 0 0 57 90 57 80 54 26 57 90 57 46 29 10 80 54 26 57 90 57 0 0 0 0 0 0 0 0 0 0 0 0 0 0 0 
99 99 0 242 242 91 201 201 65 56 56 0 28 28 0 208 208 72 206 206 70 198 198 62 56 56 0 43 43 0 215 215 79 205 205 69 214 214 78 173 173 37 99 99 0 229 229 78 0 0 0 192 245 254 0 0 0 0 0 0 0 0 0 0 0 0 0 0 0 0 0 0 0 0 0 0 0 0 0 0 0 254 254 254 0 0 0 0 0 0 0 0 0 179 214 219 127 127 127 116 116 116 116 116 116 116 116 116 116 116 116 116 116 116 116 116 116 116 116 116 199 231 254 255 255 255 199 231 254 119 206 251 119 206 251 93 236 245 116 116 116 127 127 127 127 127 127 116 116 116 116 116 116 116 116 116 116 116 116 116 116 116 116 116 116 116 116 116 170 4 4 255 0 0 170 4 4 151 3 3 151 3 3 143 3 3 116 116 116 127 127 127 138 138 138 0 0 0 178 178 178 153 153 153 0 0 0 172 172 172 179 179 179 0 0 0 0 0 0 137 137 137 0 0 0 148 148 148 144 144 144 0 0 0 78 78 78 164 164 164 138 138 138 44 44 44 178 178 178 153 153 153 44 44 44 172 172 172 179 179 179 44 44 44 44 44 44 137 137 137 44 44 44 148 148 148 144 144 144 44 44 44 78 78 78 164 164 164 121 121 121 121 121 121 121 121 121 136 136 136 136 136 136 121 121 121 105 105 105 93 93 93 148 148 148 121 121 121 127 127 127 127 127 127 121 121 121 121 121 121 121 121 121 121 121 121 0 0 0 0 0 0 0 0 0 0 0 0 148 100 40 0 0 0 0 0 0 91 52 6 148 100 40 91 52 6 0 0 0 0 0 0 0 0 0 0 0 0 0 0 0 0 0 0 0 0 0 0 0 0 0 0 0 0 0 0 126 126 126 97 97 97 97 97 97 181 181 181 97 97 97 97 97 97 126 126 126 126 126 126 0 0 0 0 0 0 0 0 0 0 0 0 60 51 34 210 193 171 228 219 206 217 203 184 190 170 142 71 61 41 210 193 171 228 219 206 217 203 184 202 182 156 71 61 41 210 193 171 228 219 206 217 203 184 202 182 156 60 51 34 60 51 34 86 69 43 73 60 39 73 60 39 66 55 36 51 43 27 86 69 43 73 60 39 73 60 39 66 55 36 51 43 27 86 69 43 73 60 39 73 60 39 66 55 36 60 51 34 25 20 12 188 152 98 188 152 98 164 115 63 188 152 98 159 132 77 188 152 98 30 21 11 38 32 18 159 132 77 159 132 77 159 132 77 153 104 58 115 94 57 188 152 98 25 20 12 25 20 12 188 152 98 188 152 98 164 115 63 188 152 98 159 132 77 188 152 98 30 21 11 38 32 18 159 132 77 159 132 77 159 132 77 153 104 58 255 255 255 117 94 61 25 20 12 
137 137 137 195 195 195 224 224 224 61 61 61 205 0 0 205 0 0 252 161 0 205 0 0 252 161 0 252 0 0 205 0 0 205 0 0 66 66 66 236 236 236 171 171 171 45 45 45 43 43 43 89 89 89 89 89 89 89 89 89 89 89 89 89 89 89 110 110 110 122 122 122 96 96 96 88 88 88 144 144 144 136 136 136 122 122 122 122 122 122 56 56 56 36 36 36 0 0 0 0 0 0 0 0 0 0 0 0 0 0 0 34 53 34 57 90 57 46 29 10 46 29 10 34 53 34 34 53 34 57 90 57 0 0 0 0 0 0 0 0 0 0 0 0 
229 229 78 229 229 78 208 208 72 104 104 5 99 99 0 229 229 78 199 199 63 61 61 5 99 99 0 99 99 0 81 81 0 210 210 74 206 206 70 206 206 70 205 205 69 206 206 70 192 245 254 0 0 0 0 0 0 0 0 0 0 0 0 0 0 0 0 0 0 0 0 0 0 0 0 0 0 0 192 245 254 0 0 0 0 0 0 0 0 0 0 0 0 179 214 219 127 127 127 143 143 143 116 116 116 199 231 254 93 236 245 127 127 127 127 127 127 116 116 116 116 116 116 93 236 245 93 236 245 116 116 116 127 127 127 127 127 127 143 143 143 143 143 143 127 127 127 143 143 143 116 116 116 255 0 0 143 3 3 127 127 127 127 127 127 116 116 116 116 116 116 143 3 3 143 3 3 116 116 116 127 127 127 127 127 127 143 143 143 143 143 143 147 147 147 0 0 0 90 90 90 146 146 146 0 0 0 165 165 165 139 139 139 0 0 0 0 0 0 81 81 81 0 0 0 148 148 148 79 79 79 174 174 174 171 171 171 0 0 0 147 147 147 44 44 44 90 90 90 146 146 146 44 44 44 165 165 165 139 139 139 44 44 44 44 44 44 81 81 81 44 44 44 148 148 148 79 79 79 174 174 174 171 171 171 44 44 44 127 127 127 127 127 127 121 121 121 121 121 121 121 121 121 115 115 115 105 105 105 97 97 97 147 147 147 136 136 136 136 136 136 127 127 127 136 136 136 121 121 121 136 136 136 115 115 115 0 0 0 0 0 0 0 0 0 0 0 0 0 0 0 0 0 0 0 0 0 148 100 40 148 100 40 91 52 6 0 0 0 0 0 0 0 0 0 0 0 0 0 0 0 0 0 0 0 0 0 0 0 0 0 0 0 126 126 126 0 0 0 0 0 0 0 0 0 126 126 126 97 97 97 0 0 0 0 0 0 0 0 0 126 126 126 0 0 0 0 0 0 0 0 0 60 51 34 210 193 171 228 219 206 210 193 171 190 170 142 71 61 41 210 193 171 217 203 184 210 193 171 190 170 142 71 61 41 210 193 171 217 203 184 210 193 171 190 170 142 60 51 34 60 51 34 86 69 43 73 60 39 73 60 39 66 55 36 51 43 27 86 69 43 73 60 39 73 60 39 66 55 36 51 43 27 86 69 43 73 60 39 73 60 39 66 55 36 60 51 34 25 20 12 159 132 77 115 94 57 164 115 63 188 152 98 188 152 98 188 152 98 38 32 18 45 36 23 180 144 90 180 144 90 159 132 77 159 132 77 159 132 77 159 132 77 25 20 12 25 20 12 159 132 77 115 94 57 164 115 63 188 152 98 188 152 98 188 152 98 38 32 18 45 36 23 180 144 90 180 144 90 159 132 77 159 132 77 99 82 48 99 82 48 25 20 12 137 137 137 222 222 222 
63 63 63 252 0 0 252 161 0 252 161 0 252 161 0 252 0 0 252 252 0 252 161 0 252 0 0 252 0 0 252 0 0 236 236 236 162 162 162 50 50 50 50 50 50 97 97 97 115 115 115 147 147 147 140 140 140 147 147 147 106 106 106 89 89 89 110 110 110 157 157 157 137 137 137 122 122 122 129 129 129 122 122 122 97 97 97 35 35 35 0 0 0 0 0 0 0 0 0 0 0 0 0 0 0 0 0 0 34 53 34 80 54 26 19 8 3 57 90 57 0 0 0 0 0 0 0 0 0 0 0 0 0 0 0 0 0 0 
206 206 70 199 199 63 187 187 51 237 237 101 229 229 78 181 181 45 221 221 85 206 206 70 99 99 0 99 99 0 229 229 78 203 203 67 99 99 0 229 229 78 206 206 70 197 197 61 254 254 254 0 0 0 0 0 0 0 0 0 0 0 0 0 0 0 0 0 0 0 0 0 0 0 0 0 0 0 0 0 0 0 0 0 0 0 0 0 0 0 0 0 0 192 245 254 127 127 127 127 127 127 127 127 127 116 116 116 116 116 116 116 116 116 116 116 116 116 116 116 127 127 127 127 127 127 143 143 143 143 143 143 127 127 127 116 116 116 116 116 116 127 127 127 127 127 127 127 127 127 127 127 127 116 116 116 116 116 116 116 116 116 116 116 116 116 116 116 127 127 127 127 127 127 143 143 143 143 143 143 127 127 127 116 116 116 116 116 116 127 127 127 102 102 102 0 0 0 0 0 0 90 90 90 92 92 92 134 134 134 0 0 0 0 0 0 0 0 0 100 100 100 80 80 80 149 149 149 0 0 0 178 178 178 146 146 146 88 88 88 102 102 102 44 44 44 44 44 44 90 90 90 92 92 92 134 134 134 44 44 44 44 44 44 44 44 44 100 100 100 80 80 80 149 149 149 44 44 44 178 178 178 146 146 146 88 88 88 105 105 105 105 105 105 105 105 105 110 110 110 106 106 106 116 116 116 120 120 120 98 98 98 138 138 138 108 108 108 119 119 119 114 114 114 110 110 110 110 110 110 105 105 105 105 105 105 0 0 0 0 0 0 0 0 0 0 0 0 0 0 0 0 0 0 0 0 0 148 100 40 148 100 40 91 52 6 0 0 0 0 0 0 0 0 0 0 0 0 0 0 0 0 0 0 0 0 0 0 0 0 0 0 0 0 0 0 0 0 0 0 0 0 0 0 0 126 126 126 97 97 97 0 0 0 0 0 0 0 0 0 0 0 0 0 0 0 0 0 0 0 0 0 60 51 34 101 79 49 202 182 156 190 170 142 101 79 49 71 61 41 101 79 49 202 182 156 202 182 156 101 79 49 71 61 41 101 79 49 202 182 156 190 170 142 101 79 49 60 51 34 60 51 34 79 64 41 66 55 36 66 55 36 63 53 35 51 43 27 79 64 41 66 55 36 66 55 36 63 53 35 51 43 27 79 64 41 66 55 36 66 55 36 63 53 35 60 51 34 25 20 12 188 152 98 159 132 77 125 88 49 159 132 77 188 152 98 188 152 98 38 32 18 45 36 23 188 152 98 159 132 77 180 144 90 188 152 98 188 152 98 188 152 98 25 20 12 25 20 12 188 152 98 159 132 77 125 88 49 159 132 77 188 152 98 188 152 98 38 32 18 45 36 23 188 152 98 159 132 77 180 144 90 188 152 98 188 152 98 188 152 98 25 20 12 139 139 139 224 224 224 
63 63 63 252 161 0 252 252 0 252 252 0 252 252 0 252 161 0 252 161 0 252 252 0 252 252 0 252 161 0 252 161 0 237 237 237 171 171 171 45 45 45 56 56 56 108 108 108 90 90 90 97 97 97 71 71 71 87 87 87 114 114 114 114 114 114 76 76 76 97 97 97 100 100 100 97 97 97 87 87 87 69 69 69 86 86 86 50 50 50 0 0 0 0 0 0 0 0 0 0 0 0 0 0 0 0 0 0 80 54 26 19 8 3 46 29 10 46 73 46 0 0 0 0 0 0 0 0 0 0 0 0 0 0 0 0 0 0 
226 226 90 191 191 55 183 183 47 206 206 70 182 182 46 205 205 69 212 212 76 206 206 70 255 255 105 234 234 83 223 223 87 209 209 73 229 229 78 206 206 70 206 206 70 207 207 71 192 245 254 179 214 219 179 214 219 179 214 219 179 214 219 179 214 219 0 0 0 0 0 0 179 214 219 179 214 219 0 0 0 179 214 219 179 214 219 179 214 219 179 214 219 192 245 254 116 116 116 116 116 116 116 116 116 116 116 116 104 104 104 143 143 143 143 143 143 127 127 127 127 127 127 127 127 127 127 127 127 116 116 116 116 116 116 116 116 116 127 127 127 127 127 127 116 116 116 116 116 116 116 116 116 116 116 116 104 104 104 143 143 143 143 143 143 127 127 127 127 127 127 127 127 127 127 127 127 116 116 116 116 116 116 116 116 116 127 127 127 127 127 127 163 163 163 0 0 0 0 0 0 0 0 0 0 0 0 154 154 154 0 0 0 83 83 83 171 171 171 175 175 175 82 82 82 0 0 0 0 0 0 143 143 143 87 87 87 175 175 175 163 163 163 44 44 44 44 44 44 44 44 44 44 44 44 154 154 154 44 44 44 83 83 83 171 171 171 175 175 175 82 82 82 44 44 44 44 44 44 143 143 143 87 87 87 175 175 175 96 96 96 96 96 96 95 95 95 95 95 95 95 95 95 95 95 95 93 93 93 93 93 93 93 93 93 94 94 94 98 98 98 96 96 96 95 95 95 93 93 93 93 93 93 93 93 93 0 0 0 0 0 0 0 0 0 0 0 0 0 0 0 0 0 0 0 0 0 91 52 6 148 100 40 91 52 6 0 0 0 0 0 0 0 0 0 0 0 0 0 0 0 0 0 0 0 0 0 0 0 0 0 0 0 0 0 0 0 0 0 0 0 0 0 0 0 126 126 126 97 97 97 0 0 0 0 0 0 0 0 0 0 0 0 0 0 0 0 0 0 0 0 0 60 51 34 60 51 34 60 51 34 60 51 34 60 51 34 60 51 34 60 51 34 60 51 34 60 51 34 60 51 34 60 51 34 60 51 34 60 51 34 60 51 34 60 51 34 60 51 34 60 51 34 60 51 34 60 51 34 60 51 34 60 51 34 60 51 34 60 51 34 60 51 34 60 51 34 60 51 34 60 51 34 60 51 34 60 51 34 60 51 34 60 51 34 60 51 34 27 22 13 115 94 57 115 94 57 124 98 62 105 84 51 105 84 51 124 98 62 25 20 12 27 22 13 115 94 57 115 94 57 105 84 51 76 61 38 105 84 51 105 84 51 27 22 13 27 22 13 115 94 57 115 94 57 124 98 62 105 84 51 105 84 51 124 98 62 25 20 12 27 22 13 115 94 57 115 94 57 105 84 51 76 61 38 105 84 51 105 84 51 27 22 13 130 130 130 217 217 217 50 50 50 252 0 0 252 161 0 
252 0 0 252 161 0 252 252 0 252 0 0 252 161 0 252 252 0 252 161 0 252 0 0 233 233 233 152 152 152 50 50 50 56 56 56 53 53 53 53 53 53 51 51 51 48 48 48 47 47 47 45 45 45 45 45 45 36 36 36 59 59 59 56 56 56 53 53 53 45 45 45 39 39 39 54 54 54 50 50 50 0 0 0 0 0 0 0 0 0 0 0 0 0 0 0 0 0 0 0 0 0 19 8 3 19 8 3 0 0 0 0 0 0 0 0 0 0 0 0 0 0 0 0 0 0 0 0 0 
203 203 203 211 211 211 198 198 198 202 202 202 221 221 221 235 235 235 205 205 205 208 208 208 229 229 229 232 232 232 189 189 189 200 200 200 224 224 224 224 224 224 200 200 200 193 193 193 24 31 36 27 42 53 26 33 38 27 42 53 20 35 46 31 38 43 33 48 59 14 29 40 25 40 51 27 42 53 26 33 38 27 42 53 30 45 56 40 47 52 27 42 53 26 33 38 255 255 255 255 255 255 255 255 255 238 255 255 255 255 255 255 255 255 238 255 255 255 255 255 255 255 255 255 255 255 238 255 255 238 255 255 227 243 243 227 243 243 255 255 255 255 255 255 119 169 255 119 169 255 119 169 255 119 169 255 119 169 255 119 169 255 119 169 255 119 169 255 119 169 255 119 169 255 119 169 255 119 169 255 119 169 255 119 169 255 119 169 255 119 169 255 255 255 255 255 255 255 255 255 255 238 255 255 255 255 255 255 255 255 238 255 255 255 255 255 255 255 255 255 255 255 238 255 255 238 255 255 227 243 243 227 243 243 255 255 255 255 255 255 0 0 0 0 0 0 0 0 0 0 0 0 0 0 0 0 0 0 0 0 0 0 0 0 0 0 0 0 0 0 0 0 0 0 0 0 0 0 0 0 0 0 0 0 0 0 0 0 0 0 0 9 66 16 17 128 30 17 128 30 20 141 36 16 130 30 18 140 33 13 97 24 9 66 16 17 127 32 17 127 32 18 134 32 18 134 32 17 128 30 13 97 24 0 0 0 0 0 0 0 0 0 0 0 0 0 0 0 0 0 0 0 0 0 0 0 0 0 0 0 0 0 0 0 0 0 0 0 0 0 0 0 0 0 0 0 0 0 0 0 0 0 0 0 130 136 147 160 167 177 160 166 177 159 166 176 157 163 173 159 165 176 155 162 172 158 164 175 162 169 180 160 167 177 158 163 175 157 163 174 154 160 171 155 162 172 151 158 169 158 164 175 0 0 0 229 239 218 150 193 102 0 0 0 0 0 0 170 219 116 130 168 89 0 0 0 0 0 0 170 219 116 130 168 89 0 0 0 0 0 0 170 219 116 130 168 89 0 0 0 41 36 34 49 44 40 49 44 40 49 44 40 49 44 40 53 47 43 53 47 43 52 46 42 49 44 40 53 47 43 53 47 43 53 47 43 53 47 43 53 47 43 53 47 43 39 34 32 41 36 34 49 44 40 49 44 40 49 44 40 49 44 40 53 47 43 53 47 43 52 46 42 49 44 40 53 47 43 53 47 43 53 47 43 53 47 43 53 47 43 53 47 43 39 34 32 0 0 0 0 0 0 0 0 0 0 0 0 0 0 0 0 0 0 0 0 0 0 0 0 0 0 0 0 0 0 0 0 0 0 0 0 0 0 0 0 0 0 0 0 0 0 0 0 109 99 100 140 115 119 140 115 119 104 96 107 105 94 96 154 123 129 
140 115 119 109 102 115 104 96 107 105 94 96 115 99 103 99 93 94 128 107 111 109 99 100 131 112 117 154 123 129 109 99 100 140 115 119 140 115 119 104 96 107 105 94 96 154 123 129 140 115 119 109 102 115 104 96 107 105 94 96 115 99 103 99 93 94 128 107 111 109 99 100 131 112 117 154 123 129 0 0 0 0 0 0 0 0 0 0 0 0 0 0 0 0 0 0 0 0 0 0 0 0 0 0 0 0 0 0 0 0 0 0 0 0 0 0 0 0 0 0 0 0 0 0 0 0 
222 222 222 228 228 228 251 251 251 255 255 255 238 238 238 232 232 232 216 216 216 215 215 215 202 202 202 193 193 193 208 208 208 215 215 215 179 179 179 195 195 195 211 211 211 218 218 218 27 42 53 0 0 0 27 42 53 0 0 0 0 0 0 27 42 53 0 0 0 0 0 0 0 0 0 0 0 0 27 42 53 0 0 0 0 0 0 27 42 53 0 0 0 23 38 49 255 255 255 255 255 255 255 255 255 238 255 255 238 255 255 238 255 255 238 255 255 227 243 243 227 243 243 255 255 255 238 255 255 238 255 255 227 243 243 255 255 255 255 255 255 227 243 243 119 169 255 119 169 255 119 169 255 119 169 255 119 169 255 119 169 255 119 169 255 142 191 255 119 169 255 119 169 255 119 169 255 119 169 255 119 169 255 119 169 255 119 169 255 119 169 255 255 255 255 255 255 255 255 255 255 238 255 255 238 255 255 89 61 41 238 255 255 227 243 243 227 243 243 255 255 255 238 255 255 238 255 255 227 243 243 255 255 255 255 255 255 227 243 243 0 0 0 13 97 24 13 97 24 0 0 0 4 40 8 13 97 24 4 40 8 0 0 0 13 97 24 13 97 24 13 97 24 0 0 0 4 40 8 13 97 24 13 97 24 0 0 0 0 0 0 9 66 16 16 126 29 16 130 30 15 114 26 20 141 36 11 85 20 0 0 0 9 66 16 16 116 29 17 127 32 20 141 36 18 134 32 17 128 30 13 97 24 0 0 0 0 0 0 13 97 24 13 97 24 13 97 24 13 97 24 13 97 24 13 97 24 13 97 24 13 97 24 13 97 24 13 97 24 13 97 24 13 97 24 13 97 24 13 97 24 0 0 0 160 167 178 158 164 175 161 166 182 165 168 185 146 151 167 155 162 172 154 161 171 155 162 172 147 153 164 164 168 184 175 185 206 160 166 177 155 162 172 158 164 175 157 163 174 165 172 182 0 0 0 130 168 89 105 135 71 0 0 0 0 0 0 170 219 116 130 168 89 0 0 0 0 0 0 170 219 116 130 168 89 0 0 0 0 0 0 229 239 218 150 193 102 0 0 0 53 47 43 121 85 67 131 87 66 132 82 60 131 87 66 131 87 66 116 80 57 116 80 57 116 80 57 116 80 57 116 80 57 131 87 66 116 80 57 131 87 66 121 85 67 49 44 40 53 47 43 121 85 67 131 87 66 132 82 60 131 87 66 131 87 66 116 80 57 116 80 57 116 80 57 116 80 57 116 80 57 131 87 66 116 80 57 131 87 66 121 85 67 49 44 40 0 0 0 0 0 0 0 0 0 0 0 0 86 86 86 86 86 86 0 0 0 0 0 0 0 0 0 0 0 0 0 0 0 86 86 86 86 86 86 0 0 0 0 0 0 0 0 0 
132 113 118 111 104 118 96 89 95 104 96 107 103 93 95 131 112 116 135 135 135 96 89 95 89 86 86 154 123 129 105 96 99 128 107 111 128 107 111 105 96 99 43 29 19 43 29 19 132 113 118 111 104 118 96 89 95 104 96 107 103 93 95 131 112 116 135 135 135 96 89 95 89 86 86 154 123 129 105 96 99 128 107 111 128 107 111 105 96 99 115 99 103 115 99 103 0 0 0 0 0 0 0 0 0 0 0 0 0 0 0 100 141 56 0 0 0 0 0 0 0 0 0 0 0 0 0 0 0 0 0 0 0 0 0 0 0 0 0 0 0 0 0 0 
238 238 238 241 241 241 215 215 215 219 219 219 247 247 247 241 241 241 225 225 225 215 215 215 232 232 232 241 241 241 231 231 231 231 231 231 248 248 248 253 253 253 232 232 232 228 228 228 20 27 32 27 42 53 26 33 38 27 42 53 25 40 51 38 45 50 25 40 51 27 42 53 22 37 48 27 42 53 19 26 31 26 41 52 27 42 53 24 31 36 13 28 39 26 33 38 238 255 255 255 255 255 238 255 255 227 243 243 227 243 243 238 255 255 238 255 255 227 243 243 255 255 255 238 255 255 238 255 255 227 243 243 255 255 255 255 255 255 238 255 255 238 255 255 119 169 255 119 169 255 119 169 255 255 255 255 119 169 255 119 169 255 142 191 255 119 169 255 119 169 255 119 169 255 119 169 255 119 169 255 119 169 255 119 169 255 119 169 255 119 169 255 238 255 255 89 61 41 238 255 255 227 243 243 227 243 243 89 61 41 238 255 255 89 61 41 255 255 255 238 255 255 238 255 255 227 243 243 89 61 41 255 255 255 238 255 255 89 61 41 0 0 0 13 97 24 18 133 34 11 85 20 17 131 31 16 124 29 16 126 29 11 85 20 20 141 36 17 131 31 17 136 32 14 105 26 18 133 34 17 131 31 13 97 24 0 0 0 0 0 0 0 0 0 15 107 27 16 126 29 15 117 27 20 141 36 13 99 24 8 57 16 9 66 16 16 116 29 17 127 32 18 134 32 18 134 32 13 89 22 0 0 0 0 0 0 0 0 0 13 97 24 219 220 157 218 219 157 219 220 157 219 220 157 219 220 157 219 220 157 218 219 157 219 220 157 219 220 157 220 221 159 221 222 160 219 220 157 13 97 24 0 0 0 162 166 182 168 172 187 173 177 193 157 163 174 158 163 174 157 163 174 159 166 176 159 166 176 160 166 177 162 169 180 164 168 184 165 169 185 150 157 167 154 160 170 155 162 172 172 176 193 0 0 0 170 219 116 130 168 89 145 239 50 0 0 0 170 219 116 130 168 89 0 0 0 0 0 0 170 219 116 130 168 89 117 193 40 0 0 0 130 168 89 105 135 71 0 0 0 53 47 43 136 92 70 80 51 33 130 87 57 80 51 33 130 87 57 91 56 40 148 95 68 95 60 44 155 102 75 95 60 44 148 95 68 91 53 36 155 102 75 136 92 70 49 44 40 53 47 43 136 92 70 130 87 57 130 87 57 130 87 57 130 87 57 148 95 68 116 80 57 116 80 57 155 102 75 155 102 75 148 95 68 149 90 62 155 102 75 136 92 70 49 44 40 0 0 0 0 0 0 0 0 0 86 86 86 
150 150 150 150 150 150 86 86 86 0 0 0 0 0 0 0 0 0 86 86 86 150 150 150 150 150 150 86 86 86 0 0 0 0 0 0 117 112 132 104 96 107 105 94 96 86 84 85 109 99 100 99 93 94 104 96 107 105 94 96 154 123 129 128 107 111 128 107 111 58 41 28 115 99 103 115 99 103 89 64 44 104 96 107 117 112 132 104 96 107 105 94 96 86 84 85 109 99 100 99 93 94 104 96 107 105 94 96 154 123 129 128 107 111 128 107 111 128 107 111 115 99 103 115 99 103 154 123 129 104 96 107 0 0 0 0 0 0 0 0 0 0 0 0 81 116 45 81 116 45 100 141 56 0 0 0 0 0 0 0 0 0 0 0 0 100 141 56 100 141 56 0 0 0 0 0 0 0 0 0 
222 222 222 211 211 211 234 234 234 241 241 241 215 215 215 212 212 212 221 221 221 241 241 241 205 205 205 216 216 216 241 241 241 241 241 241 222 222 222 211 211 211 255 255 255 240 240 240 27 42 53 0 0 0 27 42 53 0 0 0 0 0 0 32 47 58 0 0 0 0 0 0 0 0 0 0 0 0 32 47 58 0 0 0 0 0 0 27 42 53 0 0 0 31 46 57 255 255 255 227 243 243 227 243 243 227 243 243 255 255 255 255 255 255 227 243 243 255 255 255 255 255 255 238 255 255 238 255 255 227 243 243 255 255 255 255 255 255 238 255 255 227 243 243 119 169 255 119 169 255 255 255 255 119 169 255 119 169 255 119 169 255 119 169 255 119 169 255 119 169 255 119 169 255 119 169 255 119 169 255 119 169 255 119 169 255 142 191 255 119 169 255 89 61 41 108 108 108 89 61 41 89 61 41 255 255 255 89 61 41 89 61 41 89 61 41 255 255 255 89 61 41 238 255 255 89 61 41 121 85 58 89 61 41 89 61 41 121 85 58 0 0 0 0 0 0 11 85 20 20 148 36 17 131 31 18 133 34 14 105 26 0 0 0 14 105 26 17 131 31 14 105 26 0 0 0 14 105 26 17 131 31 13 97 24 0 0 0 0 0 0 4 40 8 14 102 25 16 126 29 15 117 27 18 134 32 16 116 29 13 97 24 0 0 0 11 84 21 17 127 32 20 141 36 20 141 36 15 118 27 13 97 24 0 0 0 0 0 0 13 97 24 220 221 159 210 214 158 211 215 159 210 215 159 209 213 157 210 215 159 210 215 159 210 215 159 210 215 159 210 215 159 212 216 160 220 220 158 13 97 24 0 0 0 152 159 170 157 162 174 158 163 175 160 167 177 154 160 172 161 167 178 155 161 172 154 160 171 155 162 172 157 163 173 158 164 175 162 169 180 159 165 176 158 164 175 159 165 176 146 152 163 0 0 0 170 219 116 130 168 89 117 193 40 0 0 0 170 219 116 130 168 89 145 239 50 0 0 0 170 219 116 130 168 89 0 0 0 0 0 0 170 219 116 130 168 89 0 0 0 51 45 42 128 82 62 70 41 30 149 90 62 71 42 29 149 90 62 71 42 29 149 90 62 71 42 29 149 90 62 70 41 30 145 88 64 70 41 30 145 88 64 132 82 60 52 44 41 51 45 42 128 82 62 145 88 64 149 90 62 149 90 62 149 90 62 116 80 57 24 21 20 24 21 20 116 80 57 145 88 64 145 88 64 145 88 64 145 88 64 132 82 60 52 44 41 0 0 0 0 0 0 0 0 0 86 86 86 127 127 127 127 127 127 127 127 127 86 86 86 0 0 0 86 86 86 
150 150 150 127 127 127 150 150 150 86 86 86 0 0 0 0 0 0 111 104 118 113 99 113 119 103 106 99 93 94 105 96 99 95 90 91 106 99 111 117 112 132 92 87 88 72 52 35 58 41 28 105 96 99 125 106 110 110 103 116 111 104 118 104 96 107 111 104 118 113 99 113 119 103 106 99 93 94 105 96 99 95 90 91 106 99 111 117 112 132 92 87 88 140 115 119 99 93 94 105 96 99 125 106 110 110 103 116 111 104 118 104 96 107 0 0 0 0 0 0 0 0 0 0 0 0 207 227 186 81 116 45 0 0 0 81 116 45 100 141 56 100 141 56 0 0 0 81 116 45 100 141 56 0 0 0 0 0 0 0 0 0 
228 228 228 218 218 218 205 205 205 222 222 222 235 235 235 234 234 234 189 189 189 183 183 183 209 209 209 224 224 224 208 208 208 196 196 196 235 235 235 235 235 235 200 200 200 189 189 189 27 42 53 0 0 0 27 42 53 0 0 0 0 0 0 27 42 53 0 0 0 0 0 0 0 0 0 0 0 0 27 42 53 0 0 0 0 0 0 27 42 53 0 0 0 17 32 43 255 255 255 255 255 255 238 255 255 238 255 255 238 255 255 255 255 255 227 243 243 255 255 255 238 255 255 238 255 255 227 243 243 255 255 255 255 255 255 238 255 255 238 255 255 227 243 243 119 169 255 255 255 255 119 169 255 119 169 255 119 169 255 119 169 255 119 169 255 119 169 255 119 169 255 255 255 255 119 169 255 119 169 255 119 169 255 142 191 255 119 169 255 119 169 255 150 108 74 121 85 58 150 108 74 185 133 92 89 61 41 150 108 74 121 85 58 121 85 58 89 61 41 89 61 41 89 61 41 108 108 108 121 85 58 150 108 74 89 61 41 121 85 58 0 0 0 4 40 8 18 133 34 17 131 31 14 105 26 19 139 33 19 139 33 14 105 26 17 136 32 17 131 31 17 136 32 14 105 26 17 136 32 17 131 31 13 97 24 0 0 0 0 0 0 9 66 16 15 117 27 17 128 30 17 127 32 18 134 32 17 128 30 13 97 24 4 40 8 14 102 25 17 128 30 20 141 36 20 141 36 16 116 29 13 97 24 0 0 0 0 0 0 13 97 24 219 220 157 212 216 160 220 221 159 222 222 160 222 222 160 222 222 160 220 221 159 222 222 160 220 221 159 221 222 160 210 215 159 219 220 157 13 97 24 0 0 0 163 170 181 157 163 173 165 169 185 157 163 173 165 169 185 165 169 185 164 167 184 165 169 185 165 168 184 153 159 170 155 162 172 164 168 184 157 161 177 148 154 165 161 167 178 151 157 168 0 0 0 170 219 116 130 168 89 0 0 0 0 0 0 229 239 218 150 193 102 117 193 40 0 0 0 170 219 116 130 168 89 0 0 0 0 0 0 170 219 116 130 168 89 0 0 0 53 47 43 116 80 57 130 87 57 80 51 33 130 87 57 95 60 44 155 102 75 80 51 33 155 102 75 80 51 33 130 87 57 91 53 36 148 95 68 91 56 40 131 87 66 53 47 43 53 47 43 116 80 57 130 87 57 130 87 57 130 87 57 155 102 75 116 80 57 24 21 20 24 21 20 116 80 57 130 87 57 149 90 62 148 95 68 148 95 68 131 87 66 53 47 43 0 0 0 0 0 0 86 86 86 150 150 150 127 127 127 127 127 127 150 150 150 
86 86 86 0 0 0 86 86 86 127 127 127 127 127 127 127 127 127 127 127 127 86 86 86 0 0 0 140 115 119 104 96 107 72 52 35 89 64 44 95 90 91 72 52 35 58 41 28 104 96 107 111 98 100 43 29 19 104 96 107 109 97 109 106 96 107 107 99 111 43 29 19 58 41 28 140 115 119 104 96 107 111 98 100 109 99 100 95 90 91 105 96 99 128 107 111 104 96 107 111 98 100 115 99 103 104 96 107 109 97 109 106 96 107 107 99 111 97 89 90 107 96 99 0 0 0 0 0 0 0 0 0 81 116 45 207 227 186 207 227 186 162 201 120 81 116 45 81 116 45 0 0 0 81 116 45 81 116 45 207 227 186 100 141 56 0 0 0 0 0 0 
195 195 195 187 187 187 206 206 206 241 241 241 205 205 205 183 183 183 203 203 203 211 211 211 205 205 205 183 183 183 211 211 211 215 215 215 192 192 192 208 208 208 202 202 202 213 213 213 26 33 38 27 42 53 26 33 38 30 45 56 27 42 53 33 40 45 27 42 53 27 42 53 27 42 53 31 46 57 26 33 38 33 48 59 27 42 53 26 33 38 27 42 53 26 33 38 238 255 255 238 255 255 238 255 255 238 255 255 227 243 243 255 255 255 255 255 255 255 255 255 227 243 243 238 255 255 227 243 243 227 243 243 238 255 255 238 255 255 238 255 255 227 243 243 119 169 255 119 169 255 119 169 255 119 169 255 119 169 255 119 169 255 119 169 255 119 169 255 255 255 255 119 169 255 119 169 255 119 169 255 142 191 255 119 169 255 119 169 255 119 169 255 121 85 58 89 61 41 150 108 74 150 108 74 121 85 58 150 108 74 89 61 41 89 61 41 89 61 41 121 85 58 121 85 58 89 61 41 121 85 58 121 85 58 121 85 58 185 133 92 0 0 0 13 97 24 17 131 31 14 105 26 0 0 0 14 105 26 16 126 29 17 131 31 16 124 29 17 128 30 17 136 32 18 133 34 17 136 32 11 85 20 0 0 0 0 0 0 0 0 0 9 66 16 15 107 27 17 128 30 17 127 32 17 127 32 17 127 32 13 97 24 9 66 16 16 116 29 17 128 30 18 138 32 18 134 32 15 117 27 13 97 24 0 0 0 0 0 0 13 97 24 219 220 158 210 214 158 222 222 160 219 220 157 220 221 159 219 220 157 220 221 159 219 220 157 220 221 159 222 222 160 210 215 159 219 220 157 13 97 24 0 0 0 153 159 170 161 167 177 154 160 171 175 185 214 155 162 172 165 172 183 160 167 178 160 164 181 157 163 174 169 175 187 160 166 177 149 155 166 154 160 171 155 161 172 159 165 176 148 154 165 0 0 0 170 219 116 130 168 89 0 0 0 0 0 0 130 168 89 105 135 71 0 0 0 0 0 0 229 239 218 150 193 102 0 0 0 0 0 0 170 219 116 130 168 89 0 0 0 49 44 40 116 80 57 149 90 62 71 45 32 148 95 68 71 45 32 155 102 75 63 41 27 148 95 68 71 45 32 148 95 68 71 45 32 130 87 57 63 41 27 116 80 57 49 44 40 49 44 40 116 80 57 149 90 62 148 95 68 148 95 68 148 95 68 116 80 57 24 21 20 24 21 20 116 80 57 148 95 68 148 95 68 130 87 57 130 87 57 116 80 57 49 44 40 0 0 0 0 0 0 86 86 86 150 150 150 104 104 104 104 104 104 
127 127 127 150 150 150 86 86 86 127 127 127 104 104 104 127 127 127 127 127 127 127 127 127 86 86 86 0 0 0 58 41 28 115 99 103 111 104 118 72 52 35 99 93 94 72 52 35 43 29 19 96 89 95 96 89 95 104 96 107 106 98 109 43 29 19 58 41 28 58 41 28 58 41 28 89 64 44 99 93 94 115 99 103 111 104 118 111 98 100 99 93 94 140 115 119 96 89 95 96 89 95 96 89 95 104 96 107 106 98 109 100 92 93 89 86 86 89 86 86 130 111 116 109 99 100 0 0 0 0 0 0 0 0 0 207 227 186 162 201 120 56 80 31 56 80 31 207 227 186 81 116 45 0 0 0 81 116 45 81 116 45 162 201 120 81 116 45 0 0 0 0 0 0 
253 253 253 254 254 254 237 237 237 234 234 234 221 221 221 221 221 221 218 218 218 224 224 224 238 238 238 254 254 254 229 229 229 216 216 216 255 255 255 255 255 255 232 232 232 225 225 225 27 42 53 0 0 0 16 31 42 0 0 0 0 0 0 25 40 51 0 0 0 0 0 0 0 0 0 0 0 0 27 42 53 0 0 0 0 0 0 12 27 38 0 0 0 27 42 53 255 255 255 227 243 243 227 243 243 227 243 243 255 255 255 238 255 255 227 243 243 255 255 255 227 243 243 227 243 243 227 243 243 255 255 255 238 255 255 238 255 255 227 243 243 227 243 243 119 169 255 119 169 255 119 169 255 119 169 255 119 169 255 119 169 255 119 169 255 142 191 255 119 169 255 119 169 255 119 169 255 119 169 255 119 169 255 119 169 255 119 169 255 119 169 255 185 133 92 89 61 41 121 85 58 121 85 58 135 135 135 121 85 58 121 85 58 185 133 92 185 133 92 121 85 58 185 133 92 185 133 92 121 85 58 150 108 74 121 85 58 150 108 74 0 0 0 4 40 8 15 118 27 19 144 34 17 131 31 17 136 32 18 133 34 17 131 31 14 105 26 0 0 0 16 126 29 17 131 31 17 131 31 17 131 31 13 97 24 0 0 0 0 0 0 0 0 0 16 116 29 15 120 28 17 128 30 16 126 29 17 127 32 13 97 24 9 66 16 16 116 29 18 134 32 16 124 29 18 134 32 11 84 21 0 0 0 0 0 0 0 0 0 13 97 24 219 220 157 210 214 158 222 222 160 219 220 157 210 215 159 212 216 160 210 215 159 210 215 159 219 220 157 220 221 159 210 214 158 219 220 157 13 97 24 0 0 0 145 152 162 161 165 182 152 156 172 159 166 176 146 152 164 162 168 179 158 163 175 155 162 172 157 163 174 157 163 174 165 169 185 175 181 198 160 166 177 164 168 184 160 167 177 158 162 178 0 0 0 170 219 116 130 168 89 0 0 0 0 0 0 170 219 116 130 168 89 0 0 0 0 0 0 130 168 89 105 135 71 0 0 0 0 0 0 170 219 116 130 168 89 145 239 50 53 47 43 136 92 70 95 60 44 148 95 68 95 60 44 155 102 75 95 60 44 130 87 57 80 51 33 130 87 57 91 53 36 155 102 75 95 60 44 155 102 75 136 92 70 53 47 43 53 47 43 136 92 70 155 102 75 148 95 68 155 102 75 155 102 75 116 80 57 24 21 20 24 21 20 116 80 57 149 90 62 155 102 75 155 102 75 155 102 75 136 92 70 53 47 43 0 0 0 0 0 0 86 86 86 150 150 150 127 127 127 127 127 127 127 127 127 
150 150 150 104 104 104 127 127 127 127 127 127 104 104 104 127 127 127 150 150 150 86 86 86 0 0 0 89 64 44 43 29 19 104 96 107 104 96 107 111 99 112 104 96 107 104 96 107 89 64 44 89 64 44 58 41 28 108 100 113 89 64 44 121 85 58 72 52 35 58 41 28 150 108 74 109 99 100 95 90 91 104 96 107 104 96 107 111 99 112 104 96 107 104 96 107 119 103 106 119 103 106 105 94 96 108 100 113 95 89 90 99 93 94 105 96 99 99 93 94 105 96 99 0 0 0 0 0 0 81 116 45 100 141 56 0 0 0 81 116 45 207 227 186 207 227 186 207 227 186 56 80 31 207 227 186 162 201 120 0 0 0 0 0 0 0 0 0 0 0 0 
211 211 211 211 211 211 253 253 253 255 255 255 232 232 232 229 229 229 241 241 241 240 240 240 202 202 202 208 208 208 234 234 234 241 241 241 229 229 229 228 228 228 242 242 242 240 240 240 27 42 53 0 0 0 27 42 53 0 0 0 0 0 0 27 42 53 0 0 0 0 0 0 0 0 0 0 0 0 27 42 53 0 0 0 0 0 0 31 46 57 0 0 0 22 37 48 255 255 255 255 255 255 238 255 255 238 255 255 238 255 255 238 255 255 238 255 255 227 243 243 255 255 255 255 255 255 227 243 243 227 243 243 255 255 255 238 255 255 238 255 255 227 243 243 119 169 255 119 169 255 142 191 255 119 169 255 119 169 255 119 169 255 142 191 255 119 169 255 119 169 255 119 169 255 119 169 255 119 169 255 119 169 255 119 169 255 119 169 255 119 169 255 185 133 92 121 85 58 185 133 92 185 133 92 150 108 74 150 108 74 121 85 58 121 85 58 150 108 74 89 61 41 150 108 74 150 108 74 121 85 58 121 85 58 150 108 74 150 108 74 0 0 0 0 0 0 11 85 20 17 128 30 14 105 26 19 146 35 17 136 32 17 131 31 17 136 32 14 105 26 17 131 31 18 133 34 14 105 26 17 131 31 4 40 8 0 0 0 0 0 0 9 66 16 20 141 36 16 116 29 17 128 30 16 116 29 20 141 36 13 97 24 0 0 0 12 83 21 18 134 32 15 120 28 18 134 32 13 100 22 8 57 16 0 0 0 0 0 0 13 97 24 219 220 157 210 215 159 221 222 160 220 221 159 210 214 158 221 222 160 222 222 160 210 215 159 219 220 157 220 221 159 210 215 159 219 220 157 13 97 24 0 0 0 159 165 176 157 163 174 164 168 184 158 164 175 159 166 176 155 161 172 164 170 181 174 180 191 160 167 177 154 158 174 157 163 174 155 162 172 161 167 178 161 166 182 155 162 172 164 168 184 0 0 0 170 219 116 130 168 89 0 0 0 0 0 0 170 219 116 130 168 89 0 0 0 0 0 0 170 219 116 130 168 89 0 0 0 0 0 0 170 219 116 130 168 89 117 193 40 52 44 41 132 82 60 70 41 30 145 88 64 70 41 30 145 88 64 70 41 30 149 90 62 71 42 29 149 90 62 70 41 30 145 88 64 70 41 30 145 88 64 132 82 60 52 44 41 52 44 41 132 82 60 145 88 64 145 88 64 145 88 64 145 88 64 116 80 57 24 21 20 24 21 20 116 80 57 145 88 64 145 88 64 145 88 64 145 88 64 132 82 60 52 44 41 0 0 0 0 0 0 86 86 86 150 150 150 127 127 127 127 127 127 127 127 127 150 150 150 
104 104 104 150 150 150 127 127 127 127 127 127 127 127 127 150 150 150 86 86 86 0 0 0 89 64 44 58 41 28 89 64 44 99 99 103 106 98 109 72 52 35 105 94 96 58 41 28 72 52 35 89 61 41 106 98 110 72 52 35 121 85 58 58 41 28 72 52 35 150 108 74 109 99 100 99 93 94 95 89 90 99 99 103 106 98 109 111 98 100 105 94 96 128 107 111 105 96 99 95 90 91 106 98 110 106 96 99 99 93 94 99 93 94 105 96 99 105 96 99 0 0 0 0 0 0 81 116 45 81 116 45 100 141 56 0 0 0 0 0 0 100 141 56 100 141 56 207 227 186 56 80 31 0 0 0 81 116 45 100 141 56 0 0 0 0 0 0 
232 232 232 231 231 231 195 195 195 209 209 209 240 240 240 229 229 229 205 205 205 212 212 212 209 209 209 215 215 215 208 208 208 192 192 192 221 221 221 216 216 216 198 198 198 196 196 196 32 47 58 0 0 0 27 42 53 0 0 0 0 0 0 27 42 53 0 0 0 0 0 0 0 0 0 0 0 0 27 42 53 0 0 0 0 0 0 27 42 53 0 0 0 27 42 53 255 255 255 238 255 255 238 255 255 238 255 255 227 243 243 227 243 243 227 243 243 227 243 243 251 255 255 251 255 255 251 255 255 227 243 243 255 255 255 255 255 255 238 255 255 227 243 243 119 169 255 142 191 255 119 169 255 119 169 255 119 169 255 119 169 255 119 169 255 119 169 255 119 169 255 119 169 255 119 169 255 119 169 255 119 169 255 119 169 255 119 169 255 119 169 255 150 108 74 121 85 58 121 85 58 150 108 74 121 85 58 150 108 74 121 85 58 89 61 41 121 85 58 150 108 74 150 108 74 121 85 58 121 85 58 121 85 58 89 61 41 121 85 58 0 0 0 13 97 24 17 136 32 14 105 26 0 0 0 14 105 26 16 126 29 14 105 26 17 128 30 17 131 31 17 131 31 14 105 26 0 0 0 14 105 26 0 0 0 0 0 0 0 0 0 9 66 16 20 141 36 15 117 27 17 131 31 15 117 27 17 128 30 13 97 24 4 40 8 14 102 25 19 139 33 16 116 29 17 128 30 15 117 27 13 97 24 0 0 0 0 0 0 13 97 24 219 220 157 214 218 162 222 222 160 219 220 157 210 215 159 221 222 160 222 222 160 211 215 159 219 220 157 222 222 160 210 214 158 220 221 159 13 97 24 0 0 0 161 167 178 161 165 182 167 171 187 165 168 184 161 165 182 155 162 172 165 169 185 161 165 182 170 174 190 175 184 200 147 153 164 160 166 177 157 162 174 159 163 179 155 162 172 159 166 176 145 239 50 229 239 218 150 193 102 0 0 0 0 0 0 170 219 116 130 168 89 0 0 0 0 0 0 170 219 116 130 168 89 0 0 0 0 0 0 170 219 116 130 168 89 0 0 0 53 47 43 136 92 70 155 102 75 95 60 44 155 102 75 91 53 36 130 87 57 95 60 44 155 102 75 91 56 40 148 95 68 91 56 40 155 102 75 95 60 44 136 92 70 49 44 40 53 47 43 136 92 70 155 102 75 155 102 75 155 102 75 149 90 62 116 80 57 24 21 20 24 21 20 116 80 57 148 95 68 148 95 68 155 102 75 155 102 75 136 92 70 49 44 40 0 0 0 0 0 0 86 86 86 150 150 150 104 104 104 127 127 127 127 127 127 
127 127 127 127 127 127 150 150 150 127 127 127 127 127 127 127 127 127 150 150 150 86 86 86 0 0 0 150 108 74 58 41 28 121 85 58 150 108 74 104 95 106 150 108 74 58 41 28 89 61 41 58 41 28 111 104 118 72 52 35 121 85 58 121 85 58 121 85 58 43 29 19 121 85 58 105 96 99 99 93 94 99 93 94 130 111 116 104 95 106 111 98 100 131 111 115 115 99 103 128 107 111 111 104 118 111 98 100 126 107 111 99 93 94 99 93 94 115 99 103 99 93 94 0 0 0 0 0 0 0 0 0 81 116 45 0 0 0 56 80 31 81 116 45 81 116 45 81 116 45 207 227 186 56 80 31 207 227 186 0 0 0 81 116 45 0 0 0 0 0 0 
209 209 209 216 216 216 213 213 213 238 238 238 184 184 184 189 189 189 216 216 216 227 227 227 205 205 205 228 228 228 255 255 255 255 255 255 219 219 219 231 231 231 255 255 255 251 251 251 27 42 53 0 0 0 27 42 53 0 0 0 0 0 0 32 47 58 0 0 0 0 0 0 0 0 0 0 0 0 23 38 49 0 0 0 0 0 0 23 38 49 0 0 0 27 42 53 238 255 255 238 255 255 238 255 255 255 255 255 255 255 255 255 255 255 255 255 255 238 255 255 238 255 255 238 255 255 238 255 255 227 243 243 255 255 255 227 243 243 227 243 243 227 243 243 119 169 255 119 169 255 119 169 255 119 169 255 119 169 255 119 169 255 119 169 255 119 169 255 255 255 255 119 169 255 119 169 255 119 169 255 119 169 255 119 169 255 119 169 255 119 169 255 150 108 74 150 108 74 89 61 41 121 85 58 121 85 58 89 61 41 89 61 41 121 85 58 121 85 58 121 85 58 121 85 58 121 85 58 185 133 92 185 133 92 121 85 58 150 108 74 0 0 0 13 97 24 17 136 32 17 131 31 14 105 26 18 133 34 14 105 26 0 0 0 14 105 26 17 131 31 17 128 30 18 133 34 14 105 26 17 131 31 13 97 24 0 0 0 0 0 0 9 66 16 20 141 36 16 119 30 17 127 32 18 140 33 12 86 21 0 0 0 9 66 16 15 114 26 18 140 33 15 118 27 18 140 33 15 117 27 13 97 24 0 0 0 0 0 0 13 97 24 218 219 157 210 215 159 220 221 159 219 220 157 210 215 159 210 215 159 210 215 159 210 215 159 220 221 159 221 222 160 210 215 159 219 220 157 13 97 24 0 0 0 147 154 165 140 146 157 163 167 183 158 164 175 158 164 175 160 164 180 165 168 184 155 162 172 159 165 176 160 166 177 160 166 177 168 174 185 159 165 176 161 166 182 149 155 166 166 172 183 117 193 40 130 168 89 105 135 71 0 0 0 0 0 0 170 219 116 130 168 89 0 0 0 0 0 0 170 219 116 130 168 89 0 0 0 0 0 0 229 239 218 150 193 102 0 0 0 49 44 40 116 80 57 130 87 57 63 41 27 130 87 57 74 48 34 148 95 68 71 45 32 130 87 57 63 41 27 130 87 57 71 42 29 155 102 75 63 41 27 116 80 57 49 44 40 49 44 40 116 80 57 130 87 57 130 87 57 130 87 57 155 102 75 116 80 57 24 21 20 24 21 20 116 80 57 130 87 57 149 90 62 155 102 75 130 87 57 116 80 57 49 44 40 0 0 0 0 0 0 86 86 86 150 150 150 127 127 127 127 127 127 127 127 127 127 127 127 
104 104 104 150 150 150 127 127 127 127 127 127 127 127 127 150 150 150 86 86 86 0 0 0 150 108 74 150 108 74 89 61 41 121 85 58 99 93 94 89 61 41 89 61 41 121 85 58 58 41 28 121 85 58 121 85 58 121 85 58 185 133 92 185 133 92 58 41 28 150 108 74 93 87 90 93 87 90 121 106 109 127 109 113 99 93 94 96 89 95 127 109 113 128 107 111 128 107 111 104 96 107 104 96 107 105 94 96 109 99 100 154 123 129 128 107 111 111 104 118 0 0 0 0 0 0 100 141 56 207 227 186 207 227 186 162 201 120 56 80 31 81 116 45 207 227 186 207 227 186 162 201 120 207 227 186 81 116 45 0 0 0 0 0 0 0 0 0 
240 240 240 242 242 242 232 232 232 232 232 232 254 254 254 241 241 241 232 232 232 229 229 229 242 242 242 238 238 238 215 215 215 224 224 224 228 228 228 221 221 221 200 200 200 222 222 222 14 21 26 27 42 53 18 25 30 27 42 53 27 42 53 23 30 35 20 35 46 27 42 53 38 53 64 26 41 52 26 33 38 27 42 53 21 36 47 26 33 38 35 50 61 18 25 30 255 255 255 255 255 255 255 255 255 227 243 243 238 255 255 238 255 255 238 255 255 238 255 255 238 255 255 238 255 255 227 243 243 255 255 255 255 255 255 238 255 255 238 255 255 227 243 243 119 169 255 119 169 255 119 169 255 119 169 255 119 169 255 119 169 255 119 169 255 255 255 255 119 169 255 119 169 255 119 169 255 119 169 255 119 169 255 255 255 255 119 169 255 119 169 255 150 108 74 150 108 74 121 85 58 185 133 92 185 133 92 121 85 58 185 133 92 150 108 74 89 61 41 185 133 92 185 133 92 121 85 58 150 108 74 150 108 74 135 135 135 121 85 58 0 0 0 0 0 0 11 85 20 17 131 31 18 133 34 17 128 30 17 131 31 17 136 32 17 128 30 14 105 26 16 126 29 14 105 26 17 136 32 17 131 31 13 97 24 0 0 0 0 0 0 9 66 16 18 134 32 15 117 27 17 128 30 18 140 33 12 98 21 8 57 16 9 66 16 17 125 31 19 142 34 15 117 27 20 141 36 12 86 21 0 0 0 0 0 0 0 0 0 13 97 24 219 220 158 210 215 159 222 222 160 219 220 158 220 221 159 219 220 157 219 220 157 219 220 157 220 221 159 222 222 160 212 216 160 219 220 157 13 97 24 0 0 0 161 167 178 161 165 181 136 143 154 164 167 184 150 156 167 167 171 187 157 164 174 159 163 179 169 173 189 169 175 186 164 171 182 157 163 173 159 165 176 157 163 174 157 163 173 159 165 176 0 0 0 170 219 116 130 168 89 0 0 0 117 193 40 229 239 218 150 193 102 0 0 0 145 239 50 170 219 116 130 168 89 0 0 0 0 0 0 130 168 89 105 135 71 0 0 0 53 47 43 131 87 66 91 56 40 148 95 68 95 60 44 155 102 75 80 51 33 130 87 57 80 51 33 130 87 57 91 56 40 148 95 68 91 56 40 148 95 68 131 87 66 49 44 40 53 47 43 131 87 66 148 95 68 148 95 68 155 102 75 155 102 75 116 80 57 24 21 20 24 21 20 116 80 57 148 95 68 148 95 68 148 95 68 148 95 68 131 87 66 49 44 40 0 0 0 0 0 0 86 86 86 150 150 150 
127 127 127 127 127 127 127 127 127 150 150 150 104 104 104 150 150 150 127 127 127 104 104 104 127 127 127 150 150 150 86 86 86 0 0 0 150 108 74 150 108 74 121 85 58 185 133 92 89 64 44 121 85 58 185 133 92 150 108 74 89 61 41 185 133 92 185 133 92 121 85 58 150 108 74 150 108 74 135 135 135 121 85 58 109 97 100 93 87 90 105 96 107 117 112 132 117 112 132 104 96 107 154 123 129 105 96 99 120 105 108 136 115 119 117 112 132 89 86 86 105 96 99 140 115 119 123 109 124 104 96 107 0 0 0 81 116 45 81 116 45 0 0 0 81 116 45 100 141 56 56 80 31 56 80 31 81 116 45 100 141 56 0 0 0 162 201 120 81 116 45 100 141 56 0 0 0 0 0 0 
200 200 200 205 205 205 227 227 227 227 227 227 211 211 211 212 212 212 235 235 235 231 231 231 202 202 202 205 205 205 209 209 209 228 228 228 187 187 187 186 186 186 213 213 213 228 228 228 20 35 46 0 0 0 30 45 56 0 0 0 0 0 0 36 51 62 0 0 0 0 0 0 0 0 0 0 0 0 27 42 53 0 0 0 0 0 0 27 42 53 0 0 0 27 42 53 255 255 255 227 243 243 227 243 243 238 255 255 238 255 255 238 255 255 227 243 243 227 243 243 227 243 243 227 243 243 227 243 243 255 255 255 238 255 255 238 255 255 227 243 243 227 243 243 119 169 255 119 169 255 119 169 255 119 169 255 119 169 255 119 169 255 142 191 255 119 169 255 119 169 255 119 169 255 119 169 255 119 169 255 255 255 255 119 169 255 119 169 255 119 169 255 150 108 74 121 85 58 121 85 58 150 108 74 150 108 74 185 133 92 121 85 58 150 108 74 108 108 108 150 108 74 150 108 74 121 85 58 89 61 41 150 108 74 121 85 58 89 61 41 0 0 0 13 97 24 17 136 32 17 131 31 19 139 33 14 105 26 17 131 31 18 133 34 14 105 26 0 0 0 14 105 26 0 0 0 14 105 26 17 131 31 0 0 0 0 0 0 0 0 0 9 66 16 18 134 32 15 117 27 17 127 32 20 141 36 15 118 27 13 97 24 9 66 16 17 125 31 20 141 36 16 116 29 20 141 36 13 99 24 8 57 16 0 0 0 0 0 0 13 97 24 219 220 157 210 215 159 222 223 161 221 222 160 220 221 159 221 222 159 222 222 160 222 223 161 222 222 160 221 222 160 210 215 159 220 220 158 13 97 24 0 0 0 153 159 170 164 167 184 164 170 180 151 155 171 160 167 177 157 163 174 160 166 177 158 163 174 160 167 177 160 166 177 158 164 175 175 182 193 155 162 172 155 162 172 155 161 172 145 150 162 0 0 0 170 219 116 130 168 89 0 0 0 0 0 0 130 168 89 105 135 71 0 0 0 117 193 40 170 219 116 130 168 89 0 0 0 0 0 0 170 219 116 130 168 89 0 0 0 52 44 41 128 82 62 71 42 29 149 90 62 70 41 30 145 88 64 70 41 30 149 90 62 71 42 29 149 90 62 71 42 29 149 90 62 70 41 30 145 88 64 128 82 62 52 44 41 52 44 41 128 82 62 149 90 62 149 90 62 145 88 64 145 88 64 116 80 57 24 21 20 24 21 20 116 80 57 149 90 62 149 90 62 145 88 64 145 88 64 128 82 62 52 44 41 0 0 0 0 0 0 0 0 0 86 86 86 127 127 127 104 104 104 127 127 127 150 150 150 
127 127 127 150 150 150 127 127 127 127 127 127 150 150 150 86 86 86 0 0 0 0 0 0 150 108 74 121 85 58 121 85 58 150 108 74 150 108 74 185 133 92 121 85 58 150 108 74 108 108 108 150 108 74 150 108 74 121 85 58 89 61 41 150 108 74 121 85 58 89 61 41 140 115 119 89 86 86 103 93 95 111 104 118 111 98 100 117 112 132 104 96 107 92 87 88 98 99 99 105 96 99 111 104 118 105 94 96 115 99 103 140 115 119 104 96 107 86 84 85 0 0 0 81 116 45 0 0 0 0 0 0 0 0 0 0 0 0 162 201 120 207 227 186 81 116 45 81 116 45 0 0 0 81 116 45 81 116 45 81 116 45 100 141 56 0 0 0 
212 212 212 211 211 211 184 184 184 189 189 189 240 240 240 247 247 247 196 196 196 183 183 183 221 221 221 235 235 235 224 224 224 231 231 231 255 255 255 255 255 255 228 228 228 192 192 192 27 42 53 0 0 0 28 43 54 0 0 0 0 0 0 27 42 53 0 0 0 0 0 0 0 0 0 0 0 0 27 42 53 0 0 0 0 0 0 27 42 53 0 0 0 27 42 53 238 255 255 255 255 255 238 255 255 227 243 243 227 243 243 227 243 243 238 255 255 255 255 255 255 255 255 255 255 255 238 255 255 227 243 243 227 243 243 227 243 243 227 243 243 227 243 243 119 169 255 142 191 255 119 169 255 119 169 255 119 169 255 119 169 255 119 169 255 119 169 255 119 169 255 119 169 255 119 169 255 255 255 255 119 169 255 119 169 255 119 169 255 119 169 255 121 85 58 89 61 41 150 108 74 121 85 58 150 108 74 150 108 74 185 133 92 121 85 58 121 85 58 121 85 58 121 85 58 121 85 58 121 85 58 121 85 58 185 133 92 185 133 92 0 0 0 13 97 24 19 139 33 17 131 31 14 105 26 0 0 0 17 131 31 18 133 34 17 136 32 14 105 26 17 131 31 14 105 26 20 141 36 18 133 34 13 97 24 0 0 0 0 0 0 0 0 0 14 105 26 15 114 26 17 127 32 20 141 36 15 114 26 13 97 24 0 0 0 12 93 23 20 141 36 16 116 29 16 126 29 15 117 27 13 97 24 0 0 0 0 0 0 13 97 24 219 220 157 209 214 157 210 215 159 212 216 160 210 215 159 210 215 159 210 215 158 210 215 159 212 216 160 212 217 160 212 216 160 219 220 158 13 97 24 0 0 0 168 172 187 160 167 177 155 162 172 168 174 186 161 167 178 155 161 172 162 168 179 146 152 162 150 156 167 160 166 177 158 163 175 155 161 172 161 166 182 164 167 184 154 160 171 157 162 174 0 0 0 170 219 116 130 168 89 0 0 0 0 0 0 170 219 116 130 168 89 0 0 0 0 0 0 170 219 116 130 168 89 0 0 0 0 0 0 170 219 116 130 168 89 0 0 0 53 47 43 136 92 70 155 102 75 95 60 44 155 102 75 80 51 33 155 102 75 80 51 33 130 87 57 80 51 33 130 87 57 80 51 33 148 95 68 91 53 36 136 92 70 53 47 43 53 47 43 136 92 70 155 102 75 155 102 75 155 102 75 130 87 57 116 80 57 24 21 20 24 21 20 116 80 57 130 87 57 130 87 57 148 95 68 149 90 62 136 92 70 53 47 43 0 0 0 0 0 0 0 0 0 86 86 86 150 150 150 150 150 150 127 127 127 150 150 150 
104 104 104 150 150 150 104 104 104 127 127 127 150 150 150 86 86 86 0 0 0 0 0 0 121 85 58 89 61 41 150 108 74 121 85 58 150 108 74 150 108 74 185 133 92 121 85 58 121 85 58 121 85 58 121 85 58 121 85 58 121 85 58 121 85 58 185 133 92 185 133 92 128 107 111 115 99 103 105 97 108 105 94 96 105 96 99 92 87 88 108 100 113 90 85 88 99 93 94 128 107 111 104 96 107 104 96 107 104 96 107 105 98 109 117 112 132 95 89 90 0 0 0 0 0 0 0 0 0 0 0 0 0 0 0 0 0 0 100 141 56 100 141 56 207 227 186 162 201 120 0 0 0 81 116 45 0 0 0 81 116 45 81 116 45 0 0 0 
231 231 231 229 229 229 248 248 248 255 255 255 240 240 240 232 232 232 224 224 224 215 215 215 184 184 184 219 219 219 231 231 231 241 241 241 218 218 218 219 219 219 241 241 241 253 253 253 26 33 38 24 39 50 26 33 38 27 42 53 27 42 53 26 33 38 27 42 53 27 42 53 27 42 53 31 46 57 27 34 39 23 38 49 27 42 53 19 26 31 27 42 53 26 33 38 238 255 255 238 255 255 238 255 255 227 243 243 238 255 255 238 255 255 238 255 255 227 243 243 255 255 255 238 255 255 238 255 255 227 243 243 255 255 255 255 255 255 238 255 255 238 255 255 142 191 255 119 169 255 119 169 255 119 169 255 119 169 255 119 169 255 119 169 255 119 169 255 119 169 255 119 169 255 142 191 255 119 169 255 119 169 255 119 169 255 119 169 255 119 169 255 121 85 58 150 108 74 121 85 58 121 85 58 89 61 41 121 85 58 150 108 74 150 108 74 121 85 58 89 61 41 185 133 92 89 61 41 121 85 58 185 133 92 150 108 74 150 108 74 0 0 0 13 97 24 11 85 20 17 131 31 19 139 33 14 105 26 11 85 20 15 118 27 19 139 33 11 85 20 17 131 31 18 133 34 11 85 20 11 85 20 13 97 24 0 0 0 0 0 0 4 40 8 14 112 25 17 125 31 17 128 30 18 134 32 15 120 28 13 97 24 4 40 8 14 109 25 17 127 32 16 116 29 18 140 33 20 141 36 13 97 24 0 0 0 0 0 0 13 97 24 219 220 157 219 220 157 219 220 157 219 220 157 220 221 159 218 219 156 219 220 157 217 218 156 219 220 157 219 220 157 219 220 157 219 220 157 13 97 24 0 0 0 175 183 200 164 168 184 152 159 170 141 147 158 155 161 172 155 162 172 155 162 172 170 174 191 161 166 182 171 175 191 164 168 184 161 167 178 163 169 179 157 163 174 164 168 184 156 160 177 0 0 0 170 219 116 130 168 89 0 0 0 0 0 0 170 219 116 130 168 89 0 0 0 0 0 0 229 239 218 150 193 102 0 0 0 117 193 40 170 219 116 130 168 89 0 0 0 52 46 42 116 80 57 149 90 62 74 48 34 155 102 75 74 48 34 155 102 75 63 41 27 155 102 75 71 45 32 148 95 68 63 41 27 130 87 57 63 41 27 116 80 57 52 46 42 52 46 42 116 80 57 149 90 62 155 102 75 155 102 75 155 102 75 155 102 75 116 80 57 116 80 57 148 95 68 148 95 68 130 87 57 130 87 57 130 87 57 116 80 57 52 46 42 0 0 0 0 0 0 0 0 0 0 0 0 86 86 86 86 86 86 
150 150 150 150 150 150 104 104 104 104 104 104 127 127 127 86 86 86 86 86 86 0 0 0 0 0 0 0 0 0 121 85 58 150 108 74 121 85 58 121 85 58 116 88 68 121 85 58 150 108 74 150 108 74 121 85 58 89 61 41 185 133 92 89 61 41 121 85 58 185 133 92 150 108 74 150 108 74 99 93 94 111 104 118 104 96 107 89 86 86 99 94 95 132 113 118 106 96 99 107 99 111 104 96 107 96 89 95 119 103 106 97 89 90 105 94 96 119 103 106 111 104 118 111 98 100 0 0 0 0 0 0 0 0 0 0 0 0 0 0 0 0 0 0 81 116 45 162 201 120 56 80 31 207 227 186 0 0 0 0 0 0 0 0 0 0 0 0 0 0 0 0 0 0 
247 247 247 245 245 245 222 222 222 216 216 216 241 241 241 224 224 224 228 228 228 234 234 234 255 255 255 238 238 238 208 208 208 209 209 209 225 225 225 231 231 231 212 212 212 202 202 202 17 32 43 0 0 0 32 47 58 0 0 0 0 0 0 27 42 53 0 0 0 0 0 0 0 0 0 0 0 0 30 45 56 0 0 0 0 0 0 21 36 47 0 0 0 27 42 53 255 255 255 238 255 255 255 255 255 227 243 243 227 243 243 227 243 243 227 243 243 255 255 255 255 255 255 255 255 255 255 255 255 255 255 255 255 255 255 238 255 255 238 255 255 227 243 243 119 169 255 119 169 255 119 169 255 119 169 255 119 169 255 119 169 255 119 169 255 119 169 255 119 169 255 119 169 255 119 169 255 119 169 255 119 169 255 119 169 255 119 169 255 119 169 255 150 108 74 121 85 58 89 61 41 185 133 92 121 85 58 89 61 41 121 85 58 89 61 41 121 85 58 121 85 58 121 85 58 89 61 41 121 85 58 121 85 58 150 108 74 150 108 74 0 0 0 13 97 24 0 0 0 4 40 8 13 97 24 13 97 24 0 0 0 13 97 24 4 40 8 0 0 0 13 97 24 13 97 24 0 0 0 4 40 8 13 97 24 0 0 0 0 0 0 9 66 16 17 127 32 20 141 36 15 117 27 18 134 32 13 89 22 0 0 0 9 66 16 17 127 32 20 141 36 16 116 29 18 134 32 16 116 29 13 97 24 0 0 0 0 0 0 13 97 24 13 97 24 13 97 24 13 97 24 13 97 24 13 97 24 13 97 24 13 97 24 13 97 24 13 97 24 13 97 24 13 97 24 13 97 24 13 97 24 0 0 0 162 166 182 158 162 178 157 163 174 154 160 171 160 165 181 156 160 176 160 166 177 162 168 179 141 148 158 161 167 178 145 151 162 157 163 174 164 168 184 152 156 172 154 160 171 161 166 182 0 0 0 170 219 116 130 168 89 0 0 0 0 0 0 170 219 116 130 168 89 0 0 0 0 0 0 130 168 89 105 135 71 0 0 0 0 0 0 170 219 116 130 168 89 0 0 0 53 47 43 121 85 67 116 80 57 116 80 57 116 80 57 136 92 70 136 92 70 116 80 57 136 92 70 136 92 70 116 80 57 131 87 66 136 92 70 136 92 70 121 85 67 53 47 43 53 47 43 121 85 67 116 80 57 116 80 57 116 80 57 136 92 70 136 92 70 116 80 57 136 92 70 136 92 70 116 80 57 131 87 66 136 92 70 136 92 70 121 85 67 53 47 43 0 0 0 0 0 0 0 0 0 0 0 0 0 0 0 0 0 0 86 86 86 86 86 86 86 86 86 86 86 86 86 86 86 0 0 0 0 0 0 0 0 0 0 0 0 0 0 0 150 108 74 121 85 58 89 61 41 
185 133 92 121 85 58 89 61 41 121 85 58 89 61 41 121 85 58 121 85 58 121 85 58 89 61 41 121 85 58 121 85 58 150 108 74 150 108 74 140 115 119 104 96 107 86 84 85 109 99 100 99 93 94 115 99 103 128 110 114 96 89 95 105 94 96 105 94 96 128 107 111 115 99 103 132 113 118 128 107 111 111 104 118 111 104 118 0 0 0 0 0 0 0 0 0 0 0 0 0 0 0 0 0 0 0 0 0 162 201 120 207 227 186 56 80 31 0 0 0 0 0 0 0 0 0 0 0 0 0 0 0 0 0 0 
193 193 193 205 205 205 240 240 240 225 225 225 202 202 202 212 212 212 241 241 241 248 248 248 218 218 218 211 211 211 229 229 229 240 240 240 202 202 202 205 205 205 238 238 238 241 241 241 26 33 38 27 42 53 26 33 38 27 42 53 27 42 53 30 37 42 27 42 53 27 42 53 30 45 56 27 42 53 15 22 27 27 42 53 27 42 53 34 41 46 27 42 53 30 37 42 255 255 255 255 255 255 255 255 255 238 255 255 238 255 255 227 243 243 227 243 243 227 243 243 227 243 243 227 243 243 238 255 255 255 255 255 227 243 243 238 255 255 227 243 243 255 255 255 119 169 255 119 169 255 119 169 255 119 169 255 119 169 255 119 169 255 119 169 255 119 169 255 119 169 255 119 169 255 119 169 255 119 169 255 119 169 255 119 169 255 119 169 255 119 169 255 150 108 74 121 85 58 185 133 92 150 108 74 150 108 74 121 85 58 135 135 135 150 108 74 150 108 74 150 108 74 121 85 58 121 85 58 150 108 74 150 108 74 121 85 58 89 61 41 0 0 0 0 0 0 0 0 0 0 0 0 0 0 0 0 0 0 0 0 0 0 0 0 0 0 0 0 0 0 0 0 0 0 0 0 0 0 0 0 0 0 0 0 0 0 0 0 0 0 0 9 66 16 17 127 32 18 134 32 16 116 29 17 128 30 15 110 28 8 57 16 9 66 16 17 128 30 17 127 32 15 113 28 17 128 30 16 126 29 13 97 24 0 0 0 0 0 0 0 0 0 0 0 0 0 0 0 0 0 0 0 0 0 0 0 0 0 0 0 0 0 0 0 0 0 0 0 0 0 0 0 0 0 0 0 0 0 0 0 0 0 0 0 157 162 174 163 169 180 157 163 174 147 154 165 175 185 200 161 167 177 150 157 167 167 171 187 159 165 176 169 173 189 155 161 172 155 162 172 157 163 174 159 166 176 157 163 174 150 156 167 0 0 0 170 219 116 130 168 89 0 0 0 0 0 0 170 219 116 130 168 89 0 0 0 0 0 0 170 219 116 130 168 89 0 0 0 0 0 0 170 219 116 130 168 89 0 0 0 40 35 32 52 44 41 52 44 41 53 44 41 51 45 42 51 45 42 53 44 41 51 45 42 52 44 41 52 44 41 52 44 41 51 45 42 48 43 41 51 45 42 51 45 42 49 44 40 40 35 32 52 44 41 52 44 41 53 44 41 51 45 42 51 45 42 53 44 41 51 45 42 52 44 41 52 44 41 52 44 41 51 45 42 48 43 41 51 45 42 51 45 42 49 44 40 0 0 0 0 0 0 0 0 0 0 0 0 0 0 0 0 0 0 0 0 0 0 0 0 0 0 0 0 0 0 0 0 0 0 0 0 0 0 0 0 0 0 0 0 0 0 0 0 150 108 74 121 85 58 185 133 92 150 108 74 150 108 74 121 85 58 135 135 135 150 108 74 150 108 74 
150 108 74 121 85 58 121 85 58 150 108 74 150 108 74 121 85 58 89 61 41 140 115 119 104 96 107 117 112 132 111 98 100 140 115 119 128 107 111 103 104 104 109 97 100 111 104 118 109 97 100 128 107 111 128 107 111 140 115 119 140 115 119 105 94 96 96 89 95 0 0 0 0 0 0 0 0 0 0 0 0 0 0 0 0 0 0 0 0 0 162 201 120 207 227 186 162 201 120 0 0 0 0 0 0 0 0 0 0 0 0 0 0 0 0 0 0 
0 0 0 0 0 0 0 0 0 0 0 0 0 0 0 0 0 0 0 0 0 0 0 0 0 0 0 0 0 0 0 0 0 0 0 0 0 0 0 0 0 0 0 0 0 0 0 0 176 151 81 170 143 71 170 143 71 170 143 71 170 143 71 176 151 81 176 151 81 175 148 77 170 143 71 176 151 81 176 151 81 176 151 81 176 151 81 176 151 81 176 151 81 137 104 50 167 167 167 163 163 163 166 166 166 173 173 173 181 181 181 190 190 190 192 192 192 190 190 190 188 188 188 190 190 190 193 193 193 195 195 195 196 196 196 197 197 197 198 198 198 187 187 187 0 0 0 0 0 0 142 115 60 92 72 37 0 0 0 0 0 0 0 0 0 0 0 0 0 0 0 0 0 0 0 0 0 0 0 0 172 136 82 105 81 47 0 0 0 0 0 0 87 60 27 87 60 27 91 60 28 82 57 25 82 57 25 91 60 28 82 57 25 87 60 27 87 60 27 87 60 27 82 57 25 73 53 24 82 57 25 82 57 25 87 60 27 87 60 27 0 0 0 0 0 0 108 109 111 77 75 76 0 0 0 0 0 0 0 0 0 114 104 97 75 74 76 0 0 0 0 0 0 0 0 0 119 109 101 80 79 80 0 0 0 0 0 0 119 64 23 76 41 13 113 61 22 110 60 21 71 38 12 70 38 12 105 57 20 104 56 20 68 36 12 51 25 7 105 57 20 70 38 12 88 48 16 110 60 21 74 39 12 116 63 22 159 107 66 99 63 36 159 107 66 159 107 66 99 63 36 99 63 36 159 107 66 159 107 66 99 63 36 69 41 21 159 107 66 99 63 36 127 85 51 159 107 66 99 63 36 159 107 66 0 0 0 0 0 0 0 0 0 0 0 0 0 0 0 0 0 0 0 0 0 0 0 0 0 0 0 0 0 0 0 0 0 0 0 0 0 0 0 0 0 0 0 0 0 0 0 0 0 0 0 0 0 0 0 0 0 0 0 0 0 0 0 0 0 0 0 0 0 0 0 0 0 0 0 0 0 0 0 0 0 0 0 0 0 0 0 0 0 0 0 0 0 0 0 0 0 0 0 0 0 0 0 0 0 0 0 0 0 0 0 0 0 0 0 0 0 0 0 0 0 0 0 0 0 0 0 0 0 0 0 0 0 0 0 0 0 0 0 0 0 0 0 0 0 0 0 0 0 0 0 0 0 0 0 0 0 0 0 0 0 0 0 0 0 0 0 0 0 0 0 0 0 0 0 0 0 0 0 0 0 0 0 0 0 0 0 0 0 0 0 0 0 0 0 0 0 0 0 0 0 0 0 0 0 0 0 0 0 0 0 0 0 0 0 0 0 0 0 0 0 0 0 0 0 0 0 0 0 0 0 0 0 0 0 0 0 0 0 0 0 0 0 0 0 0 0 0 0 0 0 0 0 0 0 0 0 0 0 0 0 0 0 0 0 0 0 0 0 0 0 0 0 0 0 0 0 0 0 0 0 0 0 0 0 0 0 0 0 0 0 0 0 0 0 0 0 0 0 0 0 0 0 0 0 0 97 197 4 0 0 0 0 0 0 0 0 0 0 0 0 0 0 0 0 0 0 0 0 0 0 0 0 0 0 0 0 0 0 0 0 0 0 0 0 0 0 0 0 0 0 0 0 0 109 99 21 0 0 0 0 0 0 0 0 0 0 0 0 0 0 0 0 0 0 0 0 0 0 0 0 0 0 0 
0 0 0 0 0 0 0 0 0 0 0 0 0 0 0 0 0 0 0 0 0 0 0 0 0 0 0 0 0 0 0 0 0 0 0 0 0 0 0 0 0 0 0 0 0 0 0 0 176 151 81 145 109 56 143 107 53 122 91 43 143 107 53 143 107 53 137 104 50 137 104 50 137 104 50 137 104 50 137 104 50 143 107 53 137 104 50 143 107 53 145 109 56 106 67 31 190 190 190 192 192 192 191 191 191 186 186 186 194 194 194 195 195 195 193 193 193 193 193 193 192 192 192 192 192 192 193 193 193 194 194 194 192 192 192 193 193 193 194 194 194 165 165 165 0 0 0 164 128 74 164 128 74 72 55 29 142 115 60 142 115 60 164 128 74 164 128 74 172 136 82 172 136 82 172 136 82 164 128 74 142 115 60 101 77 43 164 128 74 0 0 0 106 67 31 145 109 56 137 104 50 137 104 50 137 104 50 143 107 53 143 107 53 143 107 53 145 109 56 145 109 56 145 109 56 143 107 53 122 91 43 145 109 56 145 109 56 106 67 31 0 0 0 0 0 0 170 164 155 106 104 106 0 0 0 0 0 0 0 0 0 163 164 164 104 105 104 0 0 0 0 0 0 0 0 0 118 109 100 74 73 72 0 0 0 0 0 0 77 41 13 55 27 8 90 48 16 87 47 16 85 46 15 68 36 11 49 24 7 100 54 19 66 35 11 49 24 7 82 45 15 68 36 11 69 37 12 71 38 12 54 26 8 113 61 22 99 63 36 69 41 21 127 85 51 127 85 51 127 85 51 99 63 36 69 41 21 159 107 66 99 63 36 69 41 21 127 85 51 99 63 36 99 63 36 99 63 36 69 41 21 159 107 66 0 0 0 0 0 0 0 0 0 0 0 0 0 0 0 0 0 0 0 0 0 0 0 0 0 0 0 0 0 0 0 0 0 0 0 0 0 0 0 0 0 0 0 0 0 0 0 0 0 0 0 0 0 0 0 0 0 0 0 0 0 0 0 0 0 0 0 0 0 0 0 0 0 0 0 0 0 0 0 0 0 0 0 0 0 0 0 0 0 0 0 0 0 0 0 0 0 0 0 0 0 0 0 0 0 0 0 0 0 0 0 0 0 0 0 0 0 0 0 0 0 0 0 0 0 0 0 0 0 0 0 0 0 0 0 0 0 0 0 0 0 0 0 0 0 0 0 0 0 0 0 0 0 0 0 0 0 0 0 0 0 0 0 0 0 0 0 0 0 0 0 0 0 0 0 0 0 0 0 0 0 0 0 0 0 0 0 0 0 0 0 0 0 0 0 0 0 0 0 0 0 0 0 0 0 0 0 0 0 0 0 0 0 0 0 0 0 0 0 0 0 0 0 0 0 0 0 0 0 0 0 0 0 0 0 0 0 0 0 0 0 0 0 0 0 0 0 0 0 0 0 0 0 0 0 0 0 0 91 182 10 0 0 0 0 0 0 0 0 0 0 0 0 0 0 0 0 0 0 0 0 0 0 0 0 0 0 0 0 0 0 0 0 0 0 0 0 0 0 0 0 0 0 0 0 0 150 182 0 37 128 11 0 0 0 0 0 0 0 0 0 0 0 0 0 0 0 0 0 0 0 0 0 0 0 0 0 0 0 118 102 21 0 0 0 0 0 0 0 0 0 0 0 0 138 119 17 22 25 0 0 0 0 0 0 0 0 0 0 0 0 0 122 106 21 0 0 0 0 0 0 0 0 0 
0 0 0 0 0 0 0 0 0 0 0 0 0 0 0 0 0 0 0 0 0 0 0 0 0 0 0 0 0 0 0 0 0 0 0 0 0 0 0 0 0 0 0 0 0 0 0 0 176 151 81 145 109 56 120 83 39 120 83 39 120 83 39 120 83 39 128 87 42 143 107 53 130 89 44 130 89 44 130 89 44 128 87 42 103 74 34 145 109 56 145 109 56 106 67 31 193 193 193 196 196 196 187 187 187 187 187 187 187 187 187 187 187 187 188 188 188 195 195 195 189 189 189 189 189 189 189 189 189 188 188 188 181 181 181 192 192 192 191 191 191 165 165 165 0 0 0 100 79 42 142 115 60 92 72 37 100 79 42 100 79 42 100 79 42 100 79 42 100 79 42 100 79 42 91 70 37 91 70 37 100 79 42 105 81 47 100 79 42 0 0 0 87 60 27 118 87 41 99 71 33 103 74 34 103 74 34 103 74 34 122 91 43 145 109 56 145 109 56 103 74 34 103 74 34 99 71 33 99 71 33 118 87 41 122 91 43 87 60 27 0 0 0 0 0 0 171 164 156 127 128 127 119 118 118 111 111 111 163 163 164 171 171 173 93 92 94 0 0 0 0 0 0 0 0 0 111 111 110 80 75 68 0 0 0 0 0 0 114 61 22 54 26 8 107 58 21 104 56 20 82 45 15 65 35 11 47 23 7 78 42 14 78 42 14 47 23 7 98 52 19 65 35 11 67 36 11 69 36 12 71 38 12 90 49 16 159 107 66 69 41 21 159 107 66 159 107 66 127 85 51 99 63 36 69 41 21 127 85 51 127 85 51 69 41 21 159 107 66 99 63 36 99 63 36 99 63 36 99 63 36 127 85 51 0 0 0 0 0 0 0 0 0 0 0 0 0 0 0 0 0 0 0 0 0 0 0 0 0 0 0 0 0 0 0 0 0 0 0 0 0 0 0 0 0 0 0 0 0 0 0 0 0 0 0 0 0 0 0 0 0 0 0 0 0 0 0 0 0 0 0 0 0 0 0 0 0 0 0 0 0 0 0 0 0 0 0 0 0 0 0 0 0 0 0 0 0 0 0 0 0 0 0 0 0 0 0 0 0 0 0 0 0 0 0 0 0 0 0 0 0 0 0 0 0 0 0 0 0 0 0 0 0 0 0 0 0 0 0 0 0 0 0 0 0 0 0 0 0 0 0 0 0 0 0 0 0 0 0 0 0 0 0 0 0 0 0 0 0 0 0 0 0 0 0 0 0 0 0 0 0 0 0 0 0 0 0 0 0 0 0 0 0 0 0 0 0 0 0 0 0 0 0 0 0 0 0 0 0 0 0 0 0 0 0 0 0 0 0 0 0 0 0 0 0 0 0 0 0 0 0 0 0 0 0 0 0 0 0 0 0 0 0 0 0 0 0 0 0 0 0 0 0 0 0 0 0 0 0 0 0 0 89 179 11 24 111 6 0 0 0 0 0 0 0 0 0 0 0 0 0 0 0 0 0 0 0 0 0 0 0 0 0 0 0 0 0 0 0 0 0 0 0 0 0 0 0 0 0 0 130 154 9 60 110 10 0 0 0 0 0 0 0 0 0 0 0 0 0 0 0 0 0 0 0 0 0 0 0 0 0 0 0 125 108 20 36 36 0 0 0 0 0 0 0 0 0 0 0 0 0 135 116 17 0 0 0 0 0 0 0 0 0 0 0 0 135 116 17 42 42 0 0 0 0 0 0 0 
0 0 0 0 0 0 0 0 0 0 0 0 0 0 0 0 0 0 0 0 0 0 0 0 0 0 0 0 0 0 0 0 0 0 0 0 0 0 0 0 0 0 0 0 0 0 0 0 156 119 59 118 87 41 99 71 33 0 0 0 0 0 0 0 0 0 0 0 0 148 115 56 103 74 34 0 0 0 0 0 0 0 0 0 0 0 0 144 109 53 122 91 43 87 60 27 184 184 184 188 188 188 183 183 183 0 0 0 0 0 0 0 0 0 0 0 0 198 198 198 183 183 183 0 0 0 0 0 0 0 0 0 0 0 0 194 194 194 188 188 188 161 161 161 0 0 0 0 0 0 91 70 37 72 55 29 0 0 0 0 0 0 0 0 0 0 0 0 0 0 0 0 0 0 0 0 0 0 0 0 91 70 37 68 51 27 0 0 0 0 0 0 117 70 34 137 104 50 120 83 39 0 0 0 0 0 0 0 0 0 160 131 64 122 91 43 137 104 50 130 89 44 0 0 0 0 0 0 0 0 0 165 136 69 143 107 53 117 70 34 0 0 0 0 0 0 155 146 137 90 90 90 90 91 90 76 77 76 92 92 93 155 146 138 90 91 90 0 0 0 0 0 0 0 0 0 110 109 111 80 78 82 0 0 0 0 0 0 91 50 17 71 38 12 105 57 20 49 49 49 80 44 14 63 33 10 62 33 10 93 50 18 75 41 14 45 22 7 76 41 14 78 42 14 65 35 11 67 36 11 51 25 8 108 58 21 127 85 51 99 63 36 159 107 66 85 85 85 127 85 51 99 63 36 99 63 36 159 107 66 127 85 51 69 41 21 127 85 51 127 85 51 99 63 36 99 63 36 69 41 21 159 107 66 0 0 0 0 0 0 0 0 0 0 0 0 0 0 0 0 0 0 0 0 0 0 0 0 0 0 0 0 0 0 0 0 0 0 0 0 0 0 0 0 0 0 0 0 0 0 0 0 0 0 0 0 0 0 0 0 0 0 0 0 0 0 0 0 0 0 0 0 0 0 0 0 0 0 0 0 0 0 0 0 0 0 0 0 0 0 0 0 0 0 0 0 0 0 0 0 0 0 0 0 0 0 0 0 0 0 0 0 0 0 0 0 0 0 0 0 0 0 0 0 0 0 0 0 0 0 0 0 0 0 0 0 0 0 0 0 0 0 0 0 0 0 0 0 0 0 0 0 0 0 0 0 0 0 0 0 0 0 0 0 0 0 0 0 0 0 0 0 0 0 0 0 0 0 0 0 0 0 0 0 0 0 0 0 0 0 0 0 0 0 0 0 0 0 0 0 0 0 0 0 0 0 0 0 0 0 0 0 0 0 3 200 0 0 0 0 0 0 0 0 0 0 0 0 0 0 0 0 0 0 0 0 0 0 0 0 0 0 0 0 0 0 0 0 0 0 0 0 0 0 0 0 0 0 0 0 0 0 95 203 2 21 107 5 0 0 0 0 0 0 0 0 0 0 0 0 0 0 0 0 0 0 0 0 0 0 0 0 0 0 0 89 158 16 0 0 0 0 0 0 0 0 0 0 0 0 0 0 0 95 173 13 0 0 0 0 0 0 0 0 0 0 0 0 98 181 11 0 0 0 0 0 0 0 0 0 0 0 0 0 0 0 145 123 14 0 0 0 0 0 0 124 106 19 0 0 0 146 164 6 57 54 0 0 0 0 0 0 0 147 125 14 0 0 0 57 54 0 0 0 0 0 0 0 
0 0 0 0 0 0 0 0 0 0 0 0 0 0 0 0 0 0 0 0 0 0 0 0 0 0 0 0 0 0 0 0 0 0 0 0 0 0 0 0 0 0 0 0 0 0 0 0 53 53 53 120 83 39 120 83 39 0 0 0 0 0 0 0 0 0 0 0 0 160 131 64 130 89 44 0 0 0 0 0 0 0 0 0 0 0 0 165 136 69 143 107 53 117 70 34 79 79 79 188 188 188 187 187 187 0 0 0 0 0 0 0 0 0 0 0 0 202 202 202 190 190 190 0 0 0 0 0 0 0 0 0 0 0 0 202 202 202 193 193 193 169 169 169 0 0 0 0 0 0 142 115 60 92 72 37 0 0 0 0 0 0 0 0 0 0 0 0 0 0 0 0 0 0 0 0 0 0 0 0 164 128 74 101 77 43 0 0 0 0 0 0 106 67 31 137 104 50 103 74 34 0 0 0 0 0 0 0 0 0 160 131 64 143 107 53 145 109 56 128 87 42 0 0 0 0 0 0 0 0 0 160 131 64 137 104 50 106 67 31 0 0 0 0 0 0 129 119 110 97 98 97 0 0 0 0 0 0 0 0 0 123 113 104 92 92 92 0 0 0 0 0 0 0 0 0 109 110 110 77 77 78 0 0 0 0 0 0 90 48 16 70 38 12 84 45 15 81 44 15 63 33 10 61 33 10 90 49 17 72 39 13 72 39 13 43 21 6 90 49 17 44 44 44 78 42 14 65 35 11 50 24 7 106 57 20 127 85 51 99 63 36 127 85 51 127 85 51 99 63 36 99 63 36 159 107 66 127 85 51 127 85 51 69 41 21 159 107 66 85 85 85 127 85 51 99 63 36 69 41 21 159 107 66 0 0 0 0 0 0 0 0 0 0 0 0 0 0 0 0 0 0 0 0 0 0 0 0 0 0 0 0 0 0 0 0 0 0 0 0 0 0 0 0 0 0 0 0 0 0 0 0 0 0 0 0 0 0 0 0 0 0 0 0 0 0 0 0 0 0 0 0 0 0 0 0 0 0 0 0 0 0 0 0 0 0 0 0 0 0 0 0 0 0 0 0 0 0 0 0 0 0 0 0 0 0 0 0 0 0 0 0 0 0 0 0 0 0 0 0 0 0 0 0 0 0 0 0 0 0 0 0 0 0 0 0 0 0 0 0 0 0 0 0 0 0 0 0 0 0 0 0 0 0 0 0 0 0 0 0 0 0 0 0 0 0 0 0 0 0 0 0 0 0 0 0 0 0 0 0 0 0 0 0 0 0 0 0 0 0 0 0 0 0 0 0 0 0 0 0 0 0 0 0 0 0 0 0 0 0 0 0 0 0 0 167 2 29 140 15 0 0 0 0 0 0 0 0 0 0 0 0 0 0 0 0 0 0 0 0 0 0 0 0 0 0 0 87 175 13 0 0 0 0 0 0 0 0 0 0 0 0 0 0 0 73 138 18 0 0 0 0 0 0 0 0 0 0 0 0 92 195 5 0 0 0 0 0 0 0 0 0 0 0 0 100 183 10 18 82 0 0 0 0 0 0 0 101 194 6 0 0 0 159 196 0 24 100 3 0 0 0 0 0 0 0 0 0 94 171 14 27 110 6 0 0 0 0 0 0 0 0 0 0 0 0 158 178 0 71 69 3 0 0 0 146 124 14 43 43 0 146 165 5 50 88 3 122 106 21 0 0 0 144 160 7 0 0 0 0 0 0 113 96 21 0 0 0 
0 0 0 0 0 0 0 0 0 0 0 0 0 0 0 0 0 0 0 0 0 0 0 0 0 0 0 0 0 0 0 0 0 0 0 0 0 0 0 0 0 0 0 0 0 0 0 0 111 111 111 137 104 50 103 74 34 0 0 0 0 0 0 0 0 0 0 0 0 160 131 64 128 87 42 0 0 0 0 0 0 0 0 0 0 0 0 160 131 64 137 104 50 106 67 31 129 129 129 195 195 195 183 183 183 0 0 0 0 0 0 0 0 0 0 0 0 201 201 201 188 188 188 0 0 0 0 0 0 0 0 0 0 0 0 200 200 200 192 192 192 167 167 167 0 0 0 164 128 74 100 79 42 101 77 43 172 136 82 172 136 82 172 136 82 142 115 60 142 115 60 142 115 60 100 79 42 172 136 82 142 115 60 92 72 37 164 128 74 0 0 0 117 70 34 145 109 56 130 89 44 0 0 0 0 0 0 0 0 0 160 131 64 137 104 50 122 91 43 120 83 39 0 0 0 0 0 0 0 0 0 167 138 73 145 109 56 117 70 34 0 0 0 0 0 0 95 95 95 67 68 65 0 0 0 0 0 0 0 0 0 98 90 84 68 69 69 0 0 0 0 0 0 0 0 0 129 129 129 77 79 76 0 0 0 0 0 0 72 38 12 70 37 12 101 54 20 64 34 10 62 33 10 59 32 10 42 21 6 85 46 16 55 29 9 56 30 9 87 47 17 44 21 7 76 41 14 64 34 10 101 54 20 105 57 20 99 63 36 99 63 36 159 107 66 99 63 36 99 63 36 99 63 36 69 41 21 159 107 66 99 63 36 99 63 36 159 107 66 69 41 21 127 85 51 99 63 36 159 107 66 159 107 66 0 0 0 0 0 0 0 0 0 0 0 0 0 0 0 0 0 0 0 0 0 0 0 0 0 0 0 0 0 0 0 0 0 0 0 0 0 0 0 0 0 0 0 0 0 0 0 0 0 0 0 0 0 0 0 0 0 0 0 0 0 0 0 0 0 0 0 0 0 0 0 0 0 0 0 0 0 0 0 0 0 0 0 0 0 0 0 0 0 0 0 0 0 0 0 0 0 0 0 0 0 0 0 0 0 0 0 0 0 0 0 0 0 0 0 0 0 0 0 0 0 0 0 0 0 0 0 0 0 0 0 0 0 0 0 0 0 0 0 0 0 0 0 0 0 0 0 0 0 0 0 0 0 0 0 0 0 0 0 0 0 0 0 144 11 0 0 0 0 0 0 0 0 0 0 0 0 0 0 0 0 0 0 0 0 0 0 0 0 0 0 0 0 0 0 0 0 0 0 0 0 0 0 0 0 0 0 0 0 0 3 201 0 14 100 3 0 0 0 0 0 0 0 0 0 0 0 0 0 0 0 0 0 0 0 0 0 0 0 0 0 0 0 95 200 3 20 103 4 0 0 0 0 0 0 82 157 17 0 0 0 87 170 15 10 58 0 0 0 0 0 0 0 0 0 0 95 199 3 30 125 10 0 0 0 0 0 0 0 0 0 0 0 0 94 171 14 0 0 0 0 0 0 97 177 12 36 124 10 151 184 0 73 128 16 0 0 0 0 0 0 85 148 17 0 0 0 24 99 3 0 0 0 0 0 0 93 80 19 0 0 0 147 167 5 64 106 9 131 112 18 0 0 0 72 70 3 137 154 10 50 89 3 128 112 19 42 42 0 160 184 0 0 0 0 0 0 0 136 117 18 27 30 0 
0 0 0 0 0 0 0 0 0 0 0 0 0 0 0 0 0 0 0 0 0 255 216 0 255 143 0 0 0 0 0 0 0 0 0 0 0 0 0 0 0 0 0 0 0 0 0 0 176 151 81 145 109 56 145 109 56 145 109 56 165 136 69 167 138 73 167 138 73 160 131 64 137 104 50 137 104 50 160 131 64 148 115 56 167 138 73 167 138 73 145 109 56 117 70 34 193 193 193 196 196 196 196 196 196 195 195 195 203 203 203 202 202 202 204 204 204 201 201 201 194 194 194 194 194 194 201 201 201 197 197 197 204 204 204 203 203 203 193 193 193 167 167 167 0 0 0 100 79 42 172 136 82 101 77 43 91 70 37 91 70 37 91 70 37 100 79 42 100 79 42 100 79 42 91 70 37 91 70 37 172 136 82 105 81 47 100 79 42 0 0 0 87 60 27 137 104 50 122 91 43 167 138 73 167 138 73 167 138 73 160 131 64 145 109 56 137 104 50 145 109 56 165 136 69 160 131 64 160 131 64 160 131 64 137 104 50 87 60 27 0 0 0 0 0 0 164 164 164 101 101 98 0 0 0 0 0 0 0 0 0 105 104 103 75 76 76 0 0 0 0 0 0 0 0 0 164 164 164 103 103 103 0 0 0 0 0 0 108 58 21 84 46 15 100 54 19 78 42 14 61 32 10 43 21 6 41 20 6 66 36 12 53 28 9 39 20 6 85 46 16 72 39 13 75 41 14 64 33 10 100 54 19 84 46 15 159 107 66 127 85 51 159 107 66 127 85 51 99 63 36 69 41 21 69 41 21 127 85 51 99 63 36 69 41 21 159 107 66 127 85 51 127 85 51 99 63 36 159 107 66 127 85 51 0 0 0 0 0 0 0 0 0 0 0 0 0 0 0 0 0 0 0 0 0 0 0 0 0 0 0 0 0 0 0 0 0 0 0 0 0 0 0 0 0 0 0 0 0 0 0 0 0 0 0 0 0 0 0 0 0 0 0 0 0 0 0 0 0 0 0 0 0 0 0 0 0 0 0 0 0 0 0 0 0 0 0 0 0 0 0 0 0 0 0 0 0 0 0 0 0 0 0 0 0 0 0 0 0 0 0 0 0 0 0 0 0 0 0 0 0 0 0 0 0 0 0 0 0 0 0 0 0 0 0 0 0 0 0 0 0 0 0 0 0 0 0 0 0 0 0 0 0 0 0 0 0 0 0 0 0 0 0 0 0 0 0 204 6 4 72 0 0 0 0 0 0 0 0 0 0 0 0 0 0 0 0 0 0 0 0 0 0 0 0 0 0 0 0 3 198 0 0 0 0 0 0 0 0 0 0 0 0 0 0 0 0 0 170 1 0 0 0 0 0 0 0 0 0 0 0 0 5 210 0 0 0 0 0 0 0 0 0 0 0 0 0 0 0 0 91 186 9 0 0 0 0 0 0 95 200 3 14 81 0 84 165 15 18 97 2 0 0 0 0 0 0 87 173 13 0 0 0 0 0 0 0 0 0 0 0 0 0 0 0 0 0 0 139 166 5 24 99 3 106 210 0 0 0 0 26 106 5 139 168 3 62 113 11 106 210 0 0 0 0 138 165 5 0 0 0 0 0 0 0 0 0 0 0 0 142 124 16 0 4 0 161 189 0 53 93 5 147 168 3 52 49 0 0 0 0 122 136 14 45 78 0 156 173 1 50 48 0 
125 142 13 0 0 0 121 106 20 0 0 0 59 56 0 
0 0 0 0 0 0 0 0 0 0 0 0 0 0 0 0 0 0 0 0 0 255 255 151 255 255 255 0 0 0 0 0 0 0 0 0 0 0 0 0 0 0 0 0 0 0 0 0 159 124 61 122 91 43 99 71 33 99 71 33 99 71 33 99 71 33 99 71 33 122 91 43 103 74 34 103 74 34 103 74 34 99 71 33 99 71 33 118 87 41 122 91 43 87 60 27 185 185 185 191 191 191 182 182 182 181 181 181 179 179 179 179 179 179 179 179 179 186 186 186 180 180 180 180 180 180 181 181 181 181 181 181 181 181 181 186 186 186 185 185 185 161 161 161 0 0 0 0 0 0 91 70 37 68 51 27 0 0 0 0 0 0 0 0 0 0 0 0 0 0 0 0 0 0 0 0 0 0 0 0 91 70 37 68 51 27 0 0 0 0 0 0 106 67 31 145 109 56 145 109 56 145 109 56 145 109 56 137 104 50 145 109 56 122 91 43 145 109 56 145 109 56 143 107 53 143 107 53 145 109 56 145 109 56 145 109 56 106 67 31 131 132 131 164 164 164 171 171 171 110 111 111 0 0 0 0 0 0 0 0 0 107 105 107 80 80 80 0 0 0 0 0 0 0 0 0 164 164 164 125 126 124 130 120 111 121 111 102 108 58 21 51 24 7 81 44 15 78 42 14 61 32 10 43 21 6 41 20 6 80 43 15 50 26 8 39 19 5 68 37 12 72 39 13 61 32 10 63 33 10 100 54 19 84 46 15 159 107 66 69 41 21 127 85 51 127 85 51 99 63 36 69 41 21 69 41 21 159 107 66 99 63 36 69 41 21 127 85 51 127 85 51 99 63 36 99 63 36 159 107 66 127 85 51 0 0 0 0 0 0 0 0 0 0 0 0 0 0 0 0 0 0 0 0 0 0 0 0 0 0 0 0 0 0 0 0 0 0 0 0 0 0 0 0 0 0 0 0 0 0 0 0 0 0 0 0 0 0 0 0 0 0 0 0 0 0 0 0 0 0 0 0 0 0 0 0 0 0 0 0 0 0 0 0 0 0 0 0 0 0 0 0 0 0 0 0 0 0 0 0 0 0 0 0 0 0 0 0 0 0 0 0 0 0 0 0 0 0 0 0 0 0 0 0 0 0 0 0 0 0 0 0 0 0 0 0 0 0 0 0 0 0 0 0 0 0 0 0 0 0 0 0 0 0 0 0 0 0 0 0 0 0 0 0 0 0 0 191 10 24 144 16 0 0 0 0 0 0 0 0 0 0 0 0 0 0 0 0 0 0 0 0 0 0 0 0 0 0 0 0 192 0 28 137 14 0 0 0 0 0 0 0 167 2 0 0 0 75 154 17 15 103 4 0 0 0 0 0 0 0 0 0 0 195 0 33 151 18 0 0 0 0 0 0 0 0 0 0 0 0 86 169 14 25 114 7 96 199 4 0 0 0 32 131 12 92 188 9 15 90 0 89 179 11 0 0 0 83 163 15 0 0 0 0 0 0 0 0 0 0 0 0 0 0 0 0 0 0 156 192 0 48 91 4 137 162 7 42 144 16 0 0 0 150 182 0 49 94 5 151 184 0 42 144 16 143 171 2 0 0 0 0 0 0 100 183 10 0 0 0 148 168 4 67 65 1 160 184 0 71 119 13 160 184 0 53 94 5 0 0 0 137 154 9 25 55 0 150 169 3 
61 100 7 160 184 0 0 0 0 151 171 3 39 40 0 0 0 0 
0 0 0 0 0 0 0 0 0 0 0 0 0 0 0 0 0 0 0 0 0 124 98 62 76 61 38 0 0 0 0 0 0 0 0 0 0 0 0 0 0 0 0 0 0 0 0 0 176 151 81 145 109 56 130 89 44 0 0 0 0 0 0 0 0 0 0 0 0 167 138 73 130 89 44 0 0 0 0 0 0 0 0 0 0 0 0 167 138 73 145 109 56 106 67 31 193 193 193 197 197 197 192 192 192 0 0 0 0 0 0 0 0 0 0 0 0 201 201 201 186 186 186 0 0 0 0 0 0 0 0 0 0 0 0 199 199 199 188 188 188 163 163 163 0 0 0 0 0 0 172 136 82 105 81 47 0 0 0 0 0 0 0 0 0 0 0 0 0 0 0 0 0 0 0 0 0 0 0 0 172 136 82 105 81 47 0 0 0 0 0 0 106 67 31 145 109 56 145 109 56 145 109 56 145 109 56 137 104 50 145 109 56 143 107 53 145 109 56 145 109 56 143 107 53 143 107 53 145 109 56 145 109 56 145 109 56 106 67 31 75 77 76 94 93 97 146 146 147 90 90 89 0 0 0 0 0 0 0 0 0 113 105 95 78 79 80 0 0 0 0 0 0 0 0 0 143 142 141 90 87 90 91 94 95 77 77 77 88 48 16 51 25 7 81 44 15 78 42 14 61 32 10 58 31 10 41 20 6 82 44 15 53 28 9 39 20 6 85 46 16 58 31 10 61 32 10 47 23 7 81 44 15 69 36 12 127 85 51 69 41 21 127 85 51 127 85 51 99 63 36 99 63 36 69 41 21 159 107 66 99 63 36 69 41 21 159 107 66 99 63 36 99 63 36 69 41 21 127 85 51 99 63 36 0 0 0 0 0 0 0 0 0 0 0 0 0 0 0 0 0 0 0 0 0 0 0 0 0 0 0 0 0 0 0 0 0 0 0 0 0 0 0 0 0 0 0 0 0 0 0 0 0 0 0 0 0 0 0 0 0 0 0 0 0 0 0 0 0 0 0 0 0 0 0 0 0 0 0 0 0 0 0 0 0 0 0 0 0 0 0 0 0 0 0 0 0 0 0 0 0 0 0 0 0 0 0 0 0 0 0 0 0 0 0 0 0 0 0 132 17 0 0 0 0 0 0 0 0 0 0 0 0 0 0 0 0 0 0 0 0 0 0 0 0 0 0 0 0 0 0 0 177 10 0 0 0 0 0 0 0 0 0 0 0 0 0 0 0 0 198 7 0 0 0 0 0 0 0 0 0 0 0 0 0 190 10 0 0 0 0 0 0 0 0 0 0 0 0 0 0 0 0 184 2 0 0 0 0 0 0 0 187 1 14 100 3 83 193 7 10 77 0 0 0 0 0 0 0 0 163 5 0 0 0 27 133 13 0 0 0 0 0 0 0 0 0 0 0 0 91 192 7 18 96 2 92 195 5 32 130 12 0 0 0 117 146 12 26 117 8 82 158 16 21 107 5 94 197 5 0 0 0 0 0 0 89 177 12 0 0 0 100 183 10 0 0 0 151 185 0 69 124 15 132 157 9 47 88 3 0 0 0 139 168 3 60 110 10 138 164 6 62 113 11 147 173 1 0 0 0 79 138 18 0 0 0 30 113 7 165 191 0 54 94 5 156 174 1 67 113 11 136 151 11 67 113 11 0 0 0 151 171 2 45 78 0 157 175 0 53 94 5 122 137 14 0 0 0 122 136 14 59 97 6 0 0 0 
0 0 0 0 0 0 0 0 0 0 0 0 0 0 0 0 0 0 0 0 0 147 115 68 60 47 28 0 0 0 0 0 0 0 0 0 0 0 0 0 0 0 0 0 0 0 0 0 170 143 71 137 104 50 120 83 39 0 0 0 0 0 0 0 0 0 0 0 0 165 136 69 120 83 39 0 0 0 0 0 0 0 0 0 0 0 0 160 131 64 137 104 50 106 67 31 192 192 192 195 195 195 189 189 189 0 0 0 0 0 0 0 0 0 0 0 0 205 205 205 188 188 188 0 0 0 0 0 0 0 0 0 0 0 0 201 201 201 193 193 193 166 166 166 0 0 0 164 128 74 142 115 60 92 72 37 172 136 82 172 136 82 142 115 60 142 115 60 142 115 60 142 115 60 164 128 74 164 128 74 172 136 82 92 72 37 164 128 74 0 0 0 106 67 31 137 104 50 120 83 39 120 83 39 120 83 39 128 87 42 143 107 53 137 104 50 118 87 41 120 83 39 120 83 39 103 74 34 130 89 44 137 104 50 137 104 50 106 67 31 0 0 0 0 0 0 141 140 141 100 94 86 0 0 0 0 0 0 0 0 0 105 106 103 75 76 76 0 0 0 0 0 0 0 0 0 140 141 141 95 95 95 0 0 0 0 0 0 88 48 16 51 25 8 101 54 20 64 34 10 62 33 10 73 40 13 58 30 9 85 46 16 68 37 12 56 30 9 87 47 17 59 32 10 62 33 10 47 23 7 101 54 20 85 47 15 127 85 51 69 41 21 159 107 66 99 63 36 99 63 36 127 85 51 99 63 36 159 107 66 127 85 51 99 63 36 159 107 66 99 63 36 99 63 36 69 41 21 159 107 66 127 85 51 0 0 0 0 0 0 0 0 0 0 0 0 0 0 0 0 0 0 0 0 0 0 0 0 0 0 0 0 0 0 0 0 0 0 0 0 0 0 0 0 0 0 0 0 0 0 0 0 0 0 0 0 0 0 0 0 0 0 0 0 0 0 0 0 0 0 0 0 0 0 0 0 0 0 0 0 0 0 0 0 0 0 0 0 0 0 0 0 0 0 0 0 0 0 0 0 0 0 0 0 0 0 0 0 0 0 0 0 0 0 0 0 0 0 0 159 17 2 57 0 0 0 0 0 0 0 0 0 0 0 0 0 0 0 0 0 0 0 0 0 0 0 0 0 0 0 0 0 165 12 14 111 6 0 0 0 0 0 0 0 197 8 0 0 0 73 179 11 22 137 14 0 0 0 0 0 0 0 0 0 0 198 7 19 127 11 0 0 0 0 0 0 0 0 0 0 0 0 82 192 7 23 120 9 0 174 2 0 0 0 24 123 10 81 178 12 24 123 10 0 174 2 0 0 0 81 179 11 0 0 0 0 0 0 0 0 0 0 0 0 91 183 10 0 0 0 91 183 10 29 121 9 95 205 1 30 125 10 0 0 0 146 192 0 28 69 0 86 166 15 14 82 0 92 195 5 0 0 0 86 166 15 0 0 0 21 106 5 148 176 0 30 113 7 115 135 15 63 115 12 139 167 5 45 83 2 0 0 0 128 149 12 49 94 5 138 164 6 46 88 3 143 171 3 0 0 0 147 174 1 13 58 0 0 0 0 135 149 12 72 122 14 135 149 12 62 102 8 158 180 0 44 75 0 0 0 0 136 151 12 59 97 6 123 138 14 62 102 8 
122 136 14 0 0 0 118 129 15 25 55 0 0 0 0 
0 0 0 0 0 0 0 0 0 0 0 0 0 0 0 0 0 0 0 0 0 149 117 70 66 53 34 0 0 0 0 0 0 0 0 0 0 0 0 0 0 0 0 0 0 0 0 0 176 151 81 143 107 53 128 87 42 0 0 0 0 0 0 0 0 0 0 0 0 160 131 64 120 83 39 0 0 0 0 0 0 0 0 0 0 0 0 165 136 69 143 107 53 106 67 31 194 194 194 197 197 197 191 191 191 0 0 0 0 0 0 0 0 0 0 0 0 204 204 204 189 189 189 0 0 0 0 0 0 0 0 0 0 0 0 203 203 203 191 191 191 162 162 162 0 0 0 100 79 42 164 128 74 101 77 43 91 70 37 91 70 37 91 70 37 100 79 42 100 79 42 100 79 42 100 79 42 100 79 42 164 128 74 101 77 43 100 79 42 0 0 0 106 67 31 143 107 53 128 87 42 0 0 0 0 0 0 0 0 0 160 131 64 145 109 56 137 104 50 120 83 39 0 0 0 0 0 0 0 0 0 165 136 69 143 107 53 106 67 31 0 0 0 0 0 0 96 96 95 74 67 63 0 0 0 0 0 0 0 0 0 124 125 125 74 77 75 0 0 0 0 0 0 0 0 0 97 98 97 70 70 70 0 0 0 0 0 0 90 48 16 70 38 12 103 55 20 99 54 19 78 42 14 61 33 10 44 21 7 72 39 13 72 39 13 58 31 10 44 21 7 93 50 18 63 33 10 99 54 19 63 63 63 70 38 12 127 85 51 99 63 36 159 107 66 159 107 66 127 85 51 99 63 36 69 41 21 127 85 51 127 85 51 99 63 36 69 41 21 159 107 66 99 63 36 159 107 66 111 111 111 99 63 36 0 0 0 0 0 0 0 0 0 0 0 0 0 0 0 0 0 0 0 0 0 0 0 0 0 0 0 0 0 0 0 0 0 0 0 0 0 0 0 0 0 0 0 0 0 0 0 0 0 0 0 0 0 0 0 0 0 0 0 0 0 0 0 0 0 0 0 180 23 0 0 0 0 0 0 0 0 0 0 0 0 0 0 0 0 0 0 0 0 0 0 0 0 0 0 0 0 0 0 0 208 13 0 0 0 0 0 0 0 0 0 0 0 0 0 0 0 0 190 16 0 0 0 0 0 0 0 0 0 0 0 0 0 0 0 0 0 0 0 0 0 0 0 0 0 0 0 0 0 0 0 187 10 0 0 0 0 0 0 0 153 13 21 135 13 74 188 9 11 107 5 0 0 0 0 0 0 0 174 11 0 0 0 22 137 14 0 0 0 0 0 0 0 0 0 0 0 0 82 183 10 23 121 9 79 170 15 16 107 5 0 0 0 112 147 12 16 106 5 83 188 9 16 107 5 82 183 10 0 0 0 0 0 0 7 224 0 0 0 0 87 173 13 25 113 7 123 154 10 25 113 7 142 186 0 34 138 14 0 0 0 140 179 0 64 124 15 146 192 0 16 91 0 91 183 10 0 0 0 89 179 11 16 91 0 0 0 0 138 165 5 57 103 8 134 159 9 22 55 0 129 151 11 49 93 5 0 0 0 128 149 12 36 72 0 118 140 14 46 88 3 137 163 6 0 0 0 139 166 5 57 102 8 0 0 0 145 162 7 40 72 0 119 131 15 40 72 0 160 184 0 65 109 10 0 0 0 130 144 13 44 75 0 122 136 14 27 58 0 137 154 9 0 0 0 
150 169 3 16 47 0 0 0 0 
0 0 0 0 0 0 0 0 0 0 0 0 0 0 0 0 0 0 0 0 0 159 127 80 64 51 32 0 0 0 0 0 0 0 0 0 0 0 0 0 0 0 0 0 0 0 0 0 159 124 61 118 87 41 122 91 43 148 115 56 144 109 53 144 109 53 144 109 53 148 115 56 122 91 43 148 115 56 148 115 56 148 115 56 144 109 53 144 109 53 118 87 41 87 60 27 187 187 187 191 191 191 192 192 192 200 200 200 198 198 198 198 198 198 198 198 198 199 199 199 191 191 191 199 199 199 199 199 199 197 197 197 191 191 191 188 188 188 178 178 178 156 156 156 0 0 0 0 0 0 100 79 42 72 55 29 0 0 0 0 0 0 0 0 0 0 0 0 0 0 0 0 0 0 0 0 0 0 0 0 91 70 37 68 51 27 0 0 0 0 0 0 87 60 27 118 87 41 103 74 34 0 0 0 0 0 0 0 0 0 148 115 56 122 91 43 137 104 50 103 74 34 0 0 0 0 0 0 0 0 0 144 109 53 118 87 41 87 60 27 0 0 0 0 0 0 111 110 110 86 78 71 0 0 0 0 0 0 0 0 0 163 164 164 107 106 105 0 0 0 0 0 0 0 0 0 164 164 164 101 104 103 0 0 0 0 0 0 91 50 17 71 38 12 69 37 12 102 55 20 80 44 14 63 33 10 62 33 10 75 41 14 44 44 44 75 41 14 45 22 7 96 52 18 65 35 11 102 55 20 69 37 12 53 26 8 127 85 51 99 63 36 99 63 36 159 107 66 127 85 51 99 63 36 99 63 36 127 85 51 85 85 85 127 85 51 69 41 21 159 107 66 99 63 36 159 107 66 99 63 36 69 41 21 0 0 0 0 0 0 0 0 0 0 0 0 0 0 0 0 0 0 0 0 0 0 0 0 0 0 0 0 0 0 0 0 0 0 0 0 0 0 0 0 0 0 0 0 0 0 0 0 0 0 0 0 0 0 0 0 0 0 0 0 0 0 0 0 0 0 0 173 23 7 114 7 0 0 0 0 0 0 0 0 0 0 0 0 0 0 0 0 0 0 0 0 0 0 0 0 0 0 0 0 194 16 21 148 17 0 0 0 0 0 0 0 0 0 0 0 0 67 182 10 15 127 11 0 0 0 0 0 0 0 0 0 0 180 16 0 0 0 0 0 0 0 0 0 0 0 0 0 0 0 68 157 17 18 123 10 0 206 7 0 0 0 6 82 0 73 181 11 16 117 8 0 134 13 0 0 0 73 185 10 0 0 0 0 0 0 0 0 0 0 0 0 0 149 5 0 0 0 83 190 8 20 113 7 65 131 17 13 97 2 0 0 0 109 145 12 25 69 0 75 154 17 21 117 8 71 148 18 0 0 0 0 142 5 0 0 0 40 167 23 89 177 12 19 100 3 135 171 3 37 78 0 88 107 15 59 117 13 0 0 0 117 146 12 55 108 10 116 144 13 64 124 15 122 151 11 0 0 0 127 159 9 21 107 5 0 0 0 147 173 1 46 89 3 130 153 11 45 84 2 117 138 14 40 75 0 0 0 0 116 136 14 36 72 0 118 140 14 27 62 0 116 136 14 0 0 0 143 171 2 48 91 4 0 0 0 136 151 12 51 88 3 123 138 14 17 49 0 135 149 12 
67 113 11 0 0 0 105 117 16 32 66 0 123 138 14 25 55 0 110 123 16 0 0 0 137 154 10 53 94 5 0 0 0 
0 0 0 0 0 0 0 0 0 0 0 0 0 0 0 0 0 0 0 0 0 151 119 72 60 47 28 0 0 0 0 0 0 0 0 0 0 0 0 0 0 0 0 0 0 0 0 0 176 151 81 145 109 56 145 109 56 167 138 73 167 138 73 160 131 64 167 138 73 160 131 64 137 104 50 160 131 64 160 131 64 160 131 64 165 136 69 148 115 56 145 109 56 117 70 34 195 195 195 199 199 199 198 198 198 207 207 207 207 207 207 204 204 204 207 207 207 204 204 204 195 195 195 201 201 201 200 200 200 196 196 196 193 193 193 184 184 184 183 183 183 161 161 161 0 0 0 0 0 0 172 136 82 105 81 47 0 0 0 0 0 0 0 0 0 0 0 0 0 0 0 0 0 0 0 0 0 0 0 0 164 128 74 72 55 29 0 0 0 0 0 0 117 70 34 145 109 56 130 89 44 0 0 0 0 0 0 0 0 0 160 131 64 145 109 56 145 109 56 120 83 39 0 0 0 0 0 0 0 0 0 148 115 56 145 109 56 117 70 34 0 0 0 0 0 0 110 109 109 80 79 78 0 0 0 0 0 0 0 0 0 164 164 164 132 122 111 126 116 107 134 123 113 164 163 162 174 174 175 92 93 92 0 0 0 0 0 0 75 40 12 54 26 8 71 38 12 104 56 20 82 45 15 65 35 11 47 23 7 96 52 18 63 33 10 64 33 10 64 34 10 81 44 15 67 36 11 104 56 20 107 58 21 110 60 21 99 63 36 69 41 21 99 63 36 159 107 66 127 85 51 99 63 36 69 41 21 159 107 66 99 63 36 99 63 36 99 63 36 127 85 51 99 63 36 159 107 66 159 107 66 159 107 66 0 0 0 0 0 0 0 0 0 0 0 0 0 0 0 0 0 0 0 0 0 0 0 0 0 0 0 0 0 0 0 0 0 0 0 0 0 0 0 0 0 0 0 0 0 0 0 0 0 0 0 0 0 0 0 0 0 0 0 0 0 0 0 0 0 0 0 0 0 0 229 16 0 0 0 0 0 0 0 0 0 0 0 0 0 0 0 0 0 0 0 0 0 0 0 0 0 0 0 0 0 0 0 218 11 0 0 0 0 0 0 0 203 14 0 0 0 66 175 13 10 111 6 0 0 0 0 0 0 0 174 17 0 0 0 11 114 7 0 0 0 0 0 0 0 0 0 0 0 0 74 194 6 6 81 0 70 166 15 25 147 17 0 0 0 126 192 0 12 110 6 69 163 15 4 58 0 71 172 14 0 0 0 0 0 0 0 178 11 0 0 0 82 192 7 10 77 0 130 175 0 23 120 9 119 159 9 7 50 0 0 0 0 100 130 15 23 67 0 115 151 12 10 77 0 75 156 17 0 0 0 71 148 18 7 69 0 0 0 0 117 146 12 21 106 5 116 145 12 49 97 6 123 154 10 4 19 0 0 0 0 101 124 15 28 69 0 101 124 15 26 66 0 117 146 12 0 0 0 138 173 1 41 84 2 0 0 0 126 147 12 56 100 7 116 137 14 41 77 0 129 151 11 24 58 0 0 0 0 102 121 16 22 55 0 105 123 16 27 62 0 100 117 16 0 0 0 102 121 16 54 97 6 0 0 0 117 128 15 
44 75 0 106 119 15 27 58 0 107 121 16 40 72 0 0 0 0 105 117 16 10 32 0 107 121 16 27 58 0 105 118 15 0 0 0 107 121 16 45 78 0 0 0 0 
0 0 0 0 0 0 0 0 0 0 0 0 0 0 0 0 0 0 0 0 0 103 82 49 61 48 29 0 0 0 0 0 0 0 0 0 0 0 0 0 0 0 0 0 0 0 0 0 175 148 77 137 104 50 103 74 34 130 89 44 130 89 44 130 89 44 130 89 44 137 104 50 130 89 44 128 87 42 128 87 42 120 83 39 120 83 39 137 104 50 137 104 50 114 69 32 194 194 194 196 196 196 184 184 184 190 190 190 192 192 192 192 192 192 192 192 192 195 195 195 189 189 189 187 187 187 182 182 182 178 178 178 177 177 177 182 182 182 182 182 182 160 160 160 0 0 0 164 128 74 100 79 42 105 81 47 142 115 60 172 136 82 172 136 82 142 115 60 172 136 82 172 136 82 142 115 60 164 128 74 142 115 60 92 72 37 164 128 74 0 0 0 114 69 32 137 104 50 122 91 43 167 138 73 167 138 73 167 138 73 160 131 64 137 104 50 122 91 43 145 109 56 165 136 69 160 131 64 160 131 64 160 131 64 137 104 50 114 69 32 0 0 0 0 0 0 119 109 100 73 70 73 0 0 0 0 0 0 0 0 0 148 146 149 92 93 91 89 89 90 77 78 77 90 90 89 162 145 129 96 96 98 0 0 0 0 0 0 77 41 13 91 50 17 73 39 12 87 47 16 64 38 19 68 36 11 67 35 11 100 54 19 100 54 19 66 35 11 49 24 7 84 45 15 69 37 12 52 26 8 90 48 16 91 50 17 99 63 36 127 85 51 99 63 36 127 85 51 94 66 46 99 63 36 99 63 36 159 107 66 159 107 66 99 63 36 69 41 21 127 85 51 99 63 36 69 41 21 127 85 51 127 85 51 0 0 0 0 0 0 0 0 0 0 0 0 0 0 0 0 0 0 0 184 23 0 0 0 0 0 0 0 0 0 0 0 0 0 0 0 0 0 0 0 0 0 0 0 0 0 0 0 0 0 0 0 180 22 0 0 0 0 0 0 0 0 0 0 0 0 0 0 0 61 186 9 24 172 24 0 0 0 0 0 0 0 0 0 0 203 21 0 0 0 0 0 0 0 0 0 0 0 0 0 0 0 58 140 18 26 160 21 0 162 18 0 0 0 20 143 16 63 157 17 7 103 4 0 148 17 0 0 0 63 157 17 0 0 0 0 0 0 0 0 0 0 0 0 0 184 11 0 0 0 73 177 12 18 124 10 63 146 17 6 91 0 0 0 0 120 175 0 54 124 15 64 148 18 6 89 0 74 194 6 0 0 0 0 148 12 0 0 0 15 113 7 75 154 17 23 121 9 116 154 9 47 102 8 106 140 14 37 84 2 0 0 0 90 118 15 11 49 0 114 149 11 32 75 0 104 136 14 0 0 0 95 123 16 8 70 0 0 0 0 107 131 15 28 69 0 107 132 14 26 67 0 100 123 16 37 78 0 0 0 0 96 119 15 6 41 0 95 117 16 6 41 0 119 147 12 0 0 0 96 119 15 51 100 7 0 0 0 115 135 15 31 69 0 98 114 15 22 56 0 106 125 16 40 75 0 0 0 0 105 123 16 
8 37 0 67 79 13 8 40 0 105 122 16 0 0 0 102 121 16 8 37 0 0 0 0 111 125 16 15 46 0 124 140 13 10 35 0 103 114 15 10 37 0 0 0 0 99 108 15 10 32 0 96 106 16 10 37 0 93 105 16 0 0 0 92 103 15 10 37 0 0 0 0 
0 0 0 0 0 0 0 0 0 0 0 0 0 0 0 0 0 0 0 0 0 152 120 73 59 46 27 0 0 0 0 0 0 0 0 0 0 0 0 0 0 0 0 0 0 0 0 0 176 151 81 145 109 56 120 83 39 137 104 50 137 104 50 145 109 56 145 109 56 160 131 64 130 89 44 145 109 56 137 104 50 67 67 67 46 46 46 24 24 24 117 70 34 117 70 34 194 194 194 197 197 197 187 187 187 192 192 192 193 193 193 196 196 196 195 195 195 200 200 200 187 187 187 193 193 193 185 185 185 182 182 182 184 184 184 167 167 167 167 167 167 158 158 158 0 0 0 100 79 42 142 115 60 92 72 37 91 70 37 91 70 37 109 83 47 91 70 37 100 79 42 100 79 42 100 79 42 91 70 37 172 136 82 105 81 47 100 79 42 0 0 0 117 70 34 145 109 56 137 104 50 137 104 50 137 104 50 145 109 56 145 109 56 143 107 53 145 109 56 145 109 56 137 104 50 143 107 53 145 109 56 145 109 56 145 109 56 117 70 34 0 0 0 0 0 0 110 111 110 76 76 77 0 0 0 0 0 0 0 0 0 131 121 112 94 92 91 0 0 0 0 0 0 0 0 0 120 120 121 92 91 94 0 0 0 0 0 0 96 53 17 76 41 13 55 27 8 110 60 21 108 58 21 70 38 12 51 25 8 69 36 12 104 56 20 69 36 12 51 25 8 86 47 15 71 38 12 54 26 8 113 61 22 94 51 17 127 85 51 99 63 36 69 41 21 159 107 66 159 107 66 99 63 36 69 41 21 99 63 36 159 107 66 99 63 36 69 41 21 127 85 51 99 63 36 69 41 21 159 107 66 127 85 51 0 0 0 0 0 0 0 0 0 0 0 0 0 0 0 0 0 0 0 0 0 0 173 23 0 0 0 0 0 0 0 0 0 0 0 0 0 0 0 0 0 0 0 0 0 0 0 0 0 0 0 0 0 0 0 215 19 0 0 0 0 0 0 0 0 0 0 0 0 61 179 11 7 114 7 0 0 0 0 0 0 0 229 16 0 0 0 16 143 16 0 0 0 0 0 0 0 0 0 0 0 0 64 162 16 2 62 0 57 138 18 4 93 1 0 0 0 93 135 15 3 81 0 63 158 16 3 75 0 55 129 18 0 0 0 0 0 0 0 0 0 0 0 0 73 180 11 17 120 9 102 145 12 11 106 5 109 153 11 4 67 0 0 0 0 100 140 13 41 102 8 114 165 5 4 70 0 71 172 14 0 0 0 61 138 18 6 75 0 0 0 0 100 129 15 10 77 0 98 126 15 33 78 0 106 140 14 21 62 0 0 0 0 85 110 16 4 33 0 100 130 15 28 72 0 98 126 15 0 0 0 101 132 14 4 40 0 0 0 0 95 118 15 13 49 0 79 96 15 15 50 0 77 93 14 6 40 0 0 0 0 82 100 15 6 35 0 82 100 15 6 32 0 105 128 15 0 0 0 93 115 16 6 35 0 0 0 0 89 105 16 22 55 0 93 107 15 5 29 0 96 112 16 9 43 0 0 0 0 75 87 14 8 40 0 93 107 15 0 0 0 
88 103 15 0 0 0 105 123 16 8 37 0 0 0 0 105 118 15 11 43 0 92 103 15 30 62 0 102 113 16 6 29 0 0 0 0 89 99 15 6 21 0 90 101 15 6 18 0 90 100 15 0 0 0 99 108 15 6 15 0 0 0 0 
0 0 0 0 0 0 0 0 0 0 0 0 0 0 0 0 0 0 0 0 0 103 82 49 55 42 23 0 0 0 0 0 0 0 0 0 0 0 0 0 0 0 0 0 0 0 0 0 53 53 53 122 91 43 103 74 34 125 92 45 118 87 41 118 87 41 125 92 45 144 109 53 103 74 34 122 91 43 122 91 43 24 24 24 82 57 25 144 109 53 82 57 25 87 60 27 79 79 79 186 186 186 179 179 179 184 184 184 179 179 179 177 177 177 176 176 176 179 179 179 167 167 167 176 176 176 175 175 175 176 176 176 184 184 184 179 179 179 160 160 160 159 159 159 0 0 0 0 0 0 100 79 42 76 57 32 0 0 0 0 0 0 0 0 0 0 0 0 0 0 0 0 0 0 0 0 0 0 0 0 65 50 27 68 51 27 0 0 0 0 0 0 87 60 27 87 60 27 87 60 27 91 60 28 82 57 25 82 57 25 91 60 28 82 57 25 87 60 27 87 60 27 87 60 27 82 57 25 73 53 24 82 57 25 82 57 25 87 60 27 0 0 0 0 0 0 113 114 113 77 77 77 0 0 0 0 0 0 0 0 0 100 99 98 63 63 63 0 0 0 0 0 0 0 0 0 99 99 98 69 69 66 0 0 0 0 0 0 99 54 18 96 53 17 56 27 8 114 61 22 91 50 17 90 48 16 72 38 12 108 58 21 88 48 16 71 38 12 72 38 12 110 60 21 91 50 17 75 40 12 116 63 23 58 28 8 127 85 51 127 85 51 69 41 21 159 107 66 127 85 51 127 85 51 99 63 36 159 107 66 127 85 51 99 63 36 99 63 36 159 107 66 127 85 51 99 63 36 159 107 66 69 41 21 0 0 0 0 0 0 0 188 22 0 0 0 0 0 0 0 0 0 0 0 0 0 226 16 5 106 5 0 0 0 0 0 0 0 198 21 0 0 0 0 0 0 0 0 0 0 0 0 0 0 0 0 0 0 61 206 0 19 155 19 0 149 22 0 0 0 0 0 0 59 167 14 5 107 5 0 187 22 0 0 0 58 154 17 0 0 0 0 0 0 0 0 0 0 0 0 0 155 17 0 0 0 98 144 13 3 87 0 90 130 15 2 58 0 0 0 0 107 160 7 11 55 0 87 125 16 3 82 0 97 143 13 0 0 0 0 137 16 0 0 0 0 0 0 59 131 17 11 108 5 102 145 12 20 67 0 102 144 13 29 77 0 0 0 0 102 145 12 18 62 0 94 130 15 34 89 3 91 125 16 0 0 0 93 128 15 4 58 0 0 0 0 96 124 15 10 47 0 92 121 16 9 45 0 99 128 15 21 62 0 0 0 0 99 128 15 3 25 0 82 106 16 11 49 0 85 110 16 0 0 0 86 112 16 12 50 0 0 0 0 84 103 15 6 33 0 82 101 15 0 6 0 74 90 15 0 3 0 0 0 0 71 87 14 2 12 0 66 82 14 2 12 0 85 105 16 0 0 0 107 132 14 6 31 0 0 0 0 94 108 15 5 18 0 100 117 16 5 19 0 98 115 16 5 26 0 0 0 0 97 113 16 0 0 0 68 81 13 5 19 0 100 117 16 0 0 0 85 99 15 8 40 0 0 0 0 86 94 15 10 33 0 105 118 15 6 15 0 
85 93 14 6 27 0 0 0 0 85 93 14 1 10 0 67 75 13 4 12 0 100 110 16 0 0 0 79 86 14 6 21 0 0 0 0 
0 0 0 0 0 0 0 0 0 0 0 0 0 0 0 0 0 0 0 0 0 0 0 0 0 0 0 0 0 0 0 0 0 0 0 0 0 0 0 0 0 0 0 0 0 0 0 0 111 111 111 137 104 50 120 83 39 137 104 50 137 104 50 145 109 56 145 109 56 165 136 69 120 83 39 145 109 56 145 109 56 145 109 56 145 109 56 167 138 73 145 109 56 106 67 31 129 129 129 193 193 193 186 186 186 192 192 192 193 193 193 195 195 195 195 195 195 203 203 203 187 187 187 195 195 195 194 194 194 192 192 192 191 191 191 199 199 199 188 188 188 170 170 170 0 0 0 0 0 0 0 0 0 0 0 0 0 0 0 0 0 0 0 0 0 0 0 0 0 0 0 0 0 0 0 0 0 0 0 0 0 0 0 0 0 0 0 0 0 0 0 0 159 159 159 152 152 152 124 140 94 122 138 93 105 126 65 107 127 67 106 127 67 148 148 148 148 148 148 148 148 148 148 148 148 154 154 154 141 141 141 109 123 84 109 122 84 96 96 96 159 159 159 152 152 152 160 160 160 156 156 156 144 144 144 156 156 156 113 113 113 112 112 112 148 148 148 148 148 148 148 148 148 154 154 154 141 141 141 143 143 143 142 142 142 96 96 96 160 90 11 160 90 11 208 124 20 208 124 20 160 90 11 208 124 20 208 124 20 160 90 11 160 90 11 208 124 20 208 124 20 208 124 20 160 90 11 208 124 20 160 90 11 160 90 11 194 115 115 166 89 89 166 89 89 154 83 83 194 134 105 115 60 60 82 40 40 78 39 39 78 39 39 131 13 13 194 115 115 166 89 89 116 61 61 78 39 39 169 92 92 194 115 115 95 73 59 98 75 61 59 41 30 79 59 46 60 41 30 65 46 35 56 38 27 50 33 22 71 52 40 72 52 40 72 52 40 101 80 68 69 49 37 56 38 27 49 32 22 85 65 53 255 188 94 122 91 44 79 56 16 79 56 16 79 56 16 79 56 16 255 188 94 122 91 44 114 111 73 114 111 73 114 111 73 255 188 94 255 188 94 192 143 70 122 91 44 114 111 73 205 205 205 220 220 220 113 99 58 124 99 59 113 99 58 105 77 52 105 77 52 205 205 205 205 205 205 105 77 52 124 99 59 124 99 59 113 99 58 96 110 62 220 220 220 205 205 205 205 205 205 220 220 220 113 99 58 124 99 59 113 99 58 105 77 52 105 77 52 205 205 205 205 205 205 105 77 52 124 99 59 124 99 59 113 99 58 119 96 61 220 220 220 205 205 205 205 205 205 165 165 165 117 92 60 124 94 59 113 94 62 119 92 53 113 94 62 205 205 205 165 165 165 108 88 59 111 100 50 119 96 61 
122 94 51 108 88 59 165 165 165 205 205 205 56 56 56 53 53 53 53 53 53 51 51 51 48 48 48 47 47 47 45 45 45 45 45 45 36 36 36 59 59 59 56 56 56 53 53 53 45 45 45 39 39 39 54 54 54 50 50 50 56 56 56 53 53 53 53 53 53 51 51 51 48 48 48 47 47 47 45 45 45 45 45 45 36 36 36 59 59 59 56 56 56 53 53 53 45 45 45 39 39 39 54 54 54 50 50 50 0 0 0 0 0 0 0 0 0 0 0 0 0 0 0 0 0 0 0 0 0 0 0 0 0 0 0 0 0 0 0 0 0 0 0 0 0 0 0 0 0 0 0 0 0 0 0 0 
0 0 0 0 0 0 0 0 0 0 0 0 0 0 0 0 0 0 0 0 0 0 0 0 0 0 0 0 0 0 0 0 0 0 0 0 0 0 0 0 0 0 0 0 0 0 0 0 176 151 81 145 109 56 143 107 53 148 115 56 165 136 69 165 136 69 160 131 64 160 131 64 137 104 50 160 131 64 160 131 64 165 136 69 160 131 64 165 136 69 145 109 56 106 67 31 208 208 208 198 198 198 197 197 197 199 199 199 206 206 206 206 206 206 204 204 204 203 203 203 196 196 196 203 203 203 201 201 201 200 200 200 194 194 194 193 193 193 183 183 183 165 165 165 0 0 0 0 0 0 0 0 0 0 0 0 0 0 0 0 0 0 0 0 0 0 0 0 0 0 0 0 0 0 0 0 0 0 0 0 0 0 0 0 0 0 0 0 0 0 0 0 156 156 156 136 136 136 136 136 136 136 136 136 101 114 76 136 136 136 136 136 136 136 136 136 115 115 115 127 127 127 127 127 127 121 121 121 127 127 127 127 127 127 94 112 59 92 105 67 156 156 156 136 136 136 136 136 136 136 136 136 121 121 121 107 107 107 107 107 107 97 97 97 100 100 100 127 127 127 127 127 127 121 121 121 127 127 127 127 127 127 123 123 123 97 97 97 160 90 11 227 166 75 160 90 11 227 166 75 227 144 29 208 124 20 160 90 11 208 124 20 227 144 29 160 90 11 227 144 29 227 144 29 227 144 29 208 124 20 160 90 11 160 90 11 194 115 115 166 89 89 69 7 7 136 79 79 29 10 10 78 39 39 194 115 115 131 13 13 78 39 39 90 6 6 146 86 86 90 6 6 104 8 8 109 47 35 98 50 50 169 99 99 68 49 37 84 65 51 108 88 74 98 75 61 111 87 73 98 75 61 121 97 82 81 62 49 59 42 30 57 38 28 103 79 65 103 79 65 49 32 22 50 33 22 91 73 62 77 59 48 122 91 44 255 255 255 192 143 70 79 56 16 114 111 73 255 188 94 192 143 70 255 255 255 79 56 16 114 111 73 255 188 94 122 91 44 249 212 156 255 255 255 192 143 70 79 56 16 220 220 220 239 239 239 180 144 90 111 171 100 125 132 76 180 144 90 110 102 59 218 218 218 219 219 219 188 152 98 159 132 77 180 144 90 115 127 70 141 199 122 239 239 239 220 220 220 220 220 220 239 239 239 180 144 90 180 144 90 180 144 90 180 144 90 116 90 59 218 218 218 219 219 219 188 152 98 159 132 77 180 144 90 159 132 77 180 144 90 239 239 239 220 220 220 205 205 205 134 134 134 180 144 90 188 152 98 180 144 90 180 144 90 159 132 77 205 205 205 134 134 134 
159 132 77 159 132 77 180 144 90 180 144 90 159 132 77 134 134 134 205 205 205 56 56 56 108 108 108 90 90 90 97 97 97 71 71 71 87 87 87 114 114 114 114 114 114 76 76 76 97 97 97 100 100 100 97 97 97 87 87 87 69 69 69 86 86 86 50 50 50 56 56 56 108 108 108 90 90 90 97 97 97 71 71 71 87 87 87 114 114 114 114 114 114 76 76 76 97 97 97 100 100 100 97 97 97 87 87 87 69 69 69 86 86 86 50 50 50 0 0 0 0 0 0 0 0 0 0 0 0 0 0 0 0 0 0 140 140 140 0 0 0 0 0 0 0 0 0 0 0 0 0 0 0 0 0 0 0 0 0 0 0 0 0 0 0 
0 0 0 0 0 0 0 0 0 0 0 0 0 0 0 0 0 0 0 0 0 0 0 0 0 0 0 0 0 0 0 0 0 0 0 0 0 0 0 0 0 0 0 0 0 0 0 0 176 151 81 145 109 56 137 104 50 137 104 50 137 104 50 137 104 50 143 107 53 143 107 53 145 109 56 145 109 56 145 109 56 143 107 53 122 91 43 145 109 56 145 109 56 106 67 31 209 209 209 199 199 199 197 197 197 197 197 197 196 196 196 196 196 196 197 197 197 197 197 197 196 196 196 191 191 191 188 188 188 185 185 185 177 177 177 182 182 182 180 180 180 162 162 162 0 0 0 0 0 0 0 0 0 0 0 0 0 0 0 0 0 0 0 0 0 0 0 0 0 0 0 0 0 0 0 0 0 0 0 0 0 0 0 0 0 0 0 0 0 0 0 0 144 144 144 121 121 121 101 114 76 121 121 121 136 136 136 121 121 121 127 127 127 127 127 127 112 127 82 136 136 136 127 127 127 127 127 127 127 127 127 99 112 73 82 97 55 81 95 53 144 144 144 121 121 121 121 121 121 121 121 121 107 107 107 102 102 102 143 143 143 147 147 147 129 129 129 107 107 107 104 104 104 127 127 127 127 127 127 101 101 101 98 98 98 93 93 93 208 124 20 227 166 75 227 166 75 160 90 11 227 144 29 227 144 29 160 90 11 227 166 75 227 144 29 160 90 11 227 144 29 227 144 29 227 166 75 160 90 11 208 124 20 208 124 20 91 50 50 115 60 60 136 79 79 40 19 19 77 37 37 131 13 13 194 115 115 94 6 6 36 14 14 23 10 10 126 66 66 90 6 6 41 17 17 95 54 54 60 8 8 141 82 82 103 83 70 72 52 40 102 79 65 50 33 22 56 38 27 98 75 61 56 38 27 95 72 58 92 73 61 50 33 22 129 106 91 50 33 22 68 49 37 65 46 35 83 65 54 64 46 35 122 91 44 122 91 44 79 56 16 114 111 73 122 91 44 114 111 73 79 56 16 122 91 44 79 56 16 114 111 73 114 111 73 79 56 16 192 143 70 192 143 70 79 56 16 114 111 73 105 86 47 188 152 98 140 198 121 98 155 86 115 127 70 125 132 76 139 140 94 166 194 138 129 136 80 159 132 77 188 152 98 125 132 76 174 199 143 124 192 112 129 136 80 113 99 58 105 86 47 188 152 98 159 132 77 159 132 77 159 132 77 180 144 90 113 99 58 150 124 73 188 152 98 159 132 77 188 152 98 180 144 90 180 144 90 188 152 98 188 152 98 113 99 58 165 165 165 118 118 118 159 132 77 180 144 90 180 144 90 159 132 77 159 132 77 165 165 165 118 118 118 180 144 90 188 152 98 180 144 90 
188 152 98 159 132 77 118 118 118 165 165 165 41 41 41 82 82 82 120 120 120 85 85 85 98 98 98 143 143 143 143 143 143 122 122 122 101 101 101 81 81 81 132 132 132 127 127 127 95 95 95 120 120 120 80 80 80 48 48 48 41 41 41 82 82 82 120 120 120 85 85 85 98 98 98 143 143 143 143 143 143 122 122 122 101 101 101 81 81 81 132 132 132 127 127 127 95 95 95 120 120 120 80 80 80 48 48 48 0 0 0 0 0 0 0 0 0 0 0 0 0 0 0 0 0 0 186 186 186 84 84 84 0 0 0 0 0 0 0 0 0 0 0 0 0 0 0 0 0 0 0 0 0 0 0 0 
0 0 0 0 0 0 0 0 0 0 0 0 0 0 0 0 0 0 0 0 0 0 0 0 0 0 0 0 0 0 0 0 0 0 0 0 0 0 0 0 0 0 0 0 0 0 0 0 156 119 59 118 87 41 99 71 33 103 74 34 103 74 34 103 74 34 103 74 34 122 91 43 103 74 34 103 74 34 99 71 33 99 71 33 99 71 33 118 87 41 122 91 43 87 60 27 199 199 199 190 190 190 185 185 185 186 186 186 185 185 185 184 184 184 183 183 183 187 187 187 177 177 177 172 172 172 169 169 169 169 169 169 170 170 170 175 175 175 175 175 175 159 159 159 0 0 0 0 0 0 0 0 0 0 0 0 0 0 0 0 0 0 0 0 0 0 0 0 0 0 0 0 0 0 0 0 0 0 0 0 0 0 0 0 0 0 0 0 0 0 0 0 151 151 151 115 115 115 103 117 78 136 136 136 127 127 127 112 127 82 109 125 79 109 125 79 109 125 79 121 121 121 121 121 121 127 127 127 103 117 78 97 107 80 97 110 71 91 104 66 100 100 100 104 104 104 127 127 127 107 107 107 104 104 104 104 104 104 145 145 145 121 121 121 121 121 121 121 121 121 121 121 121 104 104 104 106 106 106 132 132 132 133 133 133 95 95 95 208 124 20 227 144 29 227 144 29 227 144 29 160 90 11 227 144 29 160 90 11 227 144 29 227 144 29 160 90 11 227 144 29 208 124 20 160 90 11 208 124 20 227 144 29 208 124 20 119 68 68 70 38 38 23 9 9 95 54 54 172 92 92 107 61 61 160 94 94 175 114 89 50 25 25 75 36 36 41 17 17 57 29 29 78 39 39 184 109 109 137 15 15 93 52 52 68 49 37 56 38 27 121 97 83 50 33 22 121 97 83 102 79 64 50 33 22 92 73 61 71 52 40 59 41 30 72 52 40 72 52 40 69 49 37 69 49 37 79 59 47 145 121 106 114 111 73 79 56 16 114 111 73 255 188 94 122 91 44 122 91 44 114 111 73 79 56 16 114 111 73 255 188 94 122 91 44 114 111 73 79 56 16 79 56 16 114 111 73 114 111 73 105 77 52 138 138 93 138 138 93 139 139 94 139 139 94 119 96 58 117 100 59 123 142 83 129 144 87 120 94 59 116 99 58 125 140 85 138 138 93 115 131 76 130 144 87 105 77 52 105 77 52 105 84 51 105 84 51 115 94 57 115 94 57 115 94 57 116 90 59 105 84 51 105 84 51 116 90 59 105 84 51 105 84 51 105 84 51 105 84 51 115 94 57 105 77 52 145 145 145 112 112 112 108 88 59 110 80 46 118 95 51 105 86 47 110 80 46 145 145 145 112 112 112 115 94 59 105 77 52 107 84 56 106 85 51 119 94 62 112 112 112 
145 145 145 45 45 45 80 80 80 92 92 92 111 111 111 152 152 152 103 103 103 136 136 136 135 135 135 95 95 95 110 110 110 89 89 89 91 91 91 105 105 105 139 139 139 105 105 105 41 41 41 45 45 45 80 80 80 92 92 92 111 111 111 152 152 152 103 103 103 136 136 136 135 135 135 95 95 95 110 110 110 89 89 89 91 91 91 105 105 105 139 139 139 105 105 105 41 41 41 0 0 0 0 0 0 0 0 0 0 0 0 0 0 0 0 0 0 177 177 177 151 151 151 0 0 0 0 0 0 0 0 0 0 0 0 0 0 0 0 0 0 0 0 0 0 0 0 
0 0 0 0 0 0 0 0 0 0 0 0 0 0 0 0 0 0 0 0 0 0 0 0 0 0 0 0 0 0 0 0 0 0 0 0 0 0 0 0 0 0 0 0 0 0 0 0 176 151 81 137 104 50 120 83 39 137 104 50 137 104 50 145 109 56 145 109 56 160 131 64 130 89 44 137 104 50 137 104 50 122 91 43 143 107 53 165 136 69 143 107 53 117 70 34 206 206 206 196 196 196 189 189 189 196 196 196 195 195 195 196 196 196 194 194 194 195 195 195 181 181 181 183 183 183 182 182 182 177 177 177 182 182 182 191 191 191 181 181 181 163 163 163 0 0 0 0 0 0 0 0 0 0 0 0 0 0 0 0 0 0 0 0 0 0 0 0 0 0 0 0 0 0 0 0 0 0 0 0 0 0 0 0 0 0 0 0 0 0 0 0 148 148 148 121 121 121 121 121 121 121 121 121 109 125 79 109 125 79 136 136 136 136 136 136 136 136 136 136 136 136 136 136 136 115 115 115 94 103 77 97 107 80 116 116 116 93 93 93 148 148 148 143 143 143 102 102 102 102 102 102 145 145 145 145 145 145 136 136 136 136 136 136 136 136 136 136 136 136 136 136 136 100 100 100 147 147 147 136 136 136 116 116 116 93 93 93 160 90 11 208 124 20 227 144 29 227 144 29 208 124 20 208 124 20 160 90 11 227 144 29 208 124 20 227 144 29 227 144 29 160 90 11 227 144 29 227 166 75 208 124 20 160 90 11 225 165 129 194 115 115 141 80 62 95 54 54 194 115 115 143 84 84 143 84 84 33 9 9 95 54 54 151 81 81 146 78 78 168 99 99 68 32 32 170 109 85 126 13 13 95 54 54 82 61 50 71 52 40 108 88 75 119 94 80 56 38 27 50 33 22 73 55 44 133 109 94 71 52 40 99 80 67 95 76 63 121 97 82 130 106 91 68 49 37 82 62 50 95 76 63 79 56 16 114 111 73 255 188 94 192 143 70 249 212 156 249 212 156 192 143 70 79 56 16 255 188 94 192 143 70 122 91 44 79 56 16 114 111 73 114 111 73 255 188 94 255 188 94 113 99 58 159 132 77 115 127 70 158 206 143 157 209 142 107 169 97 123 159 94 115 127 70 104 143 84 116 154 88 169 196 139 111 171 100 107 169 97 125 132 76 125 132 76 119 96 61 113 99 58 159 132 77 159 132 77 159 132 77 159 132 77 188 152 98 188 152 98 159 132 77 116 90 59 159 132 77 159 132 77 180 144 90 180 144 90 180 144 90 180 144 90 119 96 61 50 50 50 54 54 54 39 39 39 45 45 45 53 53 53 56 56 56 59 59 59 36 36 36 45 45 45 45 45 45 47 47 47 48 48 48 
51 51 51 53 53 53 53 53 53 50 50 50 56 56 56 114 114 114 120 120 120 105 105 105 143 143 143 123 123 123 123 123 123 91 91 91 105 105 105 137 137 137 149 149 149 148 148 148 115 115 115 134 134 134 112 112 112 36 36 36 56 56 56 114 114 114 120 120 120 105 105 105 121 121 121 121 121 121 121 121 121 127 127 127 142 142 142 127 127 127 121 121 121 127 127 127 115 115 115 134 134 134 112 112 112 36 36 36 0 0 0 0 0 0 0 0 0 0 0 0 0 0 0 0 0 0 0 0 0 182 182 182 0 0 0 0 0 0 0 0 0 0 0 0 0 0 0 0 0 0 0 0 0 0 0 0 
0 0 0 0 0 0 0 0 0 0 0 0 0 0 0 0 0 0 0 0 0 0 0 0 0 0 0 0 0 0 0 0 0 0 0 0 0 0 0 0 0 0 0 0 0 0 0 0 170 143 71 137 104 50 103 74 34 143 107 53 143 107 53 143 107 53 145 109 56 160 131 64 128 87 42 143 107 53 143 107 53 143 107 53 137 104 50 160 131 64 137 104 50 106 67 31 202 202 202 193 193 193 183 183 183 194 194 194 194 194 194 193 193 193 193 193 193 193 193 193 177 177 177 180 180 180 179 179 179 178 178 178 177 177 177 185 185 185 178 178 178 163 163 163 0 0 0 0 0 0 0 0 0 0 0 0 0 0 0 0 0 0 0 0 0 253 0 0 253 0 0 0 0 0 0 0 0 0 0 0 0 0 0 0 0 0 0 0 0 0 0 0 147 147 147 101 114 76 121 121 121 121 121 121 127 127 127 115 115 115 127 127 127 127 127 127 121 121 121 121 121 121 115 115 115 127 127 127 92 101 74 121 121 121 106 106 106 97 97 97 147 147 147 121 121 121 102 102 102 145 145 145 127 127 127 115 115 115 127 127 127 127 127 127 121 121 121 121 121 121 115 115 115 104 104 104 121 121 121 121 121 121 106 106 106 97 97 97 160 90 11 160 90 11 160 90 11 160 90 11 227 144 29 160 90 11 61 44 0 61 44 0 227 144 29 227 144 29 160 90 11 227 144 29 208 124 20 160 90 11 160 90 11 160 90 11 79 7 7 143 84 84 112 58 58 95 54 54 108 56 56 99 7 7 136 79 79 50 25 25 184 109 109 217 130 130 129 74 74 146 86 86 149 87 68 93 52 52 20 10 10 43 18 18 71 52 40 56 38 27 56 38 27 103 79 65 50 33 22 81 62 51 53 36 25 105 82 67 59 41 30 70 52 41 95 73 59 53 35 25 106 82 67 114 90 75 140 117 102 65 46 35 79 56 16 122 91 44 122 91 44 249 212 156 255 255 255 255 255 255 249 212 156 122 91 44 192 143 70 255 255 255 79 56 16 79 56 16 114 111 73 255 188 94 255 255 255 249 212 156 124 99 59 159 132 77 125 132 76 141 199 122 124 192 112 107 169 97 116 154 88 115 127 70 157 187 134 141 199 122 125 132 76 125 132 76 115 127 70 159 132 77 159 132 77 105 77 52 124 99 59 159 132 77 180 144 90 180 144 90 180 144 90 180 144 90 159 132 77 159 132 77 113 99 58 180 144 90 180 144 90 180 144 90 159 132 77 159 132 77 159 132 77 105 77 52 56 56 56 108 108 108 90 90 90 97 97 97 71 71 71 87 87 87 157 157 157 114 114 114 76 76 76 97 97 97 100 100 100 
97 97 97 87 87 87 69 69 69 86 86 86 50 50 50 43 43 43 89 89 89 126 126 126 111 111 111 124 124 124 125 125 125 120 120 120 88 88 88 145 145 145 145 145 145 124 124 124 131 131 131 123 123 123 104 104 104 56 56 56 36 36 36 43 43 43 89 89 89 126 126 126 111 111 111 127 127 127 176 176 176 168 168 168 176 176 176 176 176 176 168 168 168 163 163 163 121 121 121 123 123 123 104 104 104 56 56 56 36 36 36 0 0 0 0 0 0 0 0 0 0 0 0 0 0 0 0 0 0 0 0 0 182 182 182 144 144 144 0 0 0 0 0 0 0 0 0 0 0 0 0 0 0 0 0 0 0 0 0 
0 0 0 0 0 0 0 0 0 0 0 0 0 0 0 0 0 0 0 0 0 125 125 125 112 112 112 0 0 0 0 0 0 0 0 0 0 0 0 0 0 0 0 0 0 0 0 0 176 151 81 145 109 56 130 89 44 143 107 53 145 109 56 145 109 56 145 109 56 160 131 64 120 83 39 137 104 50 122 91 43 145 109 56 145 109 56 167 138 73 145 109 56 117 70 34 199 199 199 186 186 186 178 178 178 181 181 181 179 179 179 180 180 180 183 183 183 188 188 188 173 173 173 179 179 179 173 173 173 179 179 179 177 177 177 186 186 186 179 179 179 160 160 160 0 0 0 0 0 0 0 0 0 0 0 0 0 0 0 0 0 0 253 0 0 255 216 0 255 143 0 253 0 0 0 0 0 0 0 0 0 0 0 0 0 0 0 0 0 0 0 0 141 141 141 114 114 114 120 120 120 116 116 116 83 97 56 83 97 56 83 97 56 110 110 110 99 112 74 99 112 74 112 112 112 101 101 101 108 108 108 116 116 116 114 114 114 97 97 97 128 128 128 94 94 94 101 101 101 143 143 143 110 110 110 94 94 94 94 94 94 94 94 94 134 134 134 116 116 116 98 98 98 94 94 94 140 140 140 116 116 116 114 114 114 97 97 97 208 124 20 227 144 29 227 144 29 227 144 29 160 90 11 61 44 0 227 170 0 183 134 0 61 44 0 160 90 11 227 144 29 208 124 20 160 90 11 227 144 29 208 124 20 208 124 20 90 6 6 136 79 79 115 60 60 95 54 54 91 46 46 28 9 9 50 25 25 82 40 40 100 56 56 103 8 8 176 103 103 136 79 79 101 52 52 136 79 79 89 6 6 55 8 8 50 33 22 106 82 67 56 38 27 68 49 37 133 109 94 106 82 67 111 87 72 56 39 28 70 53 41 60 41 30 132 109 95 50 33 22 102 79 65 106 82 68 70 52 40 105 82 67 114 111 73 79 56 16 79 56 16 192 143 70 249 212 156 249 212 156 255 188 94 79 56 16 122 91 44 79 56 16 114 111 73 114 111 73 122 91 44 192 143 70 249 212 156 79 56 16 124 99 59 113 99 58 113 99 58 108 100 57 108 100 57 114 118 68 116 120 70 109 103 59 130 144 87 114 120 70 114 120 70 112 104 59 124 99 59 113 99 58 105 77 52 105 77 52 124 99 59 113 99 58 113 99 58 110 80 46 110 80 46 110 80 46 124 99 59 115 94 57 115 94 57 113 99 58 113 99 58 124 99 59 124 99 59 113 99 58 105 77 52 105 77 52 41 41 41 82 82 82 120 120 120 85 85 85 98 98 98 143 143 143 143 143 143 122 122 122 101 101 101 81 81 81 132 132 132 127 127 127 95 95 95 120 120 120 80 80 80 
48 48 48 50 50 50 97 97 97 127 127 127 111 111 111 116 116 116 89 89 89 104 104 104 121 121 121 113 113 113 133 133 133 143 143 143 127 127 127 130 130 130 135 135 135 97 97 97 35 35 35 50 50 50 97 97 97 127 127 127 111 111 111 142 142 142 163 163 163 45 45 45 45 45 45 45 45 45 45 45 45 168 168 168 127 127 127 130 130 130 135 135 135 97 97 97 35 35 35 0 0 0 0 0 0 0 0 0 0 0 0 0 0 0 181 181 181 0 0 0 195 195 195 144 144 144 0 0 0 0 0 0 0 0 0 0 0 0 0 0 0 0 0 0 0 0 0 
0 0 0 0 0 0 0 0 0 0 0 0 0 0 0 0 0 0 0 0 0 128 128 128 114 114 114 0 0 0 0 0 0 0 0 0 0 0 0 0 0 0 0 0 0 0 0 0 159 124 61 122 91 43 118 87 41 144 109 53 144 109 53 144 109 53 144 109 53 148 115 56 122 91 43 148 115 56 144 109 53 144 109 53 144 109 53 144 109 53 122 91 43 87 60 27 179 179 179 168 168 168 163 163 163 168 168 168 165 165 165 164 164 164 164 164 164 166 166 166 159 159 159 168 168 168 165 165 165 164 164 164 167 167 167 167 167 167 161 161 161 138 138 138 0 0 0 0 0 0 0 0 0 0 0 0 0 0 0 0 0 0 253 0 0 255 255 151 255 255 255 253 0 0 0 0 0 0 0 0 0 0 0 0 0 0 0 0 0 0 0 0 93 93 93 93 93 93 93 93 93 93 93 93 77 90 53 81 95 53 80 96 50 90 108 55 80 94 53 93 93 93 92 105 67 98 98 98 96 96 96 92 105 66 91 104 66 91 104 65 93 93 93 91 91 91 91 91 91 93 93 93 93 93 93 93 93 93 93 93 93 93 93 93 91 91 91 93 93 93 97 97 97 98 98 98 96 96 96 96 96 96 95 95 95 93 93 93 160 90 11 208 124 20 208 124 20 227 144 29 227 144 29 61 44 0 183 134 0 227 170 0 183 134 0 61 44 0 160 90 11 160 90 11 227 144 29 227 144 29 227 166 75 208 124 20 115 60 60 136 79 79 41 19 19 84 46 46 159 85 85 194 115 115 78 39 39 67 32 32 97 55 55 45 8 8 50 25 25 146 86 86 90 6 6 50 25 25 64 7 7 145 17 17 101 84 72 102 79 64 106 82 67 68 49 37 72 52 40 68 49 37 50 33 22 73 56 45 85 65 52 109 91 79 103 79 65 95 73 59 102 79 65 103 79 65 56 38 27 118 94 79 114 111 73 114 111 73 114 111 73 79 56 16 122 91 44 255 188 94 79 56 16 114 111 73 79 56 16 114 111 73 255 188 94 122 91 44 114 111 73 122 91 44 79 56 16 114 111 73 205 205 205 225 225 225 159 132 77 111 123 68 103 140 80 141 199 122 145 195 125 125 132 76 125 132 76 173 209 153 156 208 141 137 181 122 125 132 76 180 144 90 239 239 239 237 237 237 205 205 205 225 225 225 159 132 77 150 124 73 110 80 46 180 144 90 188 152 98 180 144 90 180 144 90 180 144 90 115 94 57 188 152 98 180 144 90 180 144 90 239 239 239 237 237 237 48 48 48 80 80 80 92 92 92 111 111 111 152 152 152 103 103 103 136 136 136 135 135 135 95 95 95 110 110 110 89 89 89 91 91 91 105 105 105 139 139 139 105 105 105 41 41 41 47 47 47 
92 92 92 91 91 91 101 101 101 140 140 140 143 143 143 105 105 105 100 100 100 106 106 106 91 91 91 88 88 88 124 124 124 135 135 135 89 89 89 82 82 82 58 58 58 47 47 47 92 92 92 91 91 91 101 101 101 121 121 121 168 168 168 45 45 45 45 45 45 45 45 45 45 45 45 176 176 176 121 121 121 135 135 135 89 89 89 82 82 82 58 58 58 0 0 0 0 0 0 0 0 0 0 0 0 0 0 0 149 149 149 143 143 143 200 200 200 111 111 111 0 0 0 0 0 0 0 0 0 0 0 0 0 0 0 0 0 0 0 0 0 
0 0 0 0 0 0 0 0 0 0 0 0 0 0 0 0 0 0 0 0 0 124 98 62 105 84 51 0 0 0 0 0 0 0 0 0 0 0 0 0 0 0 0 0 0 0 0 0 176 151 81 145 109 56 145 109 56 145 109 56 145 109 56 122 91 43 137 104 50 145 109 56 145 109 56 143 107 53 143 107 53 143 107 53 145 109 56 145 109 56 145 109 56 106 67 31 173 173 173 165 165 165 164 164 164 164 164 164 162 162 162 153 153 153 155 155 155 156 156 156 155 155 155 154 154 154 154 154 154 153 153 153 153 153 153 151 151 151 151 151 151 125 125 125 0 0 0 0 0 0 0 0 0 0 0 0 0 0 0 0 0 0 0 0 0 253 0 0 175 0 0 0 0 0 0 0 0 0 0 0 0 0 0 0 0 0 0 0 0 0 0 0 148 148 148 97 118 57 95 117 54 106 127 67 89 103 62 89 103 62 98 116 63 95 95 95 164 164 164 105 115 88 155 155 155 141 141 141 121 137 91 122 138 93 118 134 88 156 156 156 148 148 148 113 113 113 151 151 151 151 151 151 156 156 156 156 156 156 150 150 150 95 95 95 96 96 96 157 157 157 155 155 155 109 109 109 113 113 113 156 156 156 144 144 144 156 156 156 208 124 20 160 90 11 160 90 11 160 90 11 160 90 11 160 90 11 61 44 0 183 134 0 227 170 0 160 90 11 227 144 29 208 124 20 160 90 11 160 90 11 160 90 11 160 90 11 112 58 58 20 10 10 95 54 54 138 15 15 131 13 13 175 114 89 158 97 75 166 89 89 182 107 107 113 58 58 81 40 40 71 38 38 47 21 21 10 10 10 217 130 130 222 162 127 106 89 77 154 130 115 118 94 79 79 59 46 90 70 57 103 83 70 72 52 40 49 32 22 69 49 37 69 49 37 103 79 65 50 33 22 50 33 22 49 32 22 98 75 61 102 79 64 255 188 94 192 143 70 122 91 44 114 111 73 79 56 16 122 91 44 79 56 16 114 111 73 114 111 73 255 188 94 192 143 70 122 91 44 79 56 16 114 111 73 114 111 73 255 188 94 205 205 205 239 239 239 180 144 90 140 203 125 119 190 109 105 169 97 132 199 116 142 192 123 169 196 139 123 192 112 106 169 97 140 198 121 113 152 87 159 132 77 236 236 236 205 205 205 205 205 205 239 239 239 180 144 90 150 124 73 116 90 59 180 144 90 159 132 77 159 132 77 159 132 77 159 132 77 115 94 57 159 132 77 150 124 73 159 132 77 236 236 236 205 205 205 56 56 56 68 68 68 112 112 112 139 139 139 163 163 163 112 112 112 110 110 110 151 151 151 146 146 146 
132 132 132 114 114 114 100 100 100 93 93 93 75 75 75 120 120 120 36 36 36 47 47 47 68 68 68 112 112 112 139 139 139 163 163 163 112 112 112 110 110 110 151 151 151 146 146 146 132 132 132 114 114 114 100 100 100 93 93 93 75 75 75 120 120 120 59 59 59 47 47 47 68 68 68 112 112 112 139 139 139 121 121 121 176 176 176 45 45 45 45 45 45 45 45 45 45 45 45 176 176 176 127 127 127 93 93 93 75 75 75 120 120 120 59 59 59 0 0 0 0 0 0 0 0 0 0 0 0 0 0 0 0 0 0 84 84 84 196 196 196 124 124 124 0 0 0 133 133 133 0 0 0 0 0 0 0 0 0 0 0 0 0 0 0 
0 0 0 0 0 0 0 0 0 0 0 0 0 0 0 0 0 0 0 0 0 124 98 62 76 61 38 0 0 0 0 0 0 0 0 0 0 0 0 0 0 0 0 0 0 0 0 0 170 143 71 137 104 50 120 83 39 120 83 39 120 83 39 130 89 44 128 87 42 143 107 53 120 83 39 120 83 39 120 83 39 103 74 34 130 89 44 137 104 50 137 104 50 106 67 31 160 160 160 157 157 157 149 149 149 150 150 150 149 149 149 150 150 150 150 150 150 154 154 154 144 144 144 142 142 142 142 142 142 139 139 139 146 146 146 149 149 149 151 151 151 129 129 129 0 0 0 0 0 0 0 0 0 0 0 0 0 0 0 0 0 0 0 0 0 147 115 68 60 47 28 0 0 0 0 0 0 0 0 0 0 0 0 0 0 0 0 0 0 0 0 0 121 121 121 121 121 121 85 100 58 99 112 73 103 123 63 103 117 78 111 111 111 93 93 93 148 148 148 136 136 136 103 117 78 103 117 78 121 121 121 121 121 121 121 121 121 121 121 121 121 121 121 102 102 102 147 147 147 115 115 115 127 127 127 127 127 127 111 111 111 93 93 93 158 158 158 136 136 136 104 104 104 147 147 147 145 145 145 121 121 121 121 121 121 121 121 121 208 124 20 227 166 75 227 144 29 227 144 29 227 144 29 227 144 29 160 90 11 61 44 0 160 90 11 160 90 11 227 144 29 160 90 11 227 144 29 208 124 20 208 124 20 208 124 20 126 66 66 78 39 39 194 115 115 135 15 15 96 6 6 55 28 28 166 89 89 70 7 7 229 170 134 131 69 69 191 130 102 95 54 54 80 40 40 211 125 125 90 6 6 90 6 6 64 46 35 83 66 54 80 59 47 98 75 61 121 97 82 130 106 90 126 102 87 56 38 27 84 65 52 121 97 83 70 52 41 59 42 31 50 33 22 50 33 22 64 46 35 105 82 67 255 255 255 249 212 156 249 212 156 79 56 16 114 111 73 79 56 16 114 111 73 255 188 94 122 91 44 192 143 70 255 255 255 192 143 70 79 56 16 114 111 73 114 111 73 255 188 94 110 80 46 119 96 58 133 146 92 123 142 83 105 104 59 105 104 59 123 142 83 123 142 83 123 142 83 117 132 77 112 104 59 92 102 55 92 102 55 124 99 59 124 99 59 119 96 61 110 80 46 115 94 57 124 99 59 124 99 59 110 80 46 110 80 46 110 80 46 124 99 59 110 80 46 124 99 59 124 99 59 110 80 46 110 80 46 124 99 59 124 99 59 119 96 61 43 43 43 82 82 82 144 144 144 146 146 146 126 126 126 91 91 91 144 144 144 112 112 112 148 148 148 128 128 128 129 129 129 106 106 106 
107 107 107 151 151 151 80 80 80 36 36 36 41 41 41 82 82 82 144 144 144 146 146 146 126 126 126 91 91 91 144 144 144 112 112 112 148 148 148 128 128 128 129 129 129 106 106 106 107 107 107 151 151 151 80 80 80 48 48 48 41 41 41 82 82 82 144 144 144 146 146 146 127 127 127 176 176 176 45 45 45 45 45 45 45 45 45 45 45 45 168 168 168 127 127 127 107 107 107 151 151 151 80 80 80 48 48 48 0 0 0 0 0 0 0 0 0 0 0 0 0 0 0 0 0 0 0 0 0 215 215 215 114 114 114 183 183 183 0 0 0 0 0 0 0 0 0 0 0 0 0 0 0 0 0 0 
0 0 0 0 0 0 0 0 0 0 0 0 0 0 0 0 0 0 0 0 0 103 82 49 60 47 28 0 0 0 0 0 0 0 0 0 0 0 0 0 0 0 0 0 0 0 0 0 53 53 53 143 107 53 128 87 42 143 107 53 145 109 56 145 109 56 137 104 50 160 131 64 120 83 39 137 104 50 143 107 53 143 107 53 143 107 53 165 136 69 143 107 53 106 67 31 79 79 79 154 154 154 148 148 148 155 155 155 156 156 156 153 153 153 152 152 152 159 159 159 143 143 143 149 149 149 149 149 149 150 150 150 149 149 149 158 158 158 150 150 150 127 127 127 0 0 0 0 0 0 0 0 0 0 0 0 0 0 0 0 0 0 0 0 0 149 117 70 66 53 34 0 0 0 0 0 0 0 0 0 0 0 0 0 0 0 0 0 0 0 0 0 136 136 136 136 136 136 121 121 121 99 112 73 121 121 121 136 136 136 100 113 74 96 96 96 151 151 151 127 127 127 127 127 127 94 103 77 85 100 58 87 101 59 121 121 121 121 121 121 136 136 136 136 136 136 102 102 102 100 100 100 121 121 121 136 136 136 118 118 118 96 96 96 151 151 151 104 104 104 104 104 104 127 127 127 127 127 127 136 136 136 121 121 121 121 121 121 160 90 11 227 144 29 208 124 20 160 90 11 160 90 11 160 90 11 227 166 75 160 90 11 227 144 29 160 90 11 227 166 75 208 124 20 160 90 11 227 144 29 227 166 75 208 124 20 78 39 39 123 12 12 168 107 83 136 79 79 115 60 60 23 9 9 166 89 89 115 60 60 136 79 79 115 60 60 122 64 64 28 9 9 98 55 55 78 39 39 114 10 10 120 63 63 69 49 37 69 49 37 111 87 72 118 94 79 49 32 22 50 33 22 117 94 78 68 49 37 72 52 40 110 87 72 111 87 73 91 73 61 103 79 65 50 33 22 50 33 22 111 87 72 122 91 44 122 91 44 79 56 16 114 111 73 114 111 73 114 111 73 114 111 73 114 111 73 79 56 16 122 91 44 192 143 70 122 91 44 79 56 16 114 111 73 114 111 73 79 56 16 124 99 59 146 201 133 123 192 112 116 154 88 116 154 88 116 154 88 116 154 88 140 139 94 111 171 100 115 127 70 159 132 77 116 154 88 116 154 88 180 144 90 180 144 90 119 96 61 124 99 59 180 144 90 159 132 77 159 132 77 159 132 77 159 132 77 159 132 77 116 90 59 159 132 77 159 132 77 159 132 77 159 132 77 159 132 77 180 144 90 180 144 90 119 96 61 45 45 45 80 80 80 119 119 119 122 122 122 122 122 122 86 86 86 144 144 144 131 131 131 89 89 89 89 89 89 125 125 125 
89 89 89 107 107 107 106 106 106 105 105 105 50 50 50 45 45 45 80 80 80 119 119 119 122 122 122 122 122 122 86 86 86 144 144 144 131 131 131 122 122 122 122 122 122 125 125 125 89 89 89 107 107 107 106 106 106 105 105 105 41 41 41 45 45 45 80 80 80 119 119 119 122 122 122 127 127 127 176 176 176 176 176 176 176 176 176 163 163 163 168 168 168 176 176 176 121 121 121 107 107 107 106 106 106 105 105 105 41 41 41 0 0 0 0 0 0 0 0 0 0 0 0 0 0 0 0 0 0 0 0 0 215 215 215 114 114 114 183 183 183 0 0 0 0 0 0 0 0 0 0 0 0 0 0 0 0 0 0 
0 0 0 0 0 0 0 0 0 0 0 0 0 0 0 0 0 0 0 0 0 110 89 56 60 47 28 0 0 0 0 0 0 0 0 0 0 0 0 0 0 0 0 0 0 0 0 0 111 111 111 118 87 41 103 74 34 122 91 43 118 87 41 118 87 41 118 87 41 148 115 56 103 74 34 122 91 43 122 91 43 122 91 43 118 87 41 144 109 53 118 87 41 87 60 27 129 129 129 144 144 144 139 139 139 146 146 146 144 144 144 140 140 140 141 141 141 151 151 151 138 138 138 144 144 144 143 143 143 142 142 142 140 140 140 148 148 148 140 140 140 120 120 120 0 0 0 0 0 0 0 0 0 0 0 0 0 0 0 0 0 0 0 0 0 159 127 80 64 51 32 0 0 0 0 0 0 0 0 0 0 0 0 0 0 0 0 0 0 0 0 0 127 127 127 127 127 127 127 127 127 115 131 85 136 136 136 127 127 127 110 110 110 95 95 95 156 156 156 136 136 136 115 115 115 115 115 115 127 127 127 103 117 78 127 127 127 121 121 121 127 127 127 127 127 127 147 147 147 107 107 107 136 136 136 127 127 127 110 110 110 95 95 95 115 115 115 107 107 107 143 143 143 100 100 100 127 127 127 127 127 127 127 127 127 121 121 121 160 90 11 160 90 11 208 124 20 227 144 29 227 144 29 160 90 11 227 144 29 160 90 11 227 144 29 208 124 20 208 124 20 227 144 29 160 90 11 208 124 20 227 144 29 160 90 11 95 54 54 60 8 8 173 102 102 134 78 78 96 48 48 28 9 9 136 79 79 115 60 60 158 93 93 115 60 60 41 17 17 50 8 8 188 111 111 78 39 39 60 8 8 50 25 25 84 65 51 102 79 64 59 41 30 126 102 87 102 79 64 50 33 22 98 75 61 79 59 46 96 76 64 59 41 30 145 121 106 111 87 72 98 75 61 111 87 72 141 117 102 76 55 43 79 56 16 79 56 16 114 111 73 122 91 44 79 56 16 114 111 73 255 188 94 255 188 94 114 111 73 79 56 16 122 91 44 79 56 16 114 111 73 122 91 44 114 111 73 114 111 73 113 99 58 180 144 90 129 136 80 174 199 143 142 200 122 121 192 110 121 157 92 108 100 57 180 144 90 188 152 98 121 157 92 174 199 143 142 200 122 123 159 94 188 152 98 119 96 61 113 99 58 180 144 90 188 152 98 180 144 90 188 152 98 188 152 98 180 144 90 110 80 46 180 144 90 188 152 98 180 144 90 180 144 90 188 152 98 188 152 98 188 152 98 119 96 61 56 56 56 114 114 114 136 136 136 143 143 143 139 139 139 89 89 89 122 122 122 157 157 157 122 122 122 122 122 122 
89 89 89 100 100 100 142 142 142 106 106 106 112 112 112 50 50 50 56 56 56 114 114 114 136 136 136 122 122 122 115 115 115 89 89 89 122 122 122 122 122 122 129 129 129 122 122 122 89 89 89 100 100 100 142 142 142 106 106 106 112 112 112 36 36 36 56 56 56 114 114 114 136 136 136 122 122 122 142 142 142 121 121 121 127 127 127 127 127 127 127 127 127 121 121 121 127 127 127 121 121 121 142 142 142 106 106 106 112 112 112 36 36 36 0 0 0 0 0 0 0 0 0 0 0 0 0 0 0 0 0 0 0 0 0 205 205 205 147 147 147 0 0 0 0 0 0 0 0 0 0 0 0 0 0 0 0 0 0 0 0 0 
0 0 0 0 0 0 0 0 0 0 0 0 0 0 0 0 0 0 0 0 0 110 89 56 60 47 28 0 0 0 0 0 0 0 0 0 0 0 0 0 0 0 0 0 0 0 0 0 176 151 81 145 109 56 130 89 44 145 109 56 145 109 56 137 104 50 145 109 56 160 131 64 120 83 39 137 104 50 137 104 50 137 104 50 143 107 53 148 115 56 145 109 56 117 70 34 149 149 149 147 147 147 140 140 140 148 148 148 148 148 148 145 145 145 148 148 148 154 154 154 141 141 141 148 148 148 146 146 146 145 145 145 149 149 149 150 150 150 148 148 148 124 124 124 0 0 0 0 0 0 0 0 0 0 0 0 0 0 0 0 0 0 0 0 0 151 119 72 60 47 28 0 0 0 0 0 0 0 0 0 0 0 0 0 0 0 0 0 0 0 0 0 121 121 121 121 121 121 109 125 79 115 131 85 115 131 85 121 121 121 105 105 105 93 93 93 148 148 148 121 121 121 127 127 127 127 127 127 121 121 121 121 121 121 101 114 76 121 121 121 121 121 121 121 121 121 121 121 121 107 107 107 136 136 136 121 121 121 105 105 105 93 93 93 148 148 148 145 145 145 127 127 127 127 127 127 102 102 102 121 121 121 121 121 121 121 121 121 208 124 20 208 124 20 208 124 20 227 144 29 227 144 29 160 90 11 227 144 29 160 90 11 227 166 75 227 144 29 160 90 11 227 144 29 227 144 29 160 90 11 227 144 29 208 124 20 194 115 115 166 89 89 41 17 17 50 25 25 41 17 17 28 9 9 103 58 58 90 6 6 69 37 37 27 9 9 194 115 115 117 11 11 136 79 79 115 60 60 141 80 62 95 54 54 49 32 22 114 90 75 50 33 22 113 90 75 53 35 25 103 79 65 98 75 61 68 49 37 68 49 37 90 70 57 72 52 40 110 91 78 96 76 63 93 73 61 79 59 47 82 62 49 114 111 73 114 111 73 255 188 94 192 143 70 79 56 16 114 111 73 79 56 16 122 91 44 255 255 255 114 111 73 79 56 16 114 111 73 255 188 94 192 143 70 122 91 44 79 56 16 105 77 52 113 118 69 139 139 94 123 142 83 111 126 73 90 104 57 99 111 61 115 92 53 119 96 58 117 90 52 138 139 92 123 142 83 129 144 87 113 118 69 105 84 51 119 96 61 105 77 52 105 84 51 115 94 57 115 94 57 105 84 51 105 84 51 124 99 59 105 86 47 115 94 57 110 80 46 105 86 47 115 94 57 105 84 51 105 84 51 105 84 51 119 96 61 43 43 43 89 89 89 89 89 89 89 89 89 89 89 89 89 89 89 110 110 110 122 122 122 96 96 96 88 88 88 89 89 89 136 136 136 122 122 122 
122 122 122 56 56 56 48 48 48 43 43 43 89 89 89 89 89 89 89 89 89 89 89 89 89 89 89 110 110 110 122 122 122 96 96 96 88 88 88 144 144 144 136 136 136 122 122 122 122 122 122 56 56 56 36 36 36 43 43 43 89 89 89 89 89 89 89 89 89 89 89 89 89 89 89 110 110 110 122 122 122 96 96 96 88 88 88 144 144 144 136 136 136 122 122 122 122 122 122 56 56 56 36 36 36 0 0 0 0 0 0 0 0 0 0 0 0 0 0 0 0 0 0 0 0 0 177 177 177 122 122 122 0 0 0 0 0 0 0 0 0 0 0 0 0 0 0 0 0 0 0 0 0 
0 0 0 0 0 0 0 0 0 0 0 0 0 0 0 0 0 0 0 0 0 124 98 62 105 84 51 0 0 0 0 0 0 0 0 0 0 0 0 0 0 0 0 0 0 0 0 0 175 148 77 137 104 50 122 91 43 167 138 73 167 138 73 167 138 73 167 138 73 160 131 64 145 109 56 165 136 69 165 136 69 160 131 64 160 131 64 160 131 64 137 104 50 114 69 32 150 150 150 147 147 147 142 142 142 157 157 157 157 157 157 155 155 155 155 155 155 155 155 155 148 148 148 155 155 155 155 155 155 154 154 154 154 154 154 153 153 153 144 144 144 119 119 119 0 0 0 0 0 0 0 0 0 0 0 0 0 0 0 0 0 0 0 0 0 103 82 49 61 48 29 0 0 0 0 0 0 0 0 0 0 0 0 0 0 0 0 0 0 0 0 0 127 127 127 127 127 127 121 121 121 109 125 79 121 121 121 107 123 77 105 105 105 92 105 67 147 147 147 136 136 136 136 136 136 127 127 127 136 136 136 121 121 121 136 136 136 115 115 115 127 127 127 127 127 127 121 121 121 102 102 102 121 121 121 115 115 115 105 105 105 97 97 97 147 147 147 136 136 136 136 136 136 127 127 127 136 136 136 102 102 102 107 107 107 115 115 115 208 124 20 227 144 29 227 166 75 227 144 29 160 90 11 208 124 20 208 124 20 160 90 11 227 166 75 227 144 29 208 124 20 160 90 11 227 144 29 227 144 29 160 90 11 208 124 20 202 120 120 131 76 76 99 50 50 201 119 119 124 12 12 170 92 92 95 54 54 28 9 9 103 58 58 154 19 19 178 105 105 90 6 6 158 93 93 90 6 6 124 65 65 49 25 25 65 46 34 138 114 98 98 75 61 53 36 25 49 32 22 50 33 22 113 90 74 65 46 35 90 70 57 126 102 87 129 106 90 71 52 40 72 52 40 69 49 37 69 49 37 69 49 37 114 111 73 255 188 94 249 212 156 255 255 255 249 212 156 79 56 16 114 111 73 79 56 16 192 143 70 79 56 16 114 111 73 255 188 94 192 143 70 255 255 255 192 143 70 79 56 16 113 99 58 123 159 94 157 209 143 137 189 128 188 152 98 188 152 98 180 144 90 159 132 77 115 94 57 159 132 77 124 192 112 124 192 112 121 157 92 180 144 90 188 152 98 105 81 52 113 99 58 188 152 98 180 144 90 159 132 77 188 152 98 188 152 98 180 144 90 159 132 77 115 94 57 159 132 77 188 152 98 180 144 90 180 144 90 180 144 90 188 152 98 105 81 52 50 50 50 97 97 97 115 115 115 147 147 147 140 140 140 147 147 147 106 106 106 89 89 89 
110 110 110 157 157 157 137 137 137 122 122 122 129 129 129 122 122 122 97 97 97 41 41 41 50 50 50 97 97 97 115 115 115 147 147 147 140 140 140 147 147 147 106 106 106 89 89 89 110 110 110 157 157 157 137 137 137 122 122 122 129 129 129 122 122 122 97 97 97 35 35 35 50 50 50 97 97 97 115 115 115 147 147 147 140 140 140 147 147 147 106 106 106 89 89 89 110 110 110 157 157 157 137 137 137 122 122 122 129 129 129 122 122 122 97 97 97 35 35 35 0 0 0 0 0 0 0 0 0 0 0 0 0 0 0 0 0 0 0 0 0 177 177 177 122 122 122 0 0 0 0 0 0 0 0 0 0 0 0 0 0 0 0 0 0 0 0 0 
0 0 0 0 0 0 0 0 0 0 0 0 0 0 0 0 0 0 0 0 0 124 98 62 105 84 51 0 0 0 0 0 0 0 0 0 0 0 0 0 0 0 0 0 0 0 0 0 176 151 81 145 109 56 137 104 50 137 104 50 137 104 50 145 109 56 145 109 56 137 104 50 145 109 56 145 109 56 137 104 50 143 107 53 145 109 56 145 109 56 145 109 56 117 70 34 151 151 151 151 151 151 148 148 148 148 148 148 147 147 147 148 148 148 147 147 147 146 146 146 148 148 148 147 147 147 145 145 145 146 146 146 147 147 147 146 146 146 144 144 144 118 118 118 0 0 0 0 0 0 0 0 0 0 0 0 0 0 0 0 0 0 0 0 0 152 120 73 59 46 27 0 0 0 0 0 0 0 0 0 0 0 0 0 0 0 0 0 0 0 0 0 105 105 105 105 105 105 105 105 105 110 110 110 106 106 106 116 116 116 120 120 120 93 106 67 108 121 82 108 108 108 119 119 119 114 114 114 110 110 110 110 110 110 105 105 105 105 105 105 105 105 105 100 100 100 100 100 100 98 98 98 96 96 96 143 143 143 120 120 120 98 98 98 138 138 138 108 108 108 119 119 119 114 114 114 110 110 110 110 110 110 96 96 96 96 96 96 160 90 11 227 144 29 227 144 29 208 124 20 160 90 11 227 144 29 208 124 20 160 90 11 208 124 20 227 144 29 227 144 29 160 90 11 208 124 20 227 144 29 227 144 29 160 90 11 104 53 53 41 17 17 38 9 9 175 103 103 94 6 6 108 56 56 89 6 6 60 8 8 78 39 39 60 8 8 175 114 89 104 8 8 149 88 88 136 72 72 47 20 20 50 25 25 82 62 50 95 73 59 133 109 94 50 33 22 77 60 49 70 52 40 138 114 99 53 36 25 67 49 39 120 97 81 95 73 59 92 70 56 64 46 35 64 46 35 78 59 47 126 102 87 114 111 73 122 91 44 249 212 156 255 255 255 192 143 70 122 91 44 79 56 16 114 111 73 79 56 16 79 56 16 114 111 73 122 91 44 122 91 44 122 91 44 122 91 44 79 56 16 220 220 220 239 239 239 116 154 88 159 132 77 159 132 77 188 152 98 159 132 77 239 239 239 238 238 238 116 154 88 121 157 92 180 144 90 188 152 98 188 152 98 239 239 239 220 220 220 220 220 220 239 239 239 159 132 77 159 132 77 159 132 77 188 152 98 159 132 77 239 239 239 238 238 238 159 132 77 180 144 90 180 144 90 188 152 98 188 152 98 239 239 239 220 220 220 56 56 56 108 108 108 90 90 90 97 97 97 71 71 71 87 87 87 114 114 114 114 114 114 76 76 76 97 97 97 100 100 100 
97 97 97 87 87 87 69 69 69 86 86 86 36 36 36 56 56 56 108 108 108 90 90 90 97 97 97 71 71 71 87 87 87 114 114 114 114 114 114 76 76 76 97 97 97 100 100 100 97 97 97 87 87 87 69 69 69 86 86 86 50 50 50 56 56 56 108 108 108 90 90 90 97 97 97 71 71 71 87 87 87 114 114 114 114 114 114 76 76 76 97 97 97 100 100 100 97 97 97 87 87 87 69 69 69 86 86 86 50 50 50 0 0 0 0 0 0 0 0 0 0 0 0 0 0 0 0 0 0 0 0 0 181 181 181 70 70 70 0 0 0 0 0 0 0 0 0 0 0 0 0 0 0 0 0 0 0 0 0 
0 0 0 0 0 0 0 0 0 0 0 0 0 0 0 0 0 0 0 0 0 149 117 70 102 81 48 0 0 0 0 0 0 0 0 0 0 0 0 0 0 0 0 0 0 0 0 0 122 91 43 87 60 27 87 60 27 91 60 28 82 57 25 82 57 25 91 60 28 82 57 25 87 60 27 87 60 27 87 60 27 82 57 25 73 53 24 82 57 25 82 57 25 87 60 27 133 133 133 121 121 121 118 118 118 117 117 117 115 115 115 116 116 116 118 118 118 117 117 117 116 116 116 116 116 116 116 116 116 115 115 115 113 113 113 114 114 114 114 114 114 113 113 113 0 0 0 0 0 0 0 0 0 0 0 0 0 0 0 0 0 0 0 0 0 103 82 49 55 42 23 0 0 0 0 0 0 0 0 0 0 0 0 0 0 0 0 0 0 0 0 0 96 96 96 96 96 96 82 91 65 95 95 95 95 95 95 95 95 95 93 93 93 91 104 65 93 93 93 94 94 94 98 98 98 96 96 96 82 91 65 81 91 64 93 93 93 93 93 93 96 96 96 96 96 96 95 95 95 92 92 92 92 92 92 95 95 95 93 93 93 93 93 93 93 93 93 94 94 94 98 98 98 96 96 96 95 95 95 93 93 93 93 93 93 91 91 91 160 90 11 160 90 11 160 90 11 208 124 20 160 90 11 208 124 20 160 90 11 160 90 11 208 124 20 208 124 20 160 90 11 160 90 11 208 124 20 208 124 20 160 90 11 160 90 11 166 89 89 166 89 89 131 76 76 63 30 30 93 30 22 25 9 9 41 17 17 60 8 8 164 88 88 175 114 89 73 36 36 144 82 64 56 26 26 60 28 28 56 29 29 194 115 115 133 109 94 89 70 57 106 82 67 114 90 75 91 69 56 127 102 88 72 52 40 56 38 27 56 38 27 49 32 22 88 71 59 77 59 48 50 33 22 49 32 22 130 106 91 138 114 99 114 111 73 79 56 16 192 143 70 192 143 70 122 91 44 122 91 44 79 56 16 114 111 73 114 111 73 114 111 73 114 111 73 79 56 16 79 56 16 79 56 16 79 56 16 114 111 73 205 205 205 220 220 220 119 96 61 122 94 51 122 94 51 105 86 47 105 86 47 205 205 205 205 205 205 105 81 52 105 81 52 122 94 51 119 96 61 122 94 51 220 220 220 205 205 205 205 205 205 220 220 220 119 96 61 122 94 51 122 94 51 105 86 47 105 86 47 205 205 205 205 205 205 105 81 52 105 81 52 122 94 51 119 96 61 122 94 51 220 220 220 205 205 205 56 56 56 53 53 53 53 53 53 51 51 51 48 48 48 47 47 47 45 45 45 45 45 45 36 36 36 59 59 59 56 56 56 53 53 53 45 45 45 39 39 39 54 54 54 36 36 36 56 56 56 53 53 53 53 53 53 51 51 51 48 48 48 47 47 47 45 45 45 45 45 45 36 36 36 59 59 59 
56 56 56 53 53 53 45 45 45 39 39 39 54 54 54 50 50 50 56 56 56 53 53 53 53 53 53 51 51 51 48 48 48 47 47 47 45 45 45 45 45 45 36 36 36 59 59 59 56 56 56 53 53 53 45 45 45 39 39 39 54 54 54 50 50 50 0 0 0 0 0 0 0 0 0 0 0 0 0 0 0 0 0 0 0 0 0 181 181 181 70 70 70 0 0 0 0 0 0 0 0 0 0 0 0 0 0 0 0 0 0 0 0 0 
0 0 0 0 0 0 0 0 0 0 0 0 0 0 0 0 0 0 0 0 0 0 0 0 0 0 0 0 0 0 0 0 0 0 0 0 0 0 0 0 0 0 0 0 0 0 0 0 21 17 17 23 19 19 19 17 17 21 17 17 26 22 22 29 27 27 21 17 17 22 18 18 28 24 24 28 24 24 17 13 13 19 17 17 27 23 23 27 23 23 19 17 17 18 16 16 59 59 59 61 61 61 57 57 57 59 59 59 65 65 65 69 69 69 59 59 59 61 61 61 66 66 66 68 68 68 55 55 55 57 57 57 65 65 65 65 65 65 57 57 57 55 55 55 0 0 0 0 0 0 0 0 0 0 0 0 0 0 0 0 0 0 0 0 0 0 0 0 0 0 0 0 0 0 0 0 0 0 0 0 0 0 0 0 0 0 0 0 0 0 0 0 24 13 4 47 30 11 49 33 13 83 56 29 19 8 3 50 33 14 78 52 24 20 10 4 45 28 9 47 30 11 46 29 10 59 39 19 50 33 14 59 39 19 47 30 11 83 56 29 178 180 176 234 236 222 235 234 227 238 238 230 236 237 226 184 187 180 237 234 229 219 221 211 224 219 214 228 234 228 255 255 255 255 255 255 255 255 255 233 231 231 235 237 228 177 182 171 160 90 11 160 90 11 208 124 20 160 90 11 160 90 11 208 124 20 208 124 20 160 90 11 160 90 11 208 124 20 160 90 11 160 90 11 208 124 20 208 124 20 160 90 11 160 90 11 160 90 11 160 90 11 208 124 20 160 90 11 160 90 11 208 124 20 208 124 20 160 90 11 160 90 11 208 124 20 160 90 11 160 90 11 208 124 20 208 124 20 160 90 11 160 90 11 160 90 11 160 90 11 208 124 20 160 90 11 226 152 19 241 210 34 208 124 20 160 90 11 160 90 11 208 124 20 226 152 19 160 90 11 208 124 20 208 124 20 160 90 11 160 90 11 0 0 0 0 0 0 0 0 0 0 0 0 0 0 0 0 0 0 0 0 0 0 0 0 0 0 0 0 0 0 0 0 0 0 0 0 0 0 0 0 0 0 0 0 0 0 0 0 0 0 0 0 0 0 0 0 0 0 0 0 0 0 0 0 0 0 0 0 0 0 0 0 0 0 0 0 0 0 0 0 0 0 0 0 0 0 0 0 0 0 0 0 0 0 0 0 0 0 0 0 0 0 0 0 0 0 0 0 0 0 0 0 0 0 0 0 0 0 0 0 0 0 0 0 0 0 0 0 0 0 0 0 0 0 0 0 0 0 0 0 0 0 0 0 0 0 0 0 0 0 0 0 0 0 0 0 0 0 0 0 0 0 0 0 0 0 0 0 0 0 0 0 0 0 0 0 0 0 0 0 0 0 0 0 0 0 0 0 0 0 0 0 181 29 27 189 37 35 181 29 27 170 18 16 186 34 32 181 29 27 182 30 28 179 27 25 181 29 27 181 29 27 181 29 27 192 40 38 177 25 23 184 32 30 189 37 35 187 35 33 139 103 79 153 117 93 145 109 85 154 118 94 157 121 97 148 112 88 146 110 86 135 99 75 145 109 85 155 119 95 145 109 85 139 103 79 144 108 84 138 102 78 135 99 75 153 117 93 0 0 0 0 0 0 
0 0 0 0 0 0 0 0 0 0 0 0 0 0 0 0 0 0 0 0 0 0 0 0 0 0 0 0 0 0 0 0 0 0 0 0 0 0 0 0 0 0 
0 0 0 0 0 0 0 0 0 0 0 0 0 0 0 0 0 0 0 0 0 0 0 0 0 0 0 0 0 0 0 0 0 129 103 64 142 115 60 0 0 0 0 0 0 0 0 0 26 22 22 28 24 24 34 32 32 36 32 32 31 27 27 28 24 24 24 22 22 23 19 19 21 17 17 18 16 16 22 18 18 23 19 19 15 11 11 18 16 16 23 19 19 24 22 22 65 65 65 66 66 66 73 73 73 74 74 74 69 69 69 68 68 68 62 62 62 62 62 62 59 59 59 55 55 55 61 61 61 62 62 62 51 51 51 57 57 57 61 61 61 64 64 64 0 0 0 0 0 0 0 0 0 0 0 0 0 0 0 0 0 0 0 0 0 0 0 0 0 0 0 0 0 0 0 0 0 0 0 0 0 0 0 0 0 0 0 0 0 0 0 0 20 10 4 44 27 8 50 34 16 15 5 3 20 10 4 80 54 26 20 10 4 45 28 9 80 54 26 19 8 3 47 30 11 82 55 28 29 16 5 59 39 19 29 16 5 78 52 24 242 236 228 231 235 227 217 219 208 219 212 214 220 210 214 230 239 227 230 235 228 234 224 227 231 238 227 232 237 222 231 234 230 235 236 228 234 239 223 236 235 228 241 232 222 232 234 227 160 90 11 227 166 75 227 144 29 160 90 11 208 124 20 227 144 29 227 144 29 208 124 20 160 90 11 227 144 29 227 144 29 160 90 11 208 124 20 227 144 29 227 144 29 160 90 11 160 90 11 227 166 75 227 144 29 160 90 11 208 124 20 227 144 29 227 144 29 208 124 20 160 90 11 227 144 29 227 144 29 160 90 11 208 124 20 227 144 29 227 144 29 160 90 11 160 90 11 227 166 75 227 144 29 226 152 19 244 248 40 249 255 58 246 221 49 208 124 20 160 90 11 246 221 49 249 255 58 226 152 19 208 124 20 227 144 29 227 144 29 160 90 11 0 0 0 213 213 213 223 223 223 223 223 223 223 223 223 223 223 223 223 223 223 223 223 223 223 223 223 223 223 223 223 223 223 223 223 223 223 223 223 223 223 223 213 213 213 0 0 0 0 0 0 0 0 0 0 0 0 0 0 0 0 0 0 0 0 0 0 0 0 0 0 0 0 0 0 0 0 0 0 0 0 0 0 0 0 0 0 0 0 0 0 0 0 0 0 0 0 0 0 0 0 0 0 0 0 0 0 0 0 0 0 0 0 0 0 0 0 0 0 0 0 0 0 0 0 0 0 0 0 0 0 0 0 0 0 0 0 0 0 0 0 0 0 0 0 0 0 167 83 32 167 83 32 167 83 32 167 83 32 167 83 32 167 83 32 167 83 32 167 83 32 167 83 32 167 83 32 167 83 32 167 83 32 167 83 32 167 83 32 0 0 0 183 31 29 180 28 26 180 28 26 177 25 23 180 28 26 181 29 27 188 36 34 175 23 21 183 31 29 195 43 41 183 31 29 181 29 27 181 29 27 181 29 27 189 37 35 181 29 27 137 101 77 144 108 84 
143 107 83 148 112 88 109 81 62 115 87 68 146 110 86 142 106 82 140 104 80 149 113 89 141 105 81 152 116 92 146 110 86 141 105 81 144 108 84 151 115 91 0 0 0 0 0 0 0 0 0 0 0 0 0 0 0 0 0 0 0 0 0 0 0 0 0 0 0 0 0 0 0 0 0 0 0 0 0 0 0 0 0 0 0 0 0 0 0 0 
0 0 0 0 0 0 0 0 0 0 0 0 0 0 0 0 0 0 0 0 0 0 0 0 0 0 0 0 0 0 0 0 0 82 67 40 164 164 164 164 164 164 164 164 164 164 164 164 31 27 27 32 28 28 23 19 19 24 22 22 33 29 29 32 28 28 27 23 23 23 19 19 28 24 24 32 28 28 28 24 24 28 24 24 33 29 29 34 32 32 28 24 24 28 24 24 69 69 69 70 70 70 62 62 62 64 64 64 73 73 73 70 70 70 65 65 65 62 62 62 68 68 68 70 70 70 68 68 68 68 68 68 73 73 73 73 73 73 68 68 68 66 66 66 0 0 0 0 0 0 0 0 0 0 0 0 0 0 0 0 0 0 0 0 0 0 0 0 0 0 0 0 0 0 0 0 0 0 0 0 0 0 0 0 0 0 0 0 0 0 0 0 17 6 3 41 25 9 43 26 7 20 10 4 47 30 11 80 54 26 19 8 3 46 29 10 80 54 26 19 8 3 46 29 10 59 39 19 29 16 5 59 39 19 29 16 5 80 54 26 214 217 217 232 240 231 231 230 228 237 239 229 235 234 224 226 218 212 235 236 229 221 214 208 220 218 212 218 214 216 231 236 227 182 180 176 232 234 229 229 235 226 217 214 215 219 217 209 160 90 11 208 124 20 227 144 29 160 90 11 160 90 11 227 144 29 227 144 29 227 144 29 160 90 11 227 166 75 227 144 29 160 90 11 227 144 29 227 144 29 227 144 29 160 90 11 160 90 11 208 124 20 227 144 29 160 90 11 45 0 3 45 0 3 227 144 29 227 144 29 160 90 11 227 166 75 45 0 3 160 90 11 227 144 29 227 144 29 227 144 29 160 90 11 160 90 11 208 124 20 227 144 29 233 180 22 76 0 5 76 0 5 249 255 58 246 221 49 226 152 19 249 255 150 76 0 5 233 180 22 246 221 49 227 144 29 227 144 29 160 90 11 0 0 0 223 223 223 234 233 235 234 233 235 234 233 235 234 233 235 234 233 235 234 233 235 234 233 235 234 233 235 234 233 235 234 233 235 234 29 29 234 233 235 223 223 223 0 0 0 0 0 0 0 0 0 0 0 0 0 0 0 0 0 0 0 0 0 0 0 0 0 0 0 0 0 0 0 0 0 0 0 0 0 0 0 0 0 0 0 0 0 0 0 0 0 0 0 0 0 0 0 0 0 0 0 0 0 0 0 0 0 0 0 0 0 0 0 0 0 0 0 0 0 0 0 0 0 0 0 0 0 0 0 0 0 0 0 0 0 0 0 0 0 0 0 0 0 0 167 83 32 184 93 39 167 83 32 184 93 39 184 93 39 184 93 39 184 93 39 184 93 39 184 93 39 184 93 39 184 93 39 167 83 32 184 93 39 167 83 32 0 0 0 176 24 22 191 39 37 184 32 30 181 29 27 182 30 28 181 29 27 181 29 27 181 29 27 188 36 34 181 29 27 192 40 38 180 28 26 174 22 20 181 29 27 183 31 29 181 29 27 142 106 82 149 113 89 152 116 92 
116 88 69 117 89 70 158 119 92 144 108 84 150 114 90 144 108 84 142 106 82 149 113 89 146 110 86 146 110 86 143 107 83 146 110 86 149 113 89 0 0 0 0 0 0 0 0 0 0 0 0 0 0 0 0 0 0 0 0 0 0 0 0 0 0 0 0 0 0 0 0 0 0 0 0 0 0 0 0 0 0 0 0 0 0 0 0 
0 0 0 0 0 0 0 0 0 0 0 0 0 0 0 0 0 0 0 0 0 0 0 0 0 0 0 0 0 0 164 164 164 164 164 164 104 104 104 104 104 104 104 104 104 104 104 104 26 22 22 23 19 19 29 27 27 32 28 28 23 19 19 23 19 19 26 22 22 32 28 28 21 17 17 24 22 22 32 28 28 32 28 28 26 22 22 23 19 19 36 32 32 31 27 27 65 65 65 61 61 61 69 69 69 70 70 70 62 62 62 61 61 61 65 65 65 70 70 70 59 59 59 62 62 62 70 70 70 70 70 70 65 65 65 61 61 61 74 74 74 70 70 70 0 0 0 0 0 0 0 0 0 0 0 0 0 0 0 0 0 0 0 0 0 0 0 0 0 0 0 0 0 0 0 0 0 0 0 0 0 0 0 0 0 0 0 0 0 0 0 0 50 33 14 22 12 4 44 27 8 20 10 4 59 39 19 59 39 19 19 8 3 47 30 11 80 54 26 19 8 3 47 30 11 80 54 26 19 8 3 83 56 29 20 10 4 59 39 19 238 234 227 255 255 255 227 238 225 177 184 177 65 60 57 21 25 23 32 25 34 60 54 58 237 229 228 241 234 227 234 229 228 238 240 229 232 237 224 237 236 225 218 219 215 234 233 229 160 90 11 208 124 20 227 144 29 208 124 20 160 90 11 227 144 29 208 124 20 227 166 75 160 90 11 227 166 75 227 144 29 160 90 11 227 166 75 227 144 29 208 124 20 160 90 11 160 90 11 208 124 20 227 144 29 160 90 11 45 0 3 68 19 0 45 0 3 227 166 75 160 90 11 45 0 3 45 0 3 45 0 3 160 90 11 227 144 29 208 124 20 160 90 11 160 90 11 208 124 20 246 221 49 226 152 19 76 0 5 176 163 49 76 0 5 249 255 150 233 180 22 76 0 5 76 0 5 76 0 5 233 180 22 246 221 49 208 124 20 160 90 11 0 0 0 223 223 223 234 233 235 223 223 223 223 223 223 213 213 213 223 223 223 223 223 223 223 223 223 223 223 223 234 233 235 223 223 223 223 223 223 234 233 235 223 223 223 0 0 0 0 0 0 0 0 0 0 0 0 0 0 0 0 0 0 0 0 0 0 0 0 0 0 0 0 0 0 0 0 0 0 0 0 0 0 0 0 0 0 0 0 0 0 0 0 0 0 0 0 0 0 0 0 0 0 0 0 0 0 0 0 0 0 0 0 0 0 0 0 0 0 0 0 0 0 0 0 0 0 0 0 0 0 0 0 0 0 0 0 0 0 0 0 0 0 0 0 0 0 167 83 32 184 93 39 184 93 39 167 83 32 184 93 39 184 93 39 167 83 32 184 93 39 184 93 39 167 83 32 184 93 39 184 93 39 184 93 39 167 83 32 0 0 0 187 35 33 181 29 27 177 25 23 222 222 222 216 216 216 185 33 31 184 32 30 184 32 30 186 34 32 185 33 31 181 29 27 181 29 27 186 34 32 171 19 17 186 34 32 190 38 36 144 108 84 146 110 86 144 108 84 115 87 68 
157 118 91 164 125 98 135 99 75 148 112 88 140 104 80 144 108 84 147 111 87 138 102 78 105 77 58 120 92 73 154 118 94 154 118 94 0 0 0 0 0 0 0 0 0 0 0 0 0 0 0 0 0 0 0 0 0 0 0 0 0 0 0 0 0 0 0 0 0 0 0 0 0 0 0 0 0 0 0 0 0 0 0 0 
0 0 0 0 0 0 0 0 0 0 0 0 0 0 0 0 0 0 0 0 0 0 0 0 164 164 164 164 164 164 104 104 104 104 104 104 65 54 37 92 77 48 0 0 0 0 0 0 28 24 24 24 22 22 21 17 17 26 22 22 29 27 27 29 27 27 17 13 13 15 11 11 22 18 18 27 23 23 22 18 18 18 16 16 29 27 27 29 27 27 19 17 17 17 13 13 66 66 66 64 64 64 59 59 59 65 65 65 69 69 69 69 69 69 55 55 55 53 53 53 61 61 61 65 65 65 61 61 61 57 57 57 69 69 69 69 69 69 57 57 57 55 55 55 0 0 0 0 0 0 0 0 0 0 0 0 0 0 0 0 0 0 0 0 0 0 0 0 0 0 0 0 0 0 0 0 0 0 0 0 0 0 0 0 0 0 0 0 0 0 0 0 48 31 12 20 10 4 49 33 13 46 29 10 59 39 19 59 39 19 49 33 13 46 29 10 51 35 15 20 10 4 48 31 12 82 55 28 19 8 3 82 55 28 19 8 3 59 39 19 234 228 227 235 234 225 182 180 176 182 180 176 221 225 214 62 59 53 61 59 58 32 25 34 62 62 59 229 232 227 217 216 214 213 221 208 219 218 212 224 214 211 66 60 57 218 214 208 160 90 11 208 124 20 227 144 29 208 124 20 160 90 11 227 166 75 208 124 20 227 144 29 160 90 11 227 144 29 208 124 20 160 90 11 227 166 75 227 144 29 208 124 20 160 90 11 160 90 11 208 124 20 160 90 11 45 0 3 68 19 0 68 19 0 68 19 0 160 90 11 160 90 11 45 0 3 68 19 0 68 19 0 45 0 3 160 90 11 208 124 20 160 90 11 160 90 11 208 124 20 233 180 22 76 0 5 179 168 50 182 174 52 185 179 54 233 180 22 233 180 22 76 0 5 185 179 54 182 174 52 76 0 5 233 180 22 208 124 20 160 90 11 0 0 0 223 223 223 234 233 235 232 53 53 234 29 29 234 233 235 234 233 235 234 233 235 234 233 235 234 29 29 213 213 213 234 233 235 234 233 235 234 233 235 223 223 223 0 0 0 0 0 0 0 0 0 0 0 0 0 0 0 0 0 0 0 0 0 0 0 0 0 0 0 0 0 0 0 0 0 0 0 0 0 0 0 0 0 0 0 0 0 0 0 0 0 0 0 0 0 0 0 0 0 0 0 0 0 0 0 0 0 0 0 0 0 0 0 0 0 0 0 0 0 0 0 0 0 0 0 0 0 0 0 0 0 0 0 0 0 0 0 0 0 0 0 0 0 0 167 83 32 184 93 39 184 93 39 184 93 39 184 93 39 184 93 39 184 93 39 167 83 32 184 93 39 184 93 39 184 93 39 184 93 39 184 93 39 167 83 32 0 0 0 181 29 27 181 29 27 183 31 29 219 219 219 213 213 213 181 29 27 182 30 28 178 26 24 181 29 27 186 34 32 179 27 25 181 29 27 181 29 27 186 34 32 181 29 27 187 35 33 145 109 85 152 116 92 148 112 88 116 88 69 151 112 85 
152 116 92 144 108 84 142 106 82 144 108 84 145 109 85 153 117 93 114 86 67 112 84 65 116 88 69 151 115 91 134 98 74 0 0 0 0 0 0 0 0 0 0 0 0 0 0 0 0 0 0 0 0 0 0 0 0 0 0 0 0 0 0 0 0 0 0 0 0 0 0 0 0 0 0 0 0 0 0 0 0 
0 0 0 0 0 0 0 0 0 0 0 0 0 0 0 129 103 64 82 67 40 164 164 164 104 104 104 104 104 104 0 0 0 0 0 0 76 61 37 142 115 60 0 0 0 0 0 0 18 16 16 16 12 12 21 17 17 32 28 28 21 17 17 15 11 11 21 17 17 23 19 19 21 17 17 15 11 11 23 19 19 23 19 19 17 13 13 22 18 18 21 17 17 23 19 19 57 57 57 53 53 53 59 59 59 70 70 70 59 59 59 53 53 53 59 59 59 61 61 61 59 59 59 53 53 53 61 61 61 62 62 62 55 55 55 61 61 61 59 59 59 61 61 61 0 0 0 0 0 0 0 0 0 0 0 0 0 0 0 0 0 0 0 0 0 0 0 0 0 0 0 0 0 0 0 0 0 0 0 0 0 0 0 0 0 0 0 0 0 0 0 0 49 33 13 41 25 9 49 33 13 45 28 9 82 55 28 47 30 11 45 28 9 48 31 12 49 33 13 19 8 3 47 30 11 74 48 20 19 8 3 59 39 19 20 10 4 46 29 10 58 58 58 65 65 62 237 237 224 255 255 255 255 255 255 240 234 225 234 234 230 255 255 255 255 255 255 235 234 230 255 255 255 255 255 255 237 234 228 60 59 61 29 24 26 26 28 20 160 90 11 227 166 75 227 144 29 208 124 20 160 90 11 227 166 75 227 144 29 227 144 29 160 90 11 227 144 29 208 124 20 160 90 11 227 166 75 227 144 29 208 124 20 160 90 11 160 90 11 227 166 75 160 90 11 45 0 3 68 19 0 68 19 0 68 19 0 160 90 11 160 90 11 45 0 3 68 19 0 68 19 0 68 19 0 160 90 11 208 124 20 160 90 11 160 90 11 227 166 75 160 90 11 76 0 5 184 178 53 188 185 55 191 190 57 160 90 11 233 180 22 76 0 5 191 190 57 188 185 55 184 178 53 233 180 22 241 210 34 160 90 11 0 0 0 223 223 223 234 233 235 234 29 29 234 29 29 234 233 235 234 233 235 234 233 235 213 213 213 234 233 235 234 233 235 223 223 223 234 233 235 234 233 235 223 223 223 0 0 0 0 0 0 0 0 0 0 0 0 0 0 0 0 0 0 0 0 0 0 0 0 0 0 0 0 0 0 0 0 0 0 0 0 0 0 0 0 0 0 0 0 0 0 0 0 0 0 0 0 0 0 0 0 0 0 0 0 0 0 0 0 0 0 0 0 0 0 0 0 0 0 0 0 0 0 0 0 0 0 0 0 0 0 0 0 0 0 0 0 0 0 0 0 0 0 0 0 0 0 167 83 32 184 93 39 167 83 32 184 93 39 184 93 39 184 93 39 184 93 39 184 93 39 184 93 39 184 93 39 167 83 32 184 93 39 184 93 39 167 83 32 0 0 0 175 23 21 176 24 22 181 29 27 181 29 27 181 29 27 178 26 24 182 30 28 176 24 22 190 38 36 181 29 27 174 22 20 183 31 29 185 33 31 181 29 27 178 26 24 181 29 27 138 102 78 144 108 84 154 118 94 156 120 96 138 102 78 
148 112 88 145 109 85 150 114 90 145 109 85 143 107 83 122 94 75 110 82 63 156 117 90 158 119 92 131 95 71 144 108 84 0 0 0 0 0 0 0 0 0 0 0 0 0 0 0 0 0 0 0 0 0 0 0 0 0 0 0 0 0 0 0 0 0 0 0 0 0 0 0 0 0 0 0 0 0 0 0 0 
0 0 0 0 0 0 0 0 0 0 0 0 0 0 0 82 67 40 164 164 164 104 104 104 0 0 0 0 0 0 0 0 0 0 0 0 100 79 42 129 103 64 0 0 0 0 0 0 34 32 32 34 32 32 31 27 27 29 27 27 26 22 22 26 22 22 24 22 22 27 23 23 31 27 27 34 32 32 28 24 24 24 22 22 36 32 32 36 32 32 28 24 24 27 23 23 73 73 73 74 74 74 69 69 69 69 69 69 65 65 65 65 65 65 64 64 64 65 65 65 69 69 69 74 74 74 66 66 66 62 62 62 74 74 74 74 74 74 68 68 68 65 65 65 0 0 0 0 0 0 0 0 0 0 0 0 0 0 0 0 0 0 0 0 0 86 0 0 72 0 0 0 0 0 0 0 0 0 0 0 0 0 0 0 0 0 0 0 0 0 0 0 47 30 11 59 39 19 29 16 5 49 33 13 79 53 25 43 25 7 47 30 11 19 8 3 74 49 22 19 8 3 59 39 19 36 22 6 15 4 3 59 39 19 19 8 3 51 35 15 61 61 58 224 218 206 218 213 206 225 230 224 232 235 227 187 184 176 234 229 220 219 214 211 210 221 211 217 219 212 239 234 225 234 231 226 180 179 179 239 231 227 233 231 228 235 234 229 160 90 11 227 166 75 227 144 29 227 144 29 160 90 11 227 166 75 227 144 29 227 144 29 160 90 11 227 144 29 208 124 20 160 90 11 208 124 20 227 144 29 160 90 11 160 90 11 160 90 11 227 166 75 160 90 11 45 0 3 68 19 0 68 19 0 68 19 0 160 90 11 160 90 11 45 0 3 68 19 0 68 19 0 68 19 0 68 19 0 160 90 11 160 90 11 160 90 11 227 166 75 160 90 11 76 0 5 189 187 56 193 195 58 196 201 60 160 90 11 233 180 22 76 0 5 196 201 60 193 195 58 189 187 56 184 178 53 233 180 22 160 90 11 0 0 0 223 223 223 234 233 235 234 233 235 234 233 235 213 213 213 234 233 235 234 233 235 234 233 235 234 233 235 234 29 29 234 233 235 223 223 223 234 233 235 223 223 223 0 0 0 0 0 0 0 0 0 0 0 0 0 0 0 0 0 0 0 0 0 0 0 0 0 0 0 0 0 0 0 0 0 0 0 0 0 0 0 0 0 0 0 0 0 0 0 0 0 0 0 0 0 0 0 0 0 0 0 0 0 0 0 0 0 0 0 0 0 0 0 0 0 0 0 0 0 0 0 0 0 0 0 0 0 0 0 0 0 0 0 0 0 0 0 0 0 0 0 0 0 0 167 83 32 184 93 39 184 93 39 184 93 39 167 83 32 184 93 39 184 93 39 184 93 39 184 93 39 184 93 39 184 93 39 184 93 39 167 83 32 167 83 32 0 0 0 181 29 27 190 38 36 181 29 27 184 32 30 181 29 27 175 23 21 187 35 33 178 26 24 182 30 28 181 29 27 181 29 27 185 33 31 188 36 34 171 19 17 178 26 24 181 29 27 141 105 81 139 103 79 142 106 82 143 107 83 109 81 62 
148 112 88 142 106 82 142 106 82 142 106 82 144 108 84 107 79 60 159 120 93 162 123 96 159 120 93 153 117 93 138 102 78 195 195 195 195 195 195 84 84 84 0 0 0 0 0 0 0 0 0 0 0 0 0 0 0 0 0 0 0 0 0 0 0 0 0 0 0 0 0 0 0 0 0 0 0 0 0 0 0 
0 0 0 0 0 0 0 0 0 0 0 0 0 0 0 164 164 164 104 104 104 92 77 48 142 115 60 0 0 0 0 0 0 0 0 0 0 0 0 100 79 42 142 115 60 0 0 0 23 19 19 23 19 19 34 32 32 36 32 32 28 24 24 28 24 24 32 28 28 31 27 27 21 17 17 22 18 18 29 27 27 32 28 28 28 24 24 28 24 24 32 28 28 31 27 27 61 61 61 61 61 61 73 73 73 74 74 74 68 68 68 66 66 66 70 70 70 70 70 70 59 59 59 61 61 61 69 69 69 70 70 70 66 66 66 66 66 66 70 70 70 70 70 70 0 0 0 0 0 0 0 0 0 0 0 0 0 0 0 0 0 0 0 0 0 72 0 0 41 0 0 0 0 0 0 0 0 0 0 0 0 0 0 0 0 0 0 0 0 0 0 0 49 33 13 82 55 28 19 8 3 49 33 13 83 56 29 19 8 3 82 55 28 20 10 4 80 54 26 17 6 3 59 39 19 29 16 5 45 28 9 59 39 19 20 10 4 51 35 15 231 233 225 186 179 176 255 255 255 236 234 222 234 229 226 219 220 212 222 218 213 230 232 227 255 255 255 191 185 176 230 235 227 234 239 231 255 255 255 221 216 211 217 221 212 215 214 216 160 90 11 227 144 29 227 144 29 227 144 29 160 90 11 227 144 29 227 144 29 227 144 29 160 90 11 227 144 29 227 144 29 160 90 11 208 124 20 227 144 29 160 90 11 160 90 11 160 90 11 227 144 29 227 144 29 160 90 11 68 19 0 68 19 0 160 90 11 160 90 11 160 90 11 160 90 11 68 19 0 68 19 0 68 19 0 68 19 0 160 90 11 160 90 11 160 90 11 227 144 29 227 144 29 160 90 11 193 195 58 198 204 61 160 90 11 226 152 19 226 152 19 160 90 11 202 212 64 198 204 61 193 195 58 188 185 55 160 90 11 160 90 11 0 0 0 223 223 223 234 29 29 234 233 235 234 233 235 223 223 223 234 233 235 232 53 53 234 29 29 213 213 213 223 223 223 234 233 235 234 233 235 234 233 235 223 223 223 0 0 0 0 0 0 0 0 0 0 0 0 0 0 0 0 0 0 0 0 0 0 0 0 0 0 0 0 0 0 0 0 0 0 0 0 0 0 0 0 0 0 0 0 0 0 0 0 0 0 0 0 0 0 0 0 0 0 0 0 0 0 0 0 0 0 0 0 0 0 0 0 0 0 0 0 0 0 0 0 0 0 0 0 0 0 0 0 0 0 0 0 0 0 0 0 0 0 0 0 0 0 167 83 32 184 93 39 184 93 39 184 93 39 184 93 39 184 93 39 184 93 39 167 83 32 184 93 39 184 93 39 184 93 39 184 93 39 184 93 39 167 83 32 0 0 0 177 25 23 185 33 31 181 29 27 186 34 32 175 23 21 179 27 25 186 34 32 173 21 19 183 31 29 181 29 27 176 24 22 177 25 23 208 208 208 214 214 214 181 29 27 191 39 37 156 120 96 146 110 86 141 105 81 
109 81 62 108 80 61 164 125 98 147 111 87 154 118 94 139 103 79 139 103 79 111 83 64 111 83 64 168 129 102 138 102 78 140 104 80 138 102 78 140 140 140 140 140 140 140 140 140 140 140 140 195 195 195 0 0 0 0 0 0 0 0 0 133 133 133 0 0 0 0 0 0 0 0 0 0 0 0 0 0 0 0 0 0 0 0 0 
0 0 0 0 0 0 0 0 0 0 0 0 164 164 164 104 104 104 0 0 0 100 79 42 135 109 69 142 115 60 0 0 0 0 0 0 0 0 0 100 79 42 129 103 64 0 0 0 28 24 24 28 24 24 18 16 16 22 18 18 31 27 27 28 24 24 21 17 17 23 19 19 22 18 18 23 19 19 22 18 18 17 13 13 26 22 22 24 22 22 19 17 17 18 16 16 68 68 68 68 68 68 57 57 57 61 61 61 70 70 70 66 66 66 59 59 59 61 61 61 61 61 61 62 62 62 61 61 61 55 55 55 65 65 65 62 62 62 57 57 57 57 57 57 0 0 0 0 0 0 0 0 0 0 0 0 0 0 0 0 0 0 0 0 0 124 98 62 76 61 38 0 0 0 0 0 0 0 0 0 0 0 0 0 0 0 0 0 0 0 0 0 47 30 11 80 54 26 20 10 4 52 35 16 77 51 23 20 10 4 47 30 11 20 10 4 47 30 11 20 10 4 77 51 23 19 8 3 49 33 13 49 33 13 20 10 4 59 39 19 220 209 212 218 220 210 222 211 213 255 255 255 255 255 255 232 238 230 241 234 231 255 255 255 234 223 223 234 236 227 240 237 230 237 226 231 227 233 229 236 241 228 210 218 212 221 222 213 160 90 11 227 144 29 227 144 29 227 144 29 160 90 11 208 124 20 227 144 29 208 124 20 160 90 11 227 144 29 227 144 29 208 124 20 160 90 11 227 144 29 208 124 20 160 90 11 160 90 11 227 144 29 227 144 29 227 144 29 160 90 11 160 90 11 160 90 11 208 124 20 160 90 11 160 90 11 160 90 11 160 90 11 160 90 11 160 90 11 208 124 20 160 90 11 160 90 11 227 144 29 246 221 49 249 255 58 226 152 19 233 180 22 226 152 19 208 124 20 233 180 22 226 152 19 226 152 19 233 180 22 226 152 19 233 180 22 241 210 34 160 90 11 0 0 0 223 223 223 234 233 235 223 223 223 234 233 235 223 223 223 234 233 235 234 29 29 234 29 29 223 223 223 223 223 223 232 53 53 234 29 29 234 233 235 223 223 223 0 0 0 0 0 0 194 194 194 223 223 223 223 223 223 223 223 223 223 223 223 223 223 223 223 223 223 223 223 223 223 223 223 223 223 223 223 223 223 223 223 223 223 223 223 194 194 194 0 0 0 0 0 0 194 194 194 223 223 223 223 223 223 223 223 223 223 223 223 223 223 223 122 34 0 103 23 0 103 23 0 223 223 223 223 223 223 223 223 223 223 223 223 194 194 194 0 0 0 0 0 0 167 83 32 184 93 39 184 93 39 167 83 32 184 93 39 167 83 32 184 93 39 184 93 39 184 93 39 184 93 39 167 83 32 184 93 39 184 93 39 167 83 32 0 0 0 
180 28 26 179 27 25 185 33 31 174 22 20 179 27 25 183 31 29 181 29 27 181 29 27 181 29 27 175 23 21 184 32 30 181 29 27 216 216 216 219 219 219 181 29 27 181 29 27 146 110 86 145 109 85 146 110 86 114 86 67 108 80 61 163 124 97 134 98 74 143 107 83 149 113 89 156 120 96 146 110 86 107 79 60 154 115 88 139 103 79 143 107 83 139 103 79 0 0 0 0 0 0 0 0 0 0 0 0 140 140 140 84 84 84 84 84 84 133 133 133 84 84 84 0 0 0 0 0 0 0 0 0 0 0 0 0 0 0 0 0 0 0 0 0 
0 0 0 0 0 0 0 0 0 0 0 0 164 164 164 104 104 104 0 0 0 0 0 0 100 79 42 129 103 64 129 103 64 0 0 0 0 0 0 100 79 42 129 103 64 0 0 0 22 18 18 24 22 22 23 19 19 31 27 27 16 12 12 17 13 13 24 22 22 27 23 23 21 17 17 28 24 24 36 32 32 36 32 32 24 22 22 28 24 24 36 32 32 34 32 32 61 61 61 62 62 62 61 61 61 69 69 69 53 53 53 55 55 55 62 62 62 66 66 66 59 59 59 66 66 66 74 74 74 74 74 74 64 64 64 68 68 68 74 74 74 73 73 73 0 0 0 0 0 0 0 0 0 0 0 0 0 0 0 0 0 0 0 0 0 147 115 68 60 47 28 0 0 0 0 0 0 0 0 0 0 0 0 0 0 0 0 0 0 0 0 0 47 30 11 83 56 29 24 13 4 46 29 10 50 33 14 77 51 23 20 10 4 48 31 12 48 31 12 17 6 3 78 52 24 20 10 4 49 33 13 78 52 24 20 10 4 59 39 19 236 236 220 227 229 228 233 234 227 226 232 226 222 218 213 222 218 213 177 187 178 223 218 212 182 186 176 217 217 201 214 218 214 236 233 228 233 241 232 233 239 222 240 234 232 233 230 226 160 90 11 208 124 20 227 144 29 227 144 29 160 90 11 208 124 20 227 144 29 208 124 20 160 90 11 227 144 29 227 144 29 227 144 29 160 90 11 227 144 29 208 124 20 160 90 11 160 90 11 208 124 20 160 90 11 45 0 3 160 90 11 45 0 3 160 90 11 160 90 11 45 0 3 160 90 11 160 90 11 45 0 3 160 90 11 45 0 3 208 124 20 160 90 11 160 90 11 241 210 34 233 180 22 76 0 5 233 180 22 76 0 5 233 180 22 233 180 22 76 0 5 233 180 22 233 180 22 76 0 5 233 180 22 76 0 5 244 248 40 160 90 11 0 0 0 223 223 223 234 233 235 223 223 223 234 29 29 234 233 235 234 233 235 234 233 235 234 233 235 223 223 223 234 233 235 234 29 29 234 29 29 234 233 235 223 223 223 0 0 0 0 0 0 194 194 194 234 233 235 234 233 235 234 233 235 234 233 235 234 233 235 234 233 235 234 233 235 234 233 235 234 233 235 234 233 235 234 233 235 234 233 235 194 194 194 0 0 0 0 0 0 151 73 26 122 34 0 234 233 235 122 34 0 122 34 0 122 34 0 122 34 0 122 34 0 122 34 0 122 34 0 122 34 0 122 34 0 122 34 0 151 73 26 0 0 0 0 0 0 167 83 32 167 83 32 184 93 39 184 93 39 184 93 39 184 93 39 184 93 39 184 93 39 184 93 39 184 93 39 184 93 39 184 93 39 167 83 32 167 83 32 0 0 0 180 28 26 164 12 10 180 28 26 174 22 20 181 29 27 182 30 28 178 26 24 
184 32 30 182 30 28 181 29 27 181 29 27 178 26 24 185 33 31 180 28 26 181 29 27 180 28 26 143 107 83 149 113 89 115 87 68 114 86 67 172 133 106 144 108 84 137 101 77 152 116 92 152 116 92 152 116 92 145 109 85 151 115 91 140 104 80 145 109 85 152 116 92 145 109 85 0 0 0 0 0 0 0 0 0 0 0 0 149 149 149 140 140 140 140 140 140 84 84 84 0 0 0 0 0 0 0 0 0 0 0 0 0 0 0 0 0 0 0 0 0 0 0 0 
0 0 0 0 0 0 0 0 0 164 164 164 104 104 104 0 0 0 0 0 0 0 0 0 0 0 0 100 79 42 129 103 64 142 115 60 0 0 0 0 0 0 91 70 37 135 109 69 31 27 27 32 28 28 28 24 24 28 24 24 34 32 32 32 28 28 28 24 24 28 24 24 32 28 28 31 27 27 23 19 19 27 23 23 28 24 24 26 22 22 19 17 17 26 22 22 70 70 70 70 70 70 68 68 68 68 68 68 74 74 74 70 70 70 68 68 68 66 66 66 70 70 70 69 69 69 62 62 62 65 65 65 66 66 66 65 65 65 57 57 57 65 65 65 0 0 0 0 0 0 0 0 0 0 0 0 0 0 0 0 0 0 0 0 0 149 117 70 66 53 34 0 0 0 0 0 0 0 0 0 0 0 0 0 0 0 0 0 0 0 0 0 22 12 4 59 39 19 20 10 4 48 31 12 46 29 10 78 52 24 17 6 3 43 26 7 19 8 3 41 25 9 85 58 31 20 10 4 48 31 12 83 56 29 22 11 4 78 52 24 183 187 176 236 240 228 218 215 207 219 217 211 223 217 212 182 180 176 236 239 231 236 239 231 236 239 231 236 234 222 255 255 255 255 255 255 234 232 225 228 227 225 255 255 255 234 232 232 160 90 11 208 124 20 227 144 29 227 144 29 160 90 11 208 124 20 227 144 29 160 90 11 160 90 11 227 144 29 227 144 29 227 144 29 160 90 11 227 144 29 208 124 20 160 90 11 160 90 11 208 124 20 45 0 3 45 0 3 45 0 3 45 0 3 68 19 0 45 0 3 45 0 3 68 19 0 45 0 3 45 0 3 68 19 0 45 0 3 160 90 11 160 90 11 160 90 11 244 248 40 76 0 5 76 0 5 76 0 5 76 0 5 213 231 69 76 0 5 76 0 5 219 243 73 76 0 5 76 0 5 200 207 62 76 0 5 233 180 22 160 90 11 0 0 0 223 223 223 234 233 235 223 223 223 234 233 235 234 233 235 213 213 213 223 223 223 234 233 235 234 233 235 234 233 235 234 233 235 223 223 223 234 233 235 223 223 223 0 0 0 0 0 0 194 194 194 234 233 235 194 194 194 194 194 194 223 223 223 234 233 235 194 194 194 194 194 194 223 223 223 234 233 235 194 194 194 194 194 194 223 223 223 194 194 194 0 0 0 0 0 0 151 73 26 122 34 0 129 38 0 129 38 0 122 34 0 122 34 0 129 38 0 122 34 0 122 34 0 129 38 0 129 38 0 129 38 0 122 34 0 151 73 26 0 0 0 0 0 0 167 83 32 184 93 39 184 93 39 184 93 39 184 93 39 184 93 39 184 93 39 184 93 39 184 93 39 167 83 32 184 93 39 184 93 39 184 93 39 167 83 32 0 0 0 181 29 27 178 26 24 186 34 32 181 29 27 183 31 29 171 19 17 182 30 28 188 36 34 181 29 27 181 29 27 
184 32 30 178 26 24 181 29 27 169 17 15 185 33 31 184 32 30 135 99 75 143 107 83 114 86 67 159 120 93 156 117 90 147 111 87 148 112 88 157 121 97 111 83 64 113 85 66 148 112 88 141 105 81 139 103 79 157 121 97 142 106 82 151 115 91 0 0 0 0 0 0 0 0 0 181 181 181 84 84 84 0 0 0 140 140 140 140 140 140 114 114 114 0 0 0 0 0 0 0 0 0 0 0 0 0 0 0 0 0 0 0 0 0 
0 0 0 129 103 64 82 67 40 164 164 164 104 104 104 0 0 0 0 0 0 0 0 0 0 0 0 0 0 0 100 79 42 129 103 64 142 115 60 0 0 0 65 54 37 104 85 56 19 17 17 21 17 17 27 23 23 27 23 23 23 19 19 23 19 19 29 27 27 28 24 24 21 17 17 21 17 17 22 18 18 28 24 24 16 12 12 16 12 12 23 19 19 28 24 24 57 57 57 59 59 59 66 66 66 66 66 66 61 61 61 61 61 61 69 69 69 68 68 68 59 59 59 59 59 59 61 61 61 66 66 66 53 53 53 53 53 53 61 61 61 66 66 66 0 0 0 0 0 0 0 0 0 0 0 0 0 0 0 0 0 0 0 0 0 159 127 80 64 51 32 0 0 0 0 0 0 0 0 0 0 0 0 0 0 0 0 0 0 0 0 0 19 8 3 59 39 19 20 10 4 46 29 10 50 34 16 82 55 28 20 10 4 82 55 28 15 5 3 41 25 9 84 57 30 19 8 3 49 33 13 79 53 25 19 8 3 83 56 29 233 234 227 235 232 227 230 231 227 227 237 224 233 233 226 188 182 179 176 185 177 176 185 177 237 235 228 237 235 227 213 225 212 221 222 211 176 185 177 180 178 178 221 218 211 217 223 220 160 90 11 160 90 11 227 144 29 227 144 29 160 90 11 227 166 75 227 144 29 160 90 11 208 124 20 227 144 29 208 124 20 227 144 29 160 90 11 227 166 75 227 144 29 160 90 11 160 90 11 160 90 11 45 0 3 68 19 0 68 19 0 68 19 0 68 19 0 68 19 0 68 19 0 68 19 0 68 19 0 68 19 0 68 19 0 68 19 0 68 19 0 160 90 11 160 90 11 160 90 11 76 0 5 193 194 58 199 206 62 205 217 65 211 228 68 216 238 71 219 243 73 216 238 71 211 228 68 205 217 65 199 206 62 193 194 58 186 182 54 233 180 22 0 0 0 223 223 223 234 233 235 223 223 223 223 223 223 234 233 235 234 233 235 234 233 235 232 53 53 234 29 29 223 223 223 234 233 235 223 223 223 234 233 235 223 223 223 0 0 0 0 0 0 194 194 194 194 194 194 167 83 32 167 83 32 194 194 194 194 194 194 167 83 32 167 83 32 194 194 194 194 194 194 167 83 32 167 83 32 194 194 194 194 194 194 0 0 0 0 0 0 151 73 26 103 23 0 103 23 0 103 23 0 103 23 0 129 38 0 122 34 0 129 38 0 129 38 0 103 23 0 103 23 0 103 23 0 103 23 0 151 73 26 0 0 0 0 0 0 167 83 32 184 93 39 184 93 39 184 93 39 184 93 39 167 83 32 184 93 39 167 83 32 184 93 39 184 93 39 184 93 39 167 83 32 184 93 39 167 83 32 0 0 0 181 29 27 177 25 23 180 28 26 181 29 27 181 29 27 183 31 29 177 25 23 180 28 26 
190 38 36 183 31 29 181 29 27 181 29 27 179 27 25 181 29 27 183 31 29 187 35 33 145 109 85 141 105 81 109 81 62 164 125 98 151 115 91 146 110 86 148 112 88 112 84 65 123 95 76 173 134 107 144 108 84 148 112 88 152 116 92 142 106 82 145 109 85 138 102 78 0 0 0 0 0 0 0 0 0 0 0 0 0 0 0 0 0 0 0 0 0 215 215 215 114 114 114 0 0 0 0 0 0 0 0 0 0 0 0 0 0 0 0 0 0 0 0 0 
0 0 0 129 103 64 164 164 164 104 104 104 92 77 48 135 109 69 142 115 60 0 0 0 0 0 0 0 0 0 0 0 0 100 79 42 100 79 42 104 85 56 104 104 104 104 104 104 23 19 19 23 19 19 16 12 12 17 13 13 31 27 27 33 29 29 18 16 16 15 11 11 26 22 22 29 27 27 27 23 23 28 24 24 36 32 32 36 32 32 28 24 24 17 13 13 61 61 61 61 61 61 53 53 53 55 55 55 70 70 70 73 73 73 57 57 57 53 53 53 65 65 65 69 69 69 65 65 65 68 68 68 74 74 74 74 74 74 66 66 66 55 55 55 0 0 0 0 0 0 0 0 0 0 0 0 0 0 0 0 0 0 0 0 0 151 119 72 60 47 28 0 0 0 0 0 0 0 0 0 0 0 0 0 0 0 0 0 0 0 0 0 17 7 3 82 55 28 17 6 3 45 28 9 49 33 13 82 55 28 15 5 3 48 31 12 20 10 4 44 27 8 79 53 25 19 8 3 48 31 12 43 25 7 20 10 4 80 54 26 227 233 232 255 255 255 255 255 255 236 234 232 215 218 212 219 218 213 215 227 212 234 234 227 234 235 226 231 233 223 232 234 232 235 230 224 234 229 226 233 233 228 62 62 62 66 64 57 160 90 11 160 90 11 227 144 29 227 144 29 160 90 11 227 166 75 227 144 29 160 90 11 208 124 20 227 144 29 227 144 29 227 144 29 160 90 11 227 166 75 227 144 29 160 90 11 160 90 11 160 90 11 160 90 11 45 0 3 68 19 0 160 90 11 68 19 0 68 19 0 160 90 11 68 19 0 68 19 0 68 19 0 160 90 11 68 19 0 68 19 0 160 90 11 160 90 11 160 90 11 226 152 19 76 0 5 196 201 60 226 152 19 207 221 66 211 228 68 226 152 19 211 228 68 207 221 66 202 212 64 160 90 11 191 190 57 185 179 54 233 180 22 0 0 0 223 223 223 234 233 235 234 233 235 234 233 235 234 233 235 234 233 235 234 233 235 234 29 29 234 29 29 223 223 223 223 223 223 223 223 223 234 233 235 223 223 223 0 0 0 0 0 0 151 73 26 167 83 32 167 83 32 175 88 35 167 83 32 167 83 32 167 83 32 175 88 35 167 83 32 167 83 32 167 83 32 175 88 35 167 83 32 151 73 26 0 0 0 0 0 0 151 73 26 122 34 0 122 34 0 122 34 0 116 32 0 103 23 0 103 23 0 103 23 0 103 23 0 103 23 0 116 32 0 122 34 0 122 34 0 151 73 26 0 0 0 0 0 0 167 83 32 184 93 39 167 83 32 184 93 39 167 83 32 184 93 39 184 93 39 184 93 39 184 93 39 184 93 39 184 93 39 184 93 39 184 93 39 167 83 32 0 0 0 180 28 26 185 33 31 181 29 27 185 33 31 181 29 27 188 36 34 179 27 25 208 208 208 
214 214 214 180 28 26 181 29 27 179 27 25 184 32 30 178 26 24 180 28 26 182 30 28 143 107 83 145 109 85 103 75 56 158 119 92 144 108 84 139 103 79 108 80 61 112 84 65 119 91 72 159 120 93 144 108 84 145 109 85 148 112 88 127 91 67 145 109 85 138 102 78 0 0 0 0 0 0 0 0 0 0 0 0 0 0 0 0 0 0 0 0 0 205 205 205 147 147 147 0 0 0 0 0 0 0 0 0 0 0 0 0 0 0 0 0 0 0 0 0 
0 0 0 0 0 0 164 164 164 104 104 104 65 54 37 91 70 37 100 79 42 129 103 64 142 115 60 142 115 60 0 0 0 0 0 0 65 54 37 104 104 104 164 164 164 164 164 164 28 24 24 28 24 24 33 29 29 36 32 32 31 27 27 28 24 24 27 23 23 23 19 19 16 12 12 24 22 22 28 24 24 32 28 28 24 22 22 24 22 22 32 28 28 34 32 32 68 68 68 66 66 66 73 73 73 74 74 74 70 70 70 68 68 68 65 65 65 62 62 62 53 53 53 64 64 64 68 68 68 70 70 70 64 64 64 64 64 64 70 70 70 73 73 73 0 0 0 0 0 0 0 0 0 0 0 0 0 0 0 0 0 0 0 0 0 103 82 49 61 48 29 0 0 0 0 0 0 0 0 0 0 0 0 0 0 0 0 0 0 0 0 0 20 10 4 50 33 14 41 25 9 49 33 13 47 30 11 59 39 19 29 16 5 51 35 15 50 33 14 44 27 8 46 29 10 19 8 3 48 31 12 77 51 23 83 56 29 17 6 3 58 61 58 219 216 209 215 220 210 236 242 223 238 235 229 234 235 219 230 237 232 181 179 174 216 218 212 233 236 228 235 228 225 232 228 226 64 59 57 62 57 64 31 30 24 27 26 19 160 90 11 160 90 11 227 144 29 208 124 20 160 90 11 227 144 29 227 144 29 160 90 11 208 124 20 227 144 29 227 144 29 208 124 20 160 90 11 227 166 75 227 144 29 160 90 11 160 90 11 160 90 11 160 90 11 45 0 3 160 90 11 227 144 29 68 19 0 160 90 11 160 90 11 227 144 29 227 144 29 68 19 0 160 90 11 227 166 75 160 90 11 160 90 11 160 90 11 160 90 11 160 90 11 76 0 5 226 152 19 227 144 29 202 212 64 226 152 19 160 90 11 227 144 29 246 221 49 198 204 61 160 90 11 227 166 75 160 90 11 160 90 11 0 0 0 223 223 223 234 233 235 234 29 29 234 233 235 234 233 235 234 233 235 234 233 235 234 233 235 234 233 235 234 233 235 234 233 235 234 233 235 234 233 235 223 223 223 0 0 0 0 0 0 151 73 26 175 88 35 184 93 39 184 93 39 175 88 35 175 88 35 184 93 39 184 93 39 175 88 35 175 88 35 184 93 39 184 93 39 175 88 35 151 73 26 0 0 0 0 0 0 151 73 26 122 34 0 129 38 0 129 38 0 122 34 0 122 34 0 129 38 0 129 38 0 122 34 0 122 34 0 129 38 0 129 38 0 122 34 0 151 73 26 0 0 0 0 0 0 167 83 32 184 93 39 184 93 39 184 93 39 184 93 39 184 93 39 167 83 32 184 93 39 184 93 39 167 83 32 184 93 39 184 93 39 184 93 39 167 83 32 0 0 0 182 30 28 176 24 22 181 29 27 173 21 19 179 27 25 173 21 19 181 29 27 
214 214 214 215 215 215 172 20 18 177 25 23 178 26 24 181 29 27 181 29 27 188 36 34 184 32 30 140 104 80 147 111 87 147 111 87 147 111 87 150 114 90 137 101 77 112 84 65 113 85 66 159 120 93 163 124 97 145 109 85 142 106 82 146 110 86 145 109 85 151 115 91 147 111 87 0 0 0 0 0 0 0 0 0 0 0 0 0 0 0 0 0 0 0 0 0 177 177 177 122 122 122 0 0 0 0 0 0 0 0 0 0 0 0 0 0 0 0 0 0 0 0 0 
0 0 0 0 0 0 164 164 164 104 104 104 0 0 0 0 0 0 0 0 0 100 79 42 100 79 42 100 79 42 142 115 60 104 85 56 104 104 104 164 164 164 82 67 40 129 103 64 33 29 29 32 28 28 26 22 22 24 22 22 32 28 28 27 23 23 28 24 24 29 27 27 36 32 32 31 27 27 22 18 18 22 18 18 27 23 23 28 24 24 23 19 19 21 17 17 73 73 73 72 72 72 65 65 65 62 62 62 70 70 70 65 65 65 66 66 66 69 69 69 74 74 74 69 69 69 61 61 61 61 61 61 65 65 65 68 68 68 61 61 61 59 59 59 0 0 0 0 0 0 0 0 0 0 0 0 0 0 0 0 0 0 0 0 0 152 120 73 59 46 27 0 0 0 0 0 0 0 0 0 0 0 0 0 0 0 0 0 0 0 0 0 17 6 3 46 29 10 79 53 25 20 10 4 49 33 13 59 39 19 29 16 5 19 8 3 76 50 22 47 30 11 80 54 26 17 7 3 44 27 8 59 39 19 19 8 3 46 29 10 25 24 28 63 60 58 54 63 58 234 234 230 233 234 224 255 255 255 255 255 255 255 255 255 237 231 229 219 220 212 58 58 62 60 60 57 186 179 176 218 221 218 29 34 24 28 23 27 160 90 11 208 124 20 227 144 29 208 124 20 160 90 11 227 144 29 227 144 29 160 90 11 160 90 11 227 166 75 227 144 29 160 90 11 160 90 11 227 144 29 227 144 29 160 90 11 160 90 11 208 124 20 227 144 29 208 124 20 160 90 11 227 144 29 227 144 29 160 90 11 160 90 11 227 166 75 227 144 29 160 90 11 160 90 11 227 144 29 227 144 29 160 90 11 160 90 11 208 124 20 227 144 29 208 124 20 160 90 11 227 144 29 227 144 29 160 90 11 160 90 11 227 166 75 227 144 29 160 90 11 160 90 11 227 144 29 227 144 29 160 90 11 0 0 0 213 213 213 223 223 223 223 223 223 223 223 223 223 223 223 223 223 223 223 223 223 223 223 223 223 223 223 223 223 223 223 223 223 223 223 223 223 223 223 213 213 213 0 0 0 0 0 0 151 73 26 184 93 39 184 93 39 184 93 39 184 93 39 184 93 39 167 83 32 184 93 39 184 93 39 184 93 39 184 93 39 167 83 32 184 93 39 151 73 26 0 0 0 0 0 0 151 73 26 129 38 0 129 38 0 129 38 0 129 38 0 129 38 0 116 32 0 129 38 0 129 38 0 129 38 0 129 38 0 116 32 0 129 38 0 151 73 26 0 0 0 0 0 0 167 83 32 167 83 32 167 83 32 167 83 32 167 83 32 167 83 32 167 83 32 167 83 32 167 83 32 167 83 32 167 83 32 167 83 32 167 83 32 167 83 32 0 0 0 181 29 27 181 29 27 181 29 27 181 29 27 175 23 21 181 29 27 
181 29 27 181 29 27 174 22 20 187 35 33 181 29 27 181 29 27 184 32 30 181 29 27 181 29 27 181 29 27 151 115 91 146 110 86 142 106 82 154 118 94 143 107 83 145 109 85 121 93 74 155 116 89 166 127 100 146 110 86 143 107 83 143 107 83 137 101 77 145 109 85 152 116 92 145 109 85 0 0 0 0 0 0 0 0 0 0 0 0 0 0 0 0 0 0 0 0 0 177 177 177 122 122 122 0 0 0 0 0 0 0 0 0 0 0 0 0 0 0 0 0 0 0 0 0 
0 0 0 0 0 0 164 164 164 104 104 104 0 0 0 0 0 0 0 0 0 0 0 0 0 0 0 0 0 0 76 61 37 65 54 37 104 104 104 164 164 164 129 103 64 0 0 0 18 16 16 21 17 17 31 27 27 27 23 23 21 17 17 23 19 19 32 28 28 33 29 29 24 22 22 23 19 19 28 24 24 31 27 27 21 17 17 21 17 17 31 27 27 32 28 28 55 55 55 59 59 59 70 70 70 65 65 65 59 59 59 61 61 61 70 70 70 73 73 73 64 64 64 61 61 61 66 66 66 70 70 70 59 59 59 59 59 59 69 69 69 70 70 70 0 0 0 0 0 0 0 0 0 0 0 0 0 0 0 0 0 0 0 0 0 103 82 49 55 42 23 0 0 0 0 0 0 0 0 0 0 0 0 0 0 0 0 0 0 0 0 0 41 25 9 47 30 11 59 39 19 19 8 3 43 26 7 47 30 11 47 30 11 20 10 4 47 30 11 49 33 13 46 29 10 15 4 3 46 29 10 47 30 11 44 27 8 59 39 19 232 230 229 235 234 230 234 235 229 59 60 57 217 223 213 218 220 213 226 220 216 237 234 230 234 234 229 237 237 233 215 209 211 224 221 213 220 214 215 255 255 255 255 255 255 244 239 227 160 90 11 160 90 11 208 124 20 208 124 20 160 90 11 160 90 11 208 124 20 160 90 11 160 90 11 208 124 20 160 90 11 160 90 11 208 124 20 208 124 20 160 90 11 160 90 11 160 90 11 160 90 11 208 124 20 208 124 20 160 90 11 160 90 11 208 124 20 160 90 11 160 90 11 208 124 20 160 90 11 160 90 11 208 124 20 208 124 20 160 90 11 160 90 11 160 90 11 160 90 11 208 124 20 208 124 20 160 90 11 160 90 11 208 124 20 160 90 11 160 90 11 208 124 20 160 90 11 160 90 11 208 124 20 208 124 20 160 90 11 160 90 11 0 0 0 0 0 0 0 0 0 0 0 0 0 0 0 0 0 0 0 0 0 0 0 0 0 0 0 0 0 0 0 0 0 0 0 0 0 0 0 0 0 0 0 0 0 0 0 0 0 0 0 151 73 26 151 73 26 151 73 26 151 73 26 151 73 26 151 73 26 151 73 26 151 73 26 151 73 26 151 73 26 151 73 26 151 73 26 151 73 26 151 73 26 0 0 0 0 0 0 151 73 26 103 23 0 103 23 0 103 23 0 103 23 0 103 23 0 103 23 0 103 23 0 103 23 0 103 23 0 103 23 0 103 23 0 103 23 0 151 73 26 0 0 0 0 0 0 0 0 0 0 0 0 0 0 0 0 0 0 0 0 0 0 0 0 0 0 0 0 0 0 0 0 0 0 0 0 0 0 0 0 0 0 0 0 0 0 0 0 0 0 0 189 37 35 181 29 27 186 34 32 191 39 37 174 22 20 178 26 24 180 28 26 170 18 16 185 33 31 173 21 19 181 29 27 181 29 27 181 29 27 181 29 27 187 35 33 181 29 27 148 112 88 155 119 95 146 110 86 153 117 93 153 117 93 
147 111 87 139 103 79 135 99 75 145 109 85 136 100 76 146 110 86 142 106 82 148 112 88 146 110 86 146 110 86 152 116 92 0 0 0 0 0 0 0 0 0 0 0 0 0 0 0 0 0 0 0 0 0 181 181 181 70 70 70 0 0 0 0 0 0 0 0 0 0 0 0 0 0 0 0 0 0 0 0 0 
0 0 0 0 0 0 164 164 164 104 104 104 0 0 0 0 0 0 0 0 0 0 0 0 0 0 0 0 0 0 0 0 0 0 0 0 104 104 104 164 164 164 0 0 0 0 0 0 138 49 44 142 48 46 135 48 43 136 46 44 150 51 48 160 57 52 139 48 45 141 47 45 156 53 50 157 56 51 128 44 42 136 46 44 153 52 49 153 52 49 136 46 44 130 46 42 201 115 139 204 120 144 199 107 131 200 112 135 207 131 152 214 146 164 201 115 139 203 119 141 210 138 158 212 142 162 195 97 125 200 110 136 209 135 154 209 135 154 200 110 136 196 102 126 135 135 135 128 128 128 128 128 128 128 128 128 128 128 128 135 135 135 146 146 146 146 146 146 120 120 120 146 146 146 135 135 135 128 128 128 128 128 128 128 128 128 128 128 128 135 135 135 0 0 0 154 154 154 0 0 0 79 79 79 0 0 0 154 154 154 79 79 79 0 0 0 152 152 152 0 0 0 152 152 152 79 79 79 0 0 0 152 152 152 0 0 0 152 152 152 49 49 49 154 154 154 49 49 49 79 79 79 49 49 49 154 154 154 79 79 79 49 49 49 152 152 152 49 49 49 152 152 152 79 79 79 49 49 49 152 152 152 49 49 49 152 152 152 130 8 8 130 8 9 135 12 14 138 15 14 133 6 12 130 11 8 137 12 14 144 13 13 139 16 13 130 9 10 128 6 9 130 10 9 130 10 9 139 13 14 136 14 18 135 13 15 129 9 8 126 9 4 134 10 7 150 30 32 147 31 28 138 20 19 131 9 12 113 0 0 178 179 175 173 173 173 188 192 190 201 199 199 176 177 178 157 160 159 159 156 157 177 176 175 174 181 38 137 141 33 137 141 33 190 184 41 190 184 41 190 184 41 162 164 43 126 133 35 126 133 35 174 181 38 174 181 38 167 166 39 131 136 36 131 136 36 175 173 38 176 173 38 166 166 39 188 185 45 166 166 39 124 134 33 124 134 33 177 175 39 177 175 39 177 175 39 188 185 45 177 175 39 153 155 35 122 126 36 153 155 35 188 185 45 188 185 45 188 185 45 72 72 72 81 81 81 78 78 78 74 74 74 67 67 67 83 83 83 82 82 82 77 77 77 75 75 75 77 77 77 77 77 77 75 75 75 74 74 74 79 79 79 75 75 75 78 78 78 57 57 57 61 61 61 61 61 61 61 61 61 58 58 58 60 60 60 55 55 55 57 57 57 56 56 56 61 61 61 57 57 57 60 60 60 58 58 58 61 61 61 58 58 58 61 61 61 0 0 0 0 0 0 0 0 0 0 0 0 0 0 0 0 0 0 0 0 0 0 0 0 0 0 0 0 0 0 0 0 0 0 0 0 0 0 0 0 0 0 0 0 0 0 0 0 196 193 183 214 211 200 
217 213 202 218 214 204 189 186 177 217 213 202 218 214 204 192 189 179 214 210 199 214 211 200 214 210 199 218 214 204 217 213 202 218 214 204 214 211 200 218 214 204 210 177 125 205 173 122 208 177 125 210 177 125 210 177 125 208 176 125 210 177 125 210 177 125 204 173 123 205 173 122 204 172 121 210 177 125 208 176 125 171 144 102 205 173 122 210 177 125 0 0 0 0 0 0 107 107 107 84 84 84 107 107 107 84 84 84 0 0 0 0 0 0 0 0 0 0 0 0 0 0 0 84 84 84 107 107 107 84 84 84 0 0 0 0 0 0 
0 0 0 129 103 64 164 164 164 104 104 104 92 77 48 113 93 53 164 128 74 164 128 74 172 136 82 172 136 82 135 109 69 104 85 56 104 104 104 164 164 164 129 103 64 0 0 0 151 51 49 156 53 50 173 61 55 174 62 56 163 56 53 157 56 51 146 50 48 145 49 47 136 46 44 130 46 42 141 47 45 145 49 47 122 42 40 131 45 43 142 48 46 148 50 48 209 133 153 210 138 158 220 164 178 222 166 182 215 151 168 212 142 162 206 126 149 206 124 145 200 112 135 196 102 126 203 119 141 206 124 145 192 86 116 197 103 129 204 120 144 207 129 149 135 135 135 168 168 168 176 176 176 176 176 176 176 176 176 176 176 176 176 176 176 176 176 176 163 163 163 176 176 176 176 176 176 176 176 176 157 157 157 168 168 168 168 168 168 128 128 128 152 152 152 138 138 138 138 138 138 79 79 79 49 49 49 152 152 152 0 0 0 49 49 49 0 0 0 152 152 152 138 138 138 79 79 79 0 0 0 0 0 0 0 0 0 138 138 138 152 152 152 138 138 138 138 138 138 79 79 79 49 49 49 152 152 152 49 49 49 49 49 49 49 49 49 152 152 152 138 138 138 79 79 79 49 49 49 49 49 49 49 49 49 138 138 138 129 9 9 132 10 9 143 17 16 151 22 22 148 21 16 151 20 22 151 20 22 154 21 25 153 18 21 143 15 19 136 10 12 153 22 25 160 26 28 160 30 29 163 23 27 164 31 32 167 34 36 155 25 22 137 5 11 158 36 38 158 41 37 137 13 15 132 7 9 118 4 1 198 196 203 208 211 208 230 235 234 246 244 247 210 215 214 184 179 181 176 170 171 159 164 161 174 181 38 137 141 33 122 126 36 137 141 33 179 184 42 190 184 41 158 158 36 126 133 35 148 156 34 177 175 39 177 175 39 131 136 36 131 136 36 131 136 36 144 152 55 176 173 38 190 184 41 188 185 45 188 185 45 90 103 26 124 134 33 124 134 33 190 184 41 177 175 39 177 175 39 153 155 35 122 126 36 153 155 35 122 126 36 177 175 39 177 175 39 153 155 35 72 72 72 59 59 59 64 64 64 60 60 60 62 62 62 64 64 64 61 61 61 63 63 63 68 68 68 59 59 59 63 63 63 60 60 60 61 61 61 63 63 63 59 59 59 63 63 63 60 60 60 63 63 63 64 64 64 56 56 56 59 59 59 59 59 59 55 55 55 60 60 60 64 64 64 60 60 60 59 59 59 56 56 56 58 58 58 55 55 55 60 60 60 60 60 60 0 0 0 0 0 0 0 0 0 0 0 0 0 0 0 73 73 73 73 73 73 
73 73 73 73 73 73 73 73 73 73 73 73 0 0 0 0 0 0 0 0 0 0 0 0 0 0 0 190 187 178 213 209 198 218 214 204 185 182 173 190 187 178 218 214 204 192 189 179 214 210 199 218 214 204 189 186 177 214 211 200 218 214 204 200 196 186 218 214 204 200 196 186 218 214 204 210 177 125 171 144 102 210 177 125 210 177 125 210 177 125 210 177 125 210 177 125 204 173 123 171 144 102 210 177 125 205 173 122 210 177 125 210 177 125 210 177 125 210 177 125 210 177 125 0 0 0 0 0 0 0 0 0 170 170 170 107 107 107 84 84 84 84 84 84 107 107 107 0 0 0 0 0 0 0 0 0 84 84 84 131 131 131 170 170 170 0 0 0 0 0 0 
0 0 0 82 67 40 164 164 164 104 104 104 69 59 39 82 67 40 100 79 42 100 79 42 100 79 42 100 79 42 76 61 37 65 54 37 104 104 104 164 164 164 82 67 40 0 0 0 163 56 53 165 58 53 145 49 47 148 50 48 168 59 54 165 58 53 153 52 49 145 49 47 157 56 51 165 58 53 157 56 51 157 56 51 169 58 55 173 61 55 157 56 51 156 53 50 215 151 168 216 154 170 206 124 145 207 129 149 218 158 173 216 154 170 209 135 154 206 124 145 212 142 162 216 154 170 212 142 162 212 142 162 219 159 175 220 164 178 212 142 162 210 138 158 135 135 135 157 157 157 163 163 163 163 163 163 157 157 157 163 163 163 163 163 163 163 163 163 176 176 176 163 163 163 168 168 168 168 168 168 168 168 168 176 176 176 168 168 168 135 135 135 0 0 0 152 152 152 0 0 0 66 66 66 152 152 152 0 0 0 152 152 152 0 0 0 152 152 152 0 0 0 152 152 152 66 66 66 0 0 0 152 152 152 79 79 79 152 152 152 49 49 49 152 152 152 49 49 49 49 49 49 152 152 152 49 49 49 152 152 152 49 49 49 152 152 152 49 49 49 152 152 152 49 49 49 49 49 49 152 152 152 79 79 79 152 152 152 130 9 8 137 14 15 169 43 47 178 54 55 173 51 55 173 51 51 176 57 53 177 51 52 172 48 49 163 41 40 165 40 40 171 46 46 178 56 58 182 58 61 182 56 63 182 62 63 180 61 61 175 54 53 146 25 23 190 76 80 180 64 65 161 39 36 127 7 9 108 0 0 198 200 197 242 242 243 255 252 255 255 255 255 243 243 249 209 206 208 177 177 174 160 156 157 174 181 38 122 126 36 137 141 33 122 126 36 179 184 42 177 175 39 139 148 45 129 135 37 124 134 33 177 175 39 174 181 38 131 136 36 100 111 31 131 136 36 131 136 36 176 173 38 190 184 41 190 184 41 190 184 41 92 112 38 153 155 35 124 134 33 190 184 41 190 184 41 153 155 35 122 126 36 153 155 35 158 158 36 153 155 35 177 175 39 153 155 35 188 185 45 76 76 76 65 65 65 0 0 0 0 0 0 0 0 0 0 0 0 0 0 0 0 0 0 0 0 0 0 0 0 0 0 0 0 0 0 0 0 0 0 0 0 62 62 62 80 80 80 60 60 60 60 60 60 58 58 58 59 59 59 59 59 59 58 58 58 56 56 56 60 60 60 57 57 57 59 59 59 59 59 59 57 57 57 56 56 56 62 62 62 60 60 60 62 62 62 0 0 0 0 0 0 0 0 0 73 73 73 73 73 73 194 194 194 194 194 194 194 194 194 194 194 194 194 194 194 
194 194 194 73 73 73 73 73 73 0 0 0 0 0 0 0 0 0 186 183 175 210 206 196 212 208 197 192 189 179 214 211 200 218 214 204 189 186 177 214 210 199 218 214 204 188 185 175 214 210 199 218 214 204 200 196 186 218 214 204 200 196 186 218 214 204 210 177 125 210 177 125 202 170 120 210 177 125 205 173 122 171 144 102 210 177 125 204 172 121 210 177 125 210 177 125 171 144 102 210 177 125 171 144 102 210 177 125 210 177 125 210 177 125 0 0 0 0 0 0 0 0 0 107 107 107 170 170 170 0 0 0 0 0 0 114 114 114 107 107 107 0 0 0 0 0 0 170 170 170 107 107 107 84 84 84 0 0 0 0 0 0 
0 0 0 0 0 0 164 164 164 104 104 104 0 0 0 0 0 0 0 0 0 0 0 0 0 0 0 0 0 0 0 0 0 0 0 0 104 104 104 164 164 164 0 0 0 0 0 0 151 51 49 142 48 46 159 54 51 165 58 53 145 49 47 143 49 47 150 51 48 165 58 53 139 48 45 146 50 48 165 58 53 165 58 53 151 51 49 142 48 46 174 62 56 163 56 53 209 133 153 204 120 144 212 144 163 216 154 170 206 124 145 204 122 145 207 131 152 216 154 170 201 115 139 206 126 149 216 154 170 216 154 170 209 133 153 204 120 144 222 166 182 216 152 169 135 135 135 176 176 176 168 168 168 168 168 168 168 168 168 157 157 157 168 168 168 176 176 176 168 168 168 168 168 168 163 163 163 163 163 163 163 163 163 163 163 163 163 163 163 135 135 135 152 152 152 0 0 0 152 152 152 0 0 0 0 0 0 152 152 152 85 85 85 0 0 0 138 138 138 0 0 0 79 79 79 49 49 49 152 152 152 79 79 79 152 152 152 0 0 0 152 152 152 49 49 49 152 152 152 49 49 49 49 49 49 152 152 152 85 85 85 49 49 49 138 138 138 49 49 49 79 79 79 49 49 49 152 152 152 79 79 79 152 152 152 49 49 49 132 9 8 147 15 17 169 48 47 174 54 53 172 55 54 173 55 55 173 54 50 176 52 55 174 51 53 171 48 48 169 44 43 167 40 41 173 46 49 176 50 49 178 53 54 177 51 52 170 50 50 170 48 44 151 22 25 194 86 84 182 66 67 156 37 41 132 9 9 115 0 3 206 203 201 249 249 250 255 253 255 252 251 254 244 243 240 229 231 231 185 186 189 156 158 160 137 141 33 89 102 26 122 126 36 113 122 36 179 184 42 177 175 39 143 153 38 103 114 30 124 134 33 177 175 39 177 175 39 131 136 36 95 107 29 131 136 36 131 136 36 181 177 39 158 158 36 158 158 36 190 184 41 153 155 35 124 134 33 122 126 36 190 184 41 153 155 35 153 155 35 153 155 35 158 158 36 153 155 35 177 175 39 153 155 35 122 126 36 122 126 36 77 77 77 62 62 62 0 0 0 0 0 0 0 0 0 0 0 0 0 0 0 0 0 0 0 0 0 0 0 0 0 0 0 0 0 0 0 0 0 0 0 0 62 62 62 74 74 74 57 57 57 58 58 58 59 59 59 59 59 59 58 58 58 54 54 54 54 54 54 53 53 53 55 55 55 52 52 52 55 55 55 60 60 60 59 59 59 56 56 56 60 60 60 58 58 58 0 0 0 73 73 73 73 73 73 194 194 194 194 194 194 234 233 235 234 29 29 234 233 235 234 233 235 234 233 235 234 233 235 194 194 194 194 194 194 
73 73 73 73 73 73 0 0 0 217 213 202 196 192 182 211 207 197 191 188 179 218 214 204 218 214 204 189 186 177 214 211 200 218 214 204 188 185 175 214 211 200 218 214 204 189 186 177 218 214 204 193 189 180 218 214 204 208 176 125 210 177 125 201 169 121 210 177 125 171 144 102 210 177 125 210 177 125 205 173 122 210 177 125 210 177 125 205 173 122 210 177 125 210 177 125 210 177 125 210 177 125 171 144 102 170 170 170 0 0 0 0 0 0 84 84 84 170 170 170 0 0 0 0 0 0 0 0 0 84 84 84 107 107 107 114 114 114 107 107 107 107 107 107 84 84 84 107 107 107 170 170 170 
0 0 0 0 0 0 164 164 164 104 104 104 0 0 0 0 0 0 0 0 0 0 0 0 0 0 0 0 0 0 0 0 0 0 0 0 104 104 104 164 164 164 0 0 0 0 0 0 156 53 50 148 50 48 139 48 45 151 51 49 160 57 52 159 54 51 128 44 42 124 44 40 142 48 46 153 52 49 141 47 45 133 47 43 160 57 52 160 57 52 136 46 44 128 44 42 210 138 158 207 129 149 201 115 139 209 133 153 214 146 164 212 144 163 195 97 125 193 91 120 204 120 144 209 135 154 203 119 141 197 105 131 214 146 164 214 146 164 200 110 136 195 97 125 135 135 135 176 176 176 176 176 176 163 163 163 163 163 163 163 163 163 146 146 146 146 146 146 146 146 146 146 146 146 176 176 176 176 176 176 176 176 176 176 176 176 176 176 176 120 120 120 79 79 79 0 0 0 0 0 0 138 138 138 152 152 152 0 0 0 152 152 152 79 79 79 138 138 138 152 152 152 0 0 0 0 0 0 0 0 0 152 152 152 66 66 66 0 0 0 79 79 79 49 49 49 49 49 49 138 138 138 152 152 152 49 49 49 152 152 152 79 79 79 138 138 138 152 152 152 49 49 49 49 49 49 49 49 49 152 152 152 49 49 49 49 49 49 129 11 7 156 19 25 172 47 49 171 47 44 157 34 36 166 41 40 169 47 45 164 43 46 170 46 44 162 43 41 159 36 40 155 32 32 153 32 34 154 33 34 158 37 37 155 38 40 157 43 43 151 30 31 147 17 16 190 84 83 183 66 67 150 32 27 126 10 9 114 0 1 209 215 211 252 254 254 253 253 252 254 245 248 237 231 234 241 233 239 203 197 201 167 161 163 137 141 33 122 126 36 90 103 26 113 122 36 179 184 42 177 175 39 173 184 44 103 114 30 103 114 30 177 175 39 177 175 39 111 124 45 95 107 29 131 136 36 180 177 39 183 179 39 124 134 33 122 126 36 158 158 36 153 155 35 90 103 26 124 134 33 177 175 39 190 184 41 103 114 30 158 158 36 124 134 33 177 175 39 124 134 33 153 155 35 188 185 45 166 166 39 76 76 76 65 65 65 0 0 0 0 0 0 0 0 0 0 0 0 0 0 0 0 0 0 0 0 0 0 0 0 0 0 0 0 0 0 0 0 0 0 0 0 63 63 63 75 75 75 60 60 60 61 61 61 59 59 59 58 58 58 53 53 53 51 51 51 49 49 49 49 49 49 48 48 48 50 50 50 52 52 52 57 57 57 57 57 57 59 59 59 57 57 57 55 55 55 73 73 73 194 194 194 194 194 194 234 29 29 234 233 235 234 233 235 234 233 235 234 233 235 234 233 235 234 233 235 234 29 29 234 233 235 
234 233 235 194 194 194 194 194 194 73 73 73 215 211 200 192 189 179 217 213 202 214 210 199 218 214 204 218 214 204 217 213 202 214 210 199 218 214 203 193 189 180 215 211 200 218 214 204 189 186 177 218 214 204 188 185 175 218 214 204 206 174 123 171 144 102 208 177 125 210 177 125 210 177 125 210 177 125 208 177 125 204 172 121 209 176 124 171 144 102 206 174 123 210 177 125 210 177 125 171 144 102 210 177 125 210 177 125 131 131 131 0 0 0 0 0 0 0 0 0 131 131 131 107 107 107 0 0 0 0 0 0 0 0 0 131 131 131 84 84 84 84 84 84 170 170 170 0 0 0 84 84 84 131 131 131 
0 0 0 129 103 64 164 164 164 104 104 104 108 89 60 135 109 69 172 136 82 142 115 60 142 115 60 142 115 60 100 79 42 108 89 60 104 104 104 164 164 164 129 103 64 0 0 0 131 45 43 126 42 40 139 48 45 165 58 53 139 48 45 124 44 40 138 49 44 142 48 46 139 48 45 124 44 40 142 48 46 145 49 47 130 46 42 141 47 45 136 46 44 145 49 47 197 103 129 194 96 121 202 116 140 216 154 170 201 115 139 193 91 120 201 115 139 204 120 144 201 115 139 193 91 120 204 120 144 206 124 145 196 100 125 203 119 141 200 112 135 205 123 144 128 128 128 163 163 163 168 168 168 168 168 168 168 168 168 146 146 146 130 130 130 120 120 120 120 120 120 129 129 129 197 197 197 168 168 168 163 163 163 163 163 163 157 157 157 135 135 135 79 79 79 0 0 0 138 138 138 79 79 79 79 79 79 0 0 0 0 0 0 79 79 79 152 152 152 49 49 49 152 152 152 79 79 79 152 152 152 79 79 79 152 152 152 0 0 0 79 79 79 49 49 49 138 138 138 79 79 79 79 79 79 49 49 49 49 49 49 79 79 79 152 152 152 49 49 49 152 152 152 79 79 79 152 152 152 79 79 79 152 152 152 49 49 49 132 11 13 155 29 26 182 60 56 178 55 56 156 29 34 155 33 34 153 30 30 148 23 27 143 25 25 140 22 24 137 15 18 135 19 15 130 25 18 134 18 18 136 23 24 143 22 21 137 23 15 141 18 20 145 18 21 196 90 87 162 38 46 129 20 20 121 8 10 111 0 0 213 213 218 247 246 243 249 244 246 241 243 241 237 234 235 237 234 234 211 209 209 178 179 176 137 141 33 90 103 26 90 103 26 90 103 26 137 141 33 177 175 39 148 147 38 98 109 27 103 114 30 177 175 39 177 175 39 103 114 32 95 107 29 89 102 26 177 175 39 190 184 41 124 134 33 122 126 36 158 158 36 158 158 36 153 155 35 124 134 33 124 134 33 177 175 39 92 112 38 124 134 33 90 103 26 124 134 33 153 155 35 177 175 39 177 175 39 166 166 39 79 79 79 61 61 61 0 0 0 0 0 0 0 0 0 0 0 0 0 0 0 0 0 0 0 0 0 0 0 0 0 0 0 0 0 0 0 0 0 0 0 0 57 57 57 74 74 74 60 60 60 57 57 57 59 59 59 56 56 56 52 52 52 48 48 48 46 46 46 46 46 46 46 46 46 47 47 47 50 50 50 54 54 54 57 57 57 61 61 61 58 58 58 56 56 56 73 73 73 194 194 194 234 233 235 234 233 235 234 233 235 234 233 235 234 233 235 234 233 235 
234 29 29 234 233 235 234 233 235 234 233 235 234 29 29 234 233 235 194 194 194 73 73 73 217 213 202 210 206 196 217 213 202 214 210 199 218 214 204 214 211 200 214 210 199 215 211 200 216 212 201 189 186 177 214 211 200 218 214 204 189 186 177 218 214 204 191 188 179 214 210 199 208 177 125 200 168 121 208 177 125 204 173 123 210 177 125 205 173 122 171 144 102 206 174 123 207 174 122 210 177 125 205 173 122 171 144 102 210 177 125 210 177 125 210 177 125 204 172 121 84 84 84 84 84 84 0 0 0 0 0 0 107 107 107 84 84 84 0 0 0 0 0 0 131 131 131 170 170 170 0 0 0 84 84 84 170 170 170 0 0 0 84 84 84 84 84 84 
0 0 0 82 67 40 164 164 164 104 104 104 65 54 37 76 61 37 91 70 37 100 79 42 100 79 42 100 79 42 91 70 37 65 54 37 104 104 104 164 164 164 82 67 40 0 0 0 173 61 55 174 62 56 162 55 52 159 54 51 150 51 48 150 51 48 148 50 48 153 52 49 163 56 53 174 62 56 156 53 50 146 50 48 174 62 56 174 62 56 157 56 51 153 52 49 220 164 178 222 166 182 215 151 168 212 144 163 207 131 152 207 131 152 207 129 149 209 135 154 215 151 168 222 166 182 210 138 158 206 126 149 222 166 182 222 166 182 212 142 162 209 135 154 120 120 120 128 128 128 168 168 168 168 168 168 168 168 168 146 146 146 146 146 146 86 6 0 87 0 0 176 176 176 205 205 205 168 168 168 176 176 176 176 176 176 120 120 120 120 120 120 66 66 66 152 152 152 138 138 138 138 138 138 79 79 79 0 0 0 152 152 152 0 0 0 66 66 66 152 152 152 79 79 79 0 0 0 138 138 138 79 79 79 0 0 0 154 154 154 49 49 49 152 152 152 138 138 138 138 138 138 79 79 79 49 49 49 152 152 152 49 49 49 49 49 49 152 152 152 79 79 79 49 49 49 138 138 138 79 79 79 49 49 49 154 154 154 134 13 9 148 17 21 177 57 53 157 44 42 147 25 28 146 26 23 145 23 25 139 20 20 137 16 19 136 18 14 138 21 18 129 19 18 138 17 16 137 24 20 138 20 21 136 18 21 141 21 21 144 23 20 150 19 18 204 99 98 156 38 36 133 16 14 119 2 6 110 0 0 213 213 213 240 239 241 245 241 241 235 237 240 235 234 236 229 233 241 209 206 210 182 181 187 137 141 33 90 103 26 90 103 26 90 103 26 137 141 33 177 175 39 148 147 38 90 103 26 90 103 26 135 135 37 177 175 39 103 114 32 95 107 29 89 102 26 177 175 39 190 184 41 124 134 33 124 134 33 90 103 26 188 185 45 124 134 33 190 184 41 124 134 33 92 112 38 124 134 33 90 103 26 124 134 33 177 175 39 158 158 36 158 158 36 188 185 45 166 166 39 76 76 76 62 62 62 0 0 0 0 0 0 0 0 0 0 0 0 0 0 0 0 0 0 0 0 0 0 0 0 0 0 0 0 0 0 0 0 0 0 0 0 64 64 64 71 71 71 58 58 58 59 59 59 58 58 58 54 54 54 49 49 49 46 46 46 44 44 44 44 44 44 44 44 44 45 45 45 48 48 48 50 50 50 56 56 56 56 56 56 59 59 59 58 58 58 73 73 73 194 194 194 194 194 194 234 233 235 234 29 29 234 233 235 234 233 235 234 233 235 234 233 235 234 233 235 
234 233 235 234 233 235 234 233 235 194 194 194 194 194 194 73 73 73 214 211 200 218 214 204 200 196 186 217 213 202 218 214 204 211 207 197 214 211 200 188 185 175 218 214 204 188 185 175 218 214 204 207 204 193 184 181 172 218 214 204 189 186 177 218 214 203 205 173 122 210 177 125 210 177 125 171 144 102 210 177 125 201 168 120 205 173 122 210 177 125 171 144 102 210 177 125 210 177 125 210 177 125 210 177 125 210 177 125 210 177 125 209 176 124 107 107 107 0 0 0 107 107 107 84 84 84 107 107 107 84 84 84 0 0 0 107 107 107 84 84 84 107 107 107 0 0 0 0 0 0 131 131 131 84 84 84 0 0 0 84 84 84 
0 0 0 0 0 0 164 164 164 104 104 104 0 0 0 0 0 0 0 0 0 0 0 0 0 0 0 0 0 0 0 0 0 0 0 0 104 104 104 164 164 164 0 0 0 0 0 0 142 48 46 142 48 46 173 61 55 174 62 56 157 56 51 156 53 50 165 58 53 163 56 53 136 46 44 141 47 45 159 54 51 165 58 53 156 53 50 156 53 50 165 58 53 163 56 53 204 120 144 204 120 144 220 164 178 222 166 182 212 142 162 210 138 158 216 154 170 216 152 169 200 112 135 203 119 141 212 144 163 216 154 170 210 138 158 210 138 158 217 155 173 216 152 169 135 135 135 146 146 146 128 128 128 163 163 163 146 146 146 128 128 128 146 146 146 84 2 0 70 4 2 176 176 176 163 163 163 197 197 197 163 163 163 120 120 120 135 135 135 135 135 135 0 0 0 49 49 49 152 152 152 0 0 0 49 49 49 152 152 152 0 0 0 152 152 152 152 152 152 0 0 0 152 152 152 0 0 0 138 138 138 0 0 0 152 152 152 0 0 0 49 49 49 49 49 49 152 152 152 49 49 49 49 49 49 152 152 152 49 49 49 152 152 152 152 152 152 49 49 49 152 152 152 49 49 49 138 138 138 49 49 49 152 152 152 49 49 49 129 10 9 144 15 16 154 32 35 140 21 22 135 22 14 139 20 18 135 19 16 135 22 18 139 19 24 141 21 20 140 21 21 141 20 19 141 20 24 141 21 21 141 22 23 140 21 22 140 21 21 139 18 25 141 15 14 190 74 75 149 29 27 134 20 19 116 0 6 106 2 0 215 218 220 238 241 239 241 241 241 236 238 241 235 235 236 235 238 235 204 209 207 181 182 181 137 141 33 113 122 36 90 103 26 90 103 26 137 146 37 190 184 41 173 184 44 90 103 26 90 103 26 135 135 37 177 175 39 103 114 32 103 114 32 89 102 26 144 152 55 190 184 41 158 158 36 158 158 36 124 134 33 90 103 26 124 134 33 124 134 33 153 155 35 124 134 33 124 134 33 124 134 33 177 175 39 158 158 36 122 126 36 122 126 36 122 126 36 166 166 39 76 76 76 59 59 59 0 0 0 0 0 0 0 0 0 0 0 0 0 0 0 0 0 0 0 0 0 0 0 0 0 0 0 0 0 0 0 0 0 0 0 0 60 60 60 68 68 68 62 62 62 59 59 59 57 57 57 54 54 54 48 48 48 46 46 46 44 44 44 44 44 44 45 45 45 45 45 45 46 46 46 49 49 49 54 54 54 58 58 58 59 59 59 60 60 60 73 73 73 206 206 206 234 233 235 194 194 194 194 194 194 234 233 235 234 233 235 234 233 235 234 29 29 234 233 235 234 233 235 194 194 194 194 194 194 
188 188 188 188 188 188 73 73 73 216 212 201 218 214 204 189 186 177 216 212 201 218 214 204 189 186 177 218 214 204 192 189 179 218 214 204 186 183 175 218 214 204 200 196 186 214 210 199 218 214 204 190 187 178 218 214 203 207 174 122 210 177 125 210 177 125 207 174 122 171 144 102 210 177 125 171 144 102 210 177 125 210 177 125 210 177 125 210 177 125 171 144 102 204 173 123 210 177 125 171 144 102 209 176 124 0 0 0 0 0 0 84 84 84 107 107 107 107 107 107 170 170 170 131 131 131 84 84 84 0 0 0 0 0 0 0 0 0 170 170 170 107 107 107 84 84 84 0 0 0 0 0 0 
0 0 0 0 0 0 164 164 164 104 104 104 0 0 0 0 0 0 0 0 0 0 0 0 0 0 0 0 0 0 0 0 0 0 0 0 104 104 104 164 164 164 0 0 0 0 0 0 157 56 51 157 56 51 131 45 43 142 48 46 163 56 53 156 53 50 139 48 45 143 49 47 142 48 46 145 49 47 141 47 45 130 46 42 150 51 48 146 50 48 135 48 43 133 47 43 212 142 162 212 142 162 197 103 129 204 120 144 216 152 169 210 138 158 201 115 139 204 122 145 204 120 144 206 124 145 203 119 141 196 100 125 207 131 152 206 126 149 199 107 131 197 105 131 146 146 146 135 135 135 197 197 197 157 157 157 146 146 146 128 128 128 146 146 146 85 0 0 40 0 0 176 176 176 157 157 157 205 205 205 176 176 176 128 128 128 135 135 135 146 146 146 0 0 0 152 152 152 79 79 79 152 152 152 49 49 49 0 0 0 152 152 152 79 79 79 79 79 79 0 0 0 0 0 0 154 154 154 79 79 79 152 152 152 0 0 0 152 152 152 49 49 49 152 152 152 79 79 79 152 152 152 49 49 49 49 49 49 152 152 152 79 79 79 79 79 79 49 49 49 49 49 49 154 154 154 79 79 79 152 152 152 49 49 49 152 152 152 129 8 11 149 14 17 152 32 29 139 21 24 138 20 24 142 18 21 140 20 22 145 21 23 138 21 21 140 22 19 138 21 18 140 22 23 140 21 21 140 22 22 141 26 21 139 18 21 139 21 20 138 21 21 142 15 11 183 59 63 147 28 28 133 18 16 116 5 11 109 0 0 214 214 214 241 244 240 245 241 239 238 238 240 236 234 232 232 234 235 204 207 209 178 174 180 137 141 33 113 122 36 90 103 26 113 122 36 144 152 55 190 184 41 173 184 44 90 103 26 90 103 26 177 175 39 190 184 41 103 114 32 103 114 32 89 102 26 144 152 55 190 184 41 188 185 45 188 185 45 158 158 36 158 158 36 124 134 33 90 103 26 153 155 35 153 155 35 124 134 33 124 134 33 122 126 36 103 114 30 122 126 36 122 126 36 122 126 36 122 126 36 76 76 76 58 58 58 0 0 0 0 0 0 0 0 0 0 0 0 0 0 0 0 0 0 0 0 0 0 0 0 0 0 0 0 0 0 0 0 0 0 0 0 68 68 68 79 79 79 60 60 60 59 59 59 57 57 57 54 54 54 48 48 48 46 46 46 45 45 45 45 45 45 45 45 45 45 45 45 46 46 46 49 49 49 54 54 54 54 54 54 59 59 59 57 57 57 61 29 11 206 206 206 234 233 235 234 233 235 234 233 235 194 194 194 194 194 194 194 194 194 194 194 194 194 194 194 194 194 194 188 188 188 
188 188 188 188 188 188 188 188 188 61 29 11 214 211 200 218 214 204 190 187 178 218 214 204 218 214 204 192 189 179 214 211 200 191 188 179 214 211 200 193 189 180 218 214 204 188 185 175 217 213 202 216 212 201 190 187 178 218 214 204 205 173 122 210 177 125 171 144 102 210 177 125 210 177 125 210 177 125 205 173 122 210 177 125 171 144 102 210 177 125 210 177 125 210 177 125 208 177 125 207 174 122 210 177 125 210 177 125 0 0 0 0 0 0 0 0 0 84 84 84 170 170 170 107 107 107 84 84 84 0 0 0 0 0 0 0 0 0 0 0 0 107 107 107 131 131 131 0 0 0 0 0 0 0 0 0 
0 0 0 129 103 64 164 164 164 104 104 104 108 89 60 135 109 69 142 115 60 142 115 60 142 115 60 142 115 60 164 128 74 104 85 56 104 104 104 164 164 164 129 103 64 0 0 0 142 48 46 146 50 48 145 49 47 163 56 53 125 43 41 128 44 42 146 50 48 154 52 50 139 48 45 156 53 50 174 62 56 174 62 56 148 50 48 157 56 51 174 62 56 173 61 55 204 120 144 206 126 149 205 123 144 215 151 168 194 94 120 195 97 125 206 126 149 210 136 157 201 115 139 210 138 158 222 166 182 222 166 182 207 129 149 212 142 162 222 166 182 220 164 178 197 197 197 197 197 197 163 163 163 146 146 146 128 128 128 163 163 163 146 146 146 88 1 1 44 3 0 176 176 176 163 163 163 157 157 157 205 205 205 163 163 163 197 197 197 197 197 197 152 152 152 66 66 66 138 138 138 79 79 79 0 0 0 152 152 152 0 0 0 152 152 152 66 66 66 0 0 0 152 152 152 0 0 0 79 79 79 0 0 0 152 152 152 79 79 79 152 152 152 49 49 49 138 138 138 79 79 79 49 49 49 152 152 152 49 49 49 152 152 152 49 49 49 49 49 49 152 152 152 49 49 49 79 79 79 49 49 49 152 152 152 79 79 79 130 7 11 146 16 17 158 32 31 145 25 27 138 22 21 140 21 21 139 23 22 133 21 24 141 21 22 138 21 16 139 20 20 137 20 22 140 17 20 142 20 15 144 24 21 140 21 22 143 21 19 135 20 21 137 15 14 182 62 62 154 27 24 137 20 16 116 4 5 108 0 0 211 210 210 241 239 242 237 238 241 238 234 240 237 234 235 236 233 235 208 207 203 183 179 178 148 147 38 113 122 36 90 103 26 113 122 36 179 184 42 190 184 41 173 184 44 98 109 27 90 103 26 177 175 39 190 184 41 111 124 45 103 114 30 89 102 26 161 164 49 190 184 41 188 185 45 190 184 41 158 158 36 158 158 36 90 103 26 122 126 36 153 155 35 90 103 26 124 134 33 92 112 38 92 112 38 177 175 39 177 175 39 166 166 39 103 114 30 122 126 36 70 70 70 62 62 62 0 0 0 0 0 0 0 0 0 0 0 0 0 0 0 0 0 0 0 0 0 0 0 0 0 0 0 0 0 0 0 0 0 0 0 0 58 58 58 80 80 80 60 60 60 59 59 59 58 58 58 55 55 55 51 51 51 47 47 47 45 45 45 45 45 45 45 45 45 45 45 45 47 47 47 52 52 52 55 55 55 56 56 56 57 57 57 58 58 58 61 29 11 151 73 26 206 206 206 234 233 235 234 233 235 234 233 235 206 206 206 206 206 206 206 206 206 
188 188 188 188 188 188 188 188 188 188 188 188 167 83 32 151 73 26 61 29 11 214 211 200 218 214 204 196 193 183 214 210 199 217 213 202 218 214 204 193 189 180 215 211 200 215 211 200 186 182 174 218 214 204 193 189 180 216 212 201 218 214 204 192 189 179 218 214 204 171 144 102 210 177 125 210 177 125 204 172 121 208 176 125 210 177 125 171 144 102 206 174 123 206 174 123 210 177 125 210 177 125 210 177 125 207 174 122 171 144 102 210 177 125 210 177 125 0 0 0 0 0 0 84 84 84 107 107 107 170 170 170 107 107 107 84 84 84 0 0 0 0 0 0 0 0 0 131 131 131 84 84 84 131 131 131 0 0 0 0 0 0 0 0 0 
0 0 0 82 67 40 164 164 164 104 104 104 65 54 37 76 61 37 91 70 37 100 79 42 100 79 42 100 79 42 100 79 42 69 59 39 104 104 104 164 164 164 82 67 40 0 0 0 163 56 53 165 58 53 157 56 51 157 56 51 174 62 56 165 58 53 157 56 51 156 53 50 165 58 53 163 56 53 145 49 47 153 52 49 156 53 50 150 51 48 136 46 44 151 51 49 216 152 169 217 155 173 212 142 162 212 142 162 222 166 182 216 154 170 212 142 162 210 138 158 217 155 173 215 151 168 206 124 145 209 135 154 210 138 158 207 131 152 200 110 136 209 133 153 135 135 135 168 168 168 176 176 176 146 146 146 128 128 128 157 157 157 146 146 146 90 0 3 40 0 0 176 176 176 163 163 163 163 163 163 205 205 205 168 168 168 168 168 168 135 135 135 138 138 138 0 0 0 0 0 0 66 66 66 152 152 152 79 79 79 0 0 0 0 0 0 0 0 0 152 152 152 79 79 79 152 152 152 0 0 0 152 152 152 49 49 49 79 79 79 138 138 138 49 49 49 49 49 49 49 49 49 152 152 152 79 79 79 49 49 49 49 49 49 49 49 49 152 152 152 79 79 79 152 152 152 49 49 49 152 152 152 49 49 49 79 79 79 132 10 8 141 16 17 157 35 36 144 29 27 135 18 23 131 22 17 135 18 18 136 18 18 135 17 16 141 21 24 138 20 21 136 23 25 139 20 21 140 21 21 145 21 20 140 23 22 139 23 21 139 16 18 134 13 12 180 62 60 148 33 28 140 21 25 121 6 2 109 0 0 198 195 195 225 220 227 235 233 233 233 233 236 233 233 236 220 225 227 193 193 193 175 172 175 148 147 38 113 122 36 113 122 36 113 122 36 177 175 39 190 184 41 173 184 44 98 109 27 90 103 26 188 185 45 177 175 39 111 124 45 103 114 30 89 102 26 161 164 49 190 184 41 190 184 41 158 158 36 122 126 36 90 103 26 122 126 36 190 184 41 177 175 39 92 112 38 190 184 41 92 112 38 90 103 26 158 158 36 177 175 39 166 166 39 122 126 36 166 166 39 80 80 80 67 67 67 0 0 0 0 0 0 0 0 0 0 0 0 0 0 0 0 0 0 0 0 0 0 0 0 0 0 0 0 0 0 0 0 0 0 0 0 60 60 60 76 76 76 59 59 59 58 58 58 55 55 55 57 57 57 52 52 52 50 50 50 47 47 47 46 46 46 46 46 46 47 47 47 50 50 50 53 53 53 57 57 57 57 57 57 57 57 57 60 60 60 61 29 11 151 73 26 167 83 32 167 83 32 234 233 235 206 206 206 206 206 206 206 206 206 206 206 206 188 188 188 188 188 188 
188 188 188 167 83 32 167 83 32 151 73 26 61 29 11 196 192 182 218 214 204 191 188 179 215 211 200 214 210 199 218 214 204 186 183 175 212 208 197 189 186 177 210 206 196 218 214 204 191 188 179 215 211 200 218 214 204 193 190 181 218 214 204 210 177 125 210 177 125 210 177 125 206 174 123 204 172 121 171 144 102 210 177 125 202 170 120 210 177 125 200 168 121 171 144 102 210 177 125 206 174 123 210 177 125 210 177 125 210 177 125 0 0 0 0 0 0 170 170 170 107 107 107 131 131 131 0 0 0 0 0 0 84 84 84 0 0 0 0 0 0 107 107 107 0 0 0 131 131 131 84 84 84 0 0 0 0 0 0 
0 0 0 0 0 0 164 164 164 104 104 104 0 0 0 0 0 0 0 0 0 0 0 0 0 0 0 0 0 0 0 0 0 0 0 0 104 104 104 164 164 164 0 0 0 0 0 0 136 46 44 139 48 45 154 52 50 154 52 50 142 48 46 143 49 47 160 57 52 157 56 51 136 46 44 139 48 45 142 48 46 156 53 50 126 42 40 126 42 40 145 49 47 156 53 50 200 110 136 201 115 139 210 136 157 210 136 157 204 120 144 204 122 145 214 146 164 212 142 162 200 112 135 201 115 139 204 120 144 210 138 158 194 96 121 194 96 121 205 123 144 210 138 158 120 120 120 168 168 168 146 146 146 128 128 128 163 163 163 157 157 157 146 146 146 75 0 0 42 0 2 176 176 176 163 163 163 157 157 157 163 163 163 205 205 205 176 176 176 120 120 120 0 0 0 0 0 0 152 152 152 0 0 0 138 138 138 79 79 79 0 0 0 152 152 152 79 79 79 0 0 0 152 152 152 138 138 138 0 0 0 79 79 79 0 0 0 66 66 66 49 49 49 49 49 49 152 152 152 49 49 49 138 138 138 79 79 79 49 49 49 152 152 152 49 49 49 49 49 49 152 152 152 138 138 138 49 49 49 79 79 79 49 49 49 49 49 49 131 11 6 145 17 15 153 26 30 142 22 23 130 18 14 132 18 22 128 17 20 128 15 14 127 13 19 129 14 13 135 16 17 136 17 18 134 13 18 135 19 20 126 19 13 123 14 16 127 15 13 133 16 15 118 5 4 172 52 52 149 28 29 143 23 22 119 9 6 104 0 0 193 195 197 219 219 219 217 215 221 237 235 231 221 220 220 210 206 199 176 178 180 172 170 171 148 147 38 113 122 36 90 103 26 113 122 36 177 175 39 190 184 41 141 145 37 98 109 27 90 103 26 135 135 37 177 175 39 131 136 36 103 114 30 89 102 26 177 175 39 190 184 41 158 158 36 158 158 36 90 103 26 153 155 35 122 126 36 190 184 41 177 175 39 122 126 36 190 184 41 158 158 36 90 103 26 124 134 33 158 158 36 177 175 39 166 166 39 166 166 39 74 74 74 67 67 67 0 0 0 0 0 0 0 0 0 0 0 0 0 0 0 0 0 0 0 0 0 0 0 0 0 0 0 0 0 0 0 0 0 0 0 0 66 66 66 76 76 76 60 60 60 60 60 60 57 57 57 58 58 58 59 59 59 54 54 54 51 51 51 51 51 51 49 49 49 50 50 50 52 52 52 53 53 53 59 59 59 58 58 58 60 60 60 60 60 60 61 29 11 151 73 26 184 93 39 184 93 39 175 88 35 167 83 32 194 194 194 167 83 32 167 83 32 167 83 32 188 188 188 175 88 35 167 83 32 167 83 32 151 73 26 61 29 11 
189 186 177 218 214 204 190 187 178 214 210 199 218 214 204 218 214 204 193 189 180 218 214 204 185 182 173 210 206 196 218 214 204 189 186 177 217 213 202 218 214 204 188 185 175 218 214 204 210 177 125 210 177 125 210 177 125 204 172 121 210 177 125 210 177 125 210 177 125 210 177 125 210 177 125 200 168 121 210 177 125 210 177 125 208 177 125 210 177 125 171 144 102 210 177 125 0 0 0 84 84 84 131 131 131 84 84 84 107 107 107 107 107 107 84 84 84 0 0 0 0 0 0 0 0 0 84 84 84 0 0 0 107 107 107 84 84 84 0 0 0 107 107 107 
0 0 0 0 0 0 164 164 164 104 104 104 0 0 0 0 0 0 0 0 0 0 0 0 0 0 0 0 0 0 0 0 0 0 0 0 104 104 104 164 164 164 0 0 0 0 0 0 143 49 47 142 48 46 125 43 41 128 44 42 163 56 53 168 59 54 133 47 43 124 44 40 150 51 48 160 57 52 153 52 49 157 56 51 174 62 56 174 62 56 156 53 50 130 46 42 204 122 145 204 120 144 194 94 120 195 97 125 216 152 169 218 158 173 197 105 131 193 91 120 207 131 152 214 146 164 209 135 154 212 142 162 222 166 182 222 166 182 210 138 158 196 100 125 135 135 135 163 163 163 146 146 146 128 128 128 157 157 157 163 163 163 146 146 146 73 1 0 42 0 2 176 176 176 157 157 157 168 160 166 163 163 163 197 197 197 163 163 163 135 135 135 66 66 66 138 138 138 138 138 138 152 152 152 138 138 138 152 152 152 49 49 49 152 152 152 49 49 49 152 152 152 0 0 0 152 152 152 0 0 0 79 79 79 49 49 49 0 0 0 49 49 49 138 138 138 138 138 138 152 152 152 138 138 138 152 152 152 49 49 49 152 152 152 49 49 49 152 152 152 49 49 49 152 152 152 49 49 49 79 79 79 49 49 49 49 49 49 127 9 10 146 14 14 149 30 26 137 22 19 137 20 18 130 17 17 126 15 16 126 17 15 127 17 15 128 15 16 125 12 16 127 20 22 129 13 16 130 14 18 129 18 12 131 12 15 124 19 17 128 17 14 117 7 4 170 49 47 165 42 47 132 18 20 119 4 9 110 3 0 196 196 199 218 215 217 216 217 222 221 223 222 215 213 213 206 206 206 179 179 183 172 171 172 158 158 36 113 122 36 90 103 26 113 122 36 177 175 39 179 184 42 137 141 33 98 109 27 122 126 36 137 141 33 170 177 48 131 136 36 89 102 26 131 136 36 177 175 39 190 184 41 188 185 45 153 155 35 153 155 35 153 155 35 153 155 35 177 175 39 122 126 36 190 184 41 190 184 41 190 184 41 158 158 36 122 126 36 124 134 33 158 158 36 177 175 39 166 166 39 79 79 79 64 64 64 0 0 0 0 0 0 0 0 0 0 0 0 0 0 0 0 0 0 0 0 0 0 0 0 0 0 0 0 0 0 0 0 0 0 0 0 60 60 60 73 73 73 60 60 60 63 63 63 60 60 60 54 54 54 60 60 60 60 60 60 58 58 58 57 57 57 55 55 55 56 56 56 58 58 58 58 58 58 55 55 55 60 60 60 58 58 58 60 60 60 0 0 0 61 29 11 61 29 11 151 73 26 151 73 26 184 93 39 184 93 39 175 88 35 175 88 35 175 88 35 175 88 35 151 73 26 151 73 26 151 73 26 
61 29 11 0 0 0 187 184 175 218 214 204 186 182 174 214 210 199 216 212 201 218 214 204 185 182 173 215 211 200 190 187 178 213 209 198 218 214 204 188 185 175 215 211 200 211 207 197 191 188 179 218 214 204 210 177 125 171 144 102 210 177 125 204 173 123 207 174 122 210 177 125 171 144 102 206 174 123 210 177 125 203 172 122 210 177 125 210 177 125 206 174 123 201 168 120 210 177 125 210 177 125 107 107 107 131 131 131 0 0 0 0 0 0 107 107 107 84 84 84 170 170 170 0 0 0 0 0 0 0 0 0 84 84 84 84 84 84 107 107 107 170 170 170 107 107 107 84 84 84 
0 0 0 129 103 64 164 164 164 104 104 104 92 77 48 135 109 69 172 136 82 142 115 60 172 136 82 172 136 82 142 115 60 104 85 56 104 104 104 164 164 164 129 103 64 0 0 0 157 56 51 156 53 50 169 58 55 174 62 56 163 56 53 157 56 51 153 52 49 145 49 47 125 43 41 148 50 48 157 56 51 165 58 53 148 50 48 148 50 48 165 58 53 173 61 55 212 142 162 210 138 158 219 159 175 222 166 182 216 152 169 212 142 162 209 135 154 206 124 145 194 94 120 207 129 149 212 142 162 216 154 170 207 129 149 207 129 149 216 154 170 220 164 178 135 135 135 176 176 176 163 163 163 176 176 176 157 157 157 163 163 163 151 151 151 71 1 2 38 0 3 176 176 176 168 160 166 205 205 205 205 205 205 168 168 168 176 176 176 146 146 146 49 49 49 0 0 0 152 152 152 0 0 0 152 152 152 0 0 0 152 152 152 79 79 79 0 0 0 0 0 0 152 152 152 79 79 79 0 0 0 66 66 66 152 152 152 0 0 0 49 49 49 49 49 49 152 152 152 49 49 49 152 152 152 49 49 49 152 152 152 79 79 79 49 49 49 49 49 49 152 152 152 79 79 79 49 49 49 49 49 49 152 152 152 49 49 49 132 5 11 139 10 7 140 20 20 136 18 19 139 21 22 141 22 21 127 19 19 131 15 21 129 17 17 128 16 13 126 12 17 128 15 16 133 16 18 127 18 16 129 16 15 131 16 21 133 19 18 132 16 19 127 6 7 171 48 46 154 30 29 132 19 16 119 6 0 111 0 0 207 209 206 223 220 221 216 215 213 207 206 206 199 208 205 216 215 216 200 199 201 182 183 178 158 158 36 113 122 36 113 122 36 137 141 33 177 175 39 190 184 41 168 164 39 137 141 33 122 126 36 161 170 49 162 172 49 131 136 36 131 136 36 131 136 36 171 169 38 161 160 38 188 185 45 153 155 35 190 184 41 188 185 45 177 175 39 153 155 35 153 155 35 177 175 39 166 166 39 177 175 39 158 158 36 158 158 36 124 134 33 122 126 36 158 158 36 166 166 39 84 84 84 59 59 59 0 0 0 0 0 0 0 0 0 0 0 0 0 0 0 0 0 0 0 0 0 0 0 0 0 0 0 0 0 0 0 0 0 0 0 0 62 62 62 75 75 75 58 58 58 57 57 57 63 63 63 60 60 60 59 59 59 60 60 60 59 59 59 58 58 58 59 59 59 56 56 56 56 56 56 56 56 56 55 55 55 62 62 62 56 56 56 62 62 62 0 0 0 0 0 0 0 0 0 61 29 11 61 29 11 151 73 26 151 73 26 151 73 26 151 73 26 151 73 26 151 73 26 61 29 11 61 29 11 
61 29 11 0 0 0 0 0 0 192 189 179 217 213 202 210 206 196 217 213 202 214 211 200 218 214 204 200 196 186 218 214 203 217 213 202 211 207 197 214 210 199 189 186 177 215 211 200 218 214 204 218 214 204 186 183 175 210 177 125 208 176 125 200 168 121 208 177 125 171 144 102 210 177 125 210 177 125 209 176 124 171 144 102 201 169 121 204 172 121 171 144 102 206 174 123 210 177 125 210 177 125 210 177 125 84 84 84 0 0 0 0 0 0 0 0 0 170 170 170 84 84 84 131 131 131 84 84 84 131 131 131 107 107 107 0 0 0 84 84 84 170 170 170 131 131 131 84 84 84 0 0 0 
0 0 0 82 67 40 164 164 164 104 104 104 65 54 37 76 61 37 109 83 47 91 70 37 100 79 42 100 79 42 100 79 42 65 54 37 104 104 104 164 164 164 82 67 40 0 0 0 168 59 54 168 59 54 151 51 49 146 50 48 165 58 53 153 52 49 156 53 50 159 54 51 174 62 56 163 56 53 141 47 45 142 48 46 153 52 49 157 56 51 143 49 47 136 46 44 218 158 173 218 158 173 209 133 153 206 126 149 216 154 170 209 135 154 210 138 158 212 144 163 222 166 182 215 151 168 203 119 141 204 120 144 209 135 154 212 142 162 204 122 145 200 112 135 135 135 135 168 168 168 168 168 168 163 163 163 163 163 163 176 176 176 176 176 176 197 197 197 197 197 197 197 197 197 205 205 205 176 176 176 168 168 168 163 163 163 163 163 163 135 135 135 66 66 66 152 152 152 0 0 0 152 152 152 79 79 79 152 152 152 0 0 0 66 66 66 79 79 79 0 0 0 138 138 138 0 0 0 49 49 49 152 152 152 0 0 0 152 152 152 49 49 49 152 152 152 49 49 49 152 152 152 79 79 79 152 152 152 49 49 49 49 49 49 79 79 79 49 49 49 138 138 138 49 49 49 49 49 49 152 152 152 49 49 49 152 152 152 129 10 10 130 10 8 126 4 9 130 9 10 130 10 9 129 12 7 128 18 14 133 16 17 127 15 18 128 16 19 129 21 15 123 7 9 123 5 4 127 10 7 125 8 10 129 10 9 131 6 10 128 7 9 120 5 7 152 20 19 142 16 16 124 6 9 117 7 11 116 0 0 209 210 204 209 207 207 192 190 194 180 180 178 180 183 187 201 202 203 210 208 212 182 184 182 158 158 36 137 141 33 137 141 33 137 141 33 190 184 41 177 175 39 179 184 42 126 133 35 122 126 36 160 159 37 148 150 33 136 141 33 131 136 36 131 136 36 162 160 36 188 185 45 153 155 35 188 185 45 188 185 45 177 175 39 177 175 39 166 166 39 166 166 39 153 155 35 190 184 41 190 184 41 177 175 39 158 158 36 124 134 33 177 175 39 158 158 36 166 166 39 76 76 76 58 58 58 60 60 60 60 60 60 63 63 63 63 63 63 62 62 62 64 64 64 61 61 61 62 62 62 64 64 64 65 65 65 61 61 61 66 66 66 59 59 59 77 77 77 57 57 57 62 62 62 61 61 61 60 60 60 57 57 57 60 60 60 59 59 59 61 61 61 59 59 59 58 58 58 60 60 60 60 60 60 63 63 63 58 58 58 60 60 60 61 61 61 0 0 0 0 0 0 0 0 0 0 0 0 0 0 0 61 29 11 61 29 11 61 29 11 61 29 11 61 29 11 61 29 11 
0 0 0 0 0 0 0 0 0 0 0 0 0 0 0 186 183 175 214 210 199 218 214 204 191 188 179 216 212 201 218 214 204 200 196 186 189 186 177 218 214 204 214 211 200 218 214 204 187 184 175 213 209 198 218 214 204 189 186 177 214 210 199 210 177 125 171 144 102 210 177 125 210 177 125 207 174 122 210 177 125 210 177 125 171 144 102 210 177 125 205 173 122 210 177 125 210 177 125 203 172 122 210 177 125 210 177 125 204 172 121 0 0 0 0 0 0 0 0 0 170 170 170 131 131 131 0 0 0 0 0 0 131 131 131 84 84 84 84 84 84 131 131 131 0 0 0 131 131 131 84 84 84 0 0 0 0 0 0 
0 0 0 0 0 0 164 164 164 104 104 104 0 0 0 0 0 0 0 0 0 0 0 0 0 0 0 0 0 0 0 0 0 0 0 0 104 104 104 164 164 164 0 0 0 0 0 0 130 46 42 139 48 45 163 56 53 153 52 49 136 46 44 143 49 47 165 58 53 169 58 55 148 50 48 142 48 46 156 53 50 163 56 53 136 46 44 139 48 45 163 56 53 165 58 53 196 102 126 201 115 139 216 152 169 209 135 154 200 112 135 204 122 145 216 154 170 219 159 175 207 129 149 204 120 144 210 138 158 216 152 169 200 112 135 201 115 139 215 151 168 216 154 170 128 128 128 128 128 128 128 128 128 128 128 128 120 120 120 146 146 146 143 136 141 129 129 129 129 129 129 129 129 129 135 135 135 128 128 128 128 128 128 128 128 128 135 135 135 135 135 135 0 0 0 79 79 79 0 0 0 49 49 49 152 152 152 79 79 79 152 152 152 0 0 0 79 79 79 152 152 152 0 0 0 138 138 138 49 49 49 0 0 0 138 138 138 0 0 0 49 49 49 79 79 79 49 49 49 49 49 49 152 152 152 79 79 79 152 152 152 49 49 49 79 79 79 152 152 152 49 49 49 138 138 138 49 49 49 49 49 49 138 138 138 49 49 49 128 14 12 129 11 6 130 10 9 129 11 10 122 9 4 129 11 13 130 11 13 133 10 9 131 11 12 130 10 8 130 8 4 132 6 9 134 7 5 131 9 9 128 9 10 130 9 8 132 6 11 132 9 9 124 8 6 129 6 9 133 10 8 121 5 4 114 7 8 111 0 2 183 182 188 176 181 181 180 182 175 162 173 167 175 175 174 183 182 180 181 182 179 186 181 185 174 181 38 137 141 33 137 141 33 177 175 39 190 184 41 190 184 41 151 160 37 126 133 35 126 133 35 153 156 36 177 175 39 150 154 36 131 136 36 162 160 36 174 171 37 174 181 38 166 166 39 166 166 39 166 166 39 166 166 39 166 166 39 166 166 39 122 126 36 166 166 39 166 166 39 166 166 39 166 166 39 158 158 36 158 158 36 190 184 41 166 166 39 166 166 39 73 73 73 76 76 76 77 77 77 71 71 71 77 77 77 75 75 75 82 82 82 74 74 74 82 82 82 77 77 77 79 79 79 75 75 75 76 76 76 71 71 71 80 80 80 76 76 76 58 58 58 63 63 63 60 60 60 60 60 60 58 58 58 65 65 65 58 58 58 61 61 61 60 60 60 61 61 61 59 59 59 61 61 61 61 61 61 58 58 58 58 58 58 60 60 60 0 0 0 0 0 0 0 0 0 0 0 0 0 0 0 0 0 0 0 0 0 0 0 0 0 0 0 0 0 0 0 0 0 0 0 0 0 0 0 0 0 0 0 0 0 0 0 0 210 206 196 214 211 200 218 214 204 
189 186 177 212 208 197 214 211 200 214 211 200 191 188 179 214 211 200 217 213 202 214 210 199 184 181 172 214 210 199 214 211 200 213 209 198 218 214 204 200 168 121 205 173 122 210 177 125 210 177 125 171 144 102 205 173 122 205 173 122 210 177 125 205 173 122 171 144 102 204 172 121 210 177 125 204 172 121 205 173 122 171 144 102 210 177 125 0 0 0 0 0 0 84 84 84 84 84 84 107 107 107 0 0 0 0 0 0 0 0 0 0 0 0 0 0 0 0 0 0 0 0 0 131 131 131 107 107 107 84 84 84 0 0 0 
31 88 177 28 74 152 28 74 152 23 80 192 29 92 193 23 80 192 37 77 141 37 77 141 31 85 163 31 85 180 31 74 166 42 79 140 42 79 140 32 83 151 40 74 135 20 69 180 49 65 25 50 66 26 47 63 25 47 63 25 53 71 27 56 75 29 49 65 25 50 66 26 55 74 28 55 74 28 45 60 24 47 63 25 55 72 28 55 72 28 47 63 25 45 60 24 59 160 52 61 165 53 58 156 50 61 159 51 67 174 56 68 185 59 59 160 52 60 164 52 66 180 58 68 183 59 55 148 48 58 157 51 68 177 57 68 177 57 58 157 51 56 151 49 135 135 135 128 128 128 128 128 128 128 128 128 128 128 128 135 135 135 146 146 146 146 146 146 120 120 120 146 146 146 135 135 135 128 128 128 128 128 128 128 128 128 128 128 128 135 135 135 0 0 0 0 0 0 0 0 0 0 0 0 0 0 0 0 0 0 0 0 0 254 254 254 192 245 254 0 0 0 0 0 0 0 0 0 0 0 0 0 0 0 0 0 0 0 0 0 0 0 0 0 0 0 0 0 0 0 0 0 0 0 0 0 0 0 0 0 0 0 0 0 0 0 0 0 0 0 0 0 0 0 0 0 0 0 0 0 0 0 0 0 0 0 0 0 0 0 0 0 0 0 0 0 0 0 0 0 0 0 0 0 0 0 0 0 0 0 0 0 0 0 0 0 0 0 0 0 0 0 0 0 0 0 0 0 0 0 0 0 0 0 0 0 0 0 0 0 0 0 0 0 0 0 0 0 0 0 0 0 0 0 0 0 0 0 0 0 0 0 0 0 0 0 0 0 0 0 0 0 0 0 0 0 0 0 0 0 0 0 0 0 0 0 0 0 0 0 0 0 0 0 0 0 0 0 0 0 0 0 0 0 0 0 0 0 0 0 0 0 0 0 0 0 0 0 0 0 0 0 0 0 0 0 0 0 0 0 0 0 59 45 19 59 45 19 86 64 22 124 90 38 126 94 40 123 89 36 61 48 19 61 47 19 61 47 19 60 45 19 61 48 19 58 45 19 62 48 19 70 55 19 70 55 19 104 78 32 65 65 65 71 71 71 72 72 72 68 68 68 76 76 76 74 74 74 79 79 79 78 78 78 81 81 81 82 82 82 72 72 72 78 78 78 72 72 72 70 70 70 65 65 65 58 58 58 44 44 44 44 44 44 44 44 44 45 45 45 0 0 0 0 0 0 0 0 0 0 0 0 0 0 0 0 0 0 0 0 0 0 0 0 44 44 44 44 44 44 44 44 44 45 45 45 98 98 98 90 90 90 89 89 89 116 116 116 113 113 113 99 99 99 94 94 94 113 113 113 112 112 112 98 98 98 90 90 90 84 84 84 86 86 86 93 93 93 89 89 89 91 91 91 0 0 0 0 0 0 0 0 0 49 49 49 0 0 0 0 0 0 0 0 0 0 0 0 0 0 0 0 0 0 0 0 0 0 0 0 49 49 49 0 0 0 0 0 0 0 0 0 66 115 103 66 115 103 66 115 103 66 115 103 66 115 103 66 115 103 66 115 103 66 115 103 66 115 103 66 115 103 66 115 103 66 115 103 66 115 103 66 115 103 58 103 95 58 103 95 0 0 0 0 0 0 0 0 0 0 0 0 0 0 0 0 0 0 0 0 0 0 0 0 
0 0 0 0 0 0 0 0 0 0 0 0 0 0 0 0 0 0 0 0 0 0 0 0 
24 61 192 28 76 183 28 87 198 56 120 163 32 89 187 17 64 211 28 67 169 31 83 155 29 82 166 25 81 178 14 49 190 14 49 190 28 76 158 27 69 158 20 69 180 20 69 180 53 71 27 55 74 28 60 81 31 61 82 32 57 76 30 55 74 28 52 69 27 51 68 26 47 63 25 45 60 24 50 66 26 51 68 26 44 58 22 46 62 24 50 66 26 52 69 27 65 176 56 66 180 58 80 194 68 83 195 71 70 187 61 68 183 59 63 170 54 63 170 54 61 159 51 56 151 49 60 164 52 63 170 54 52 141 45 56 153 49 61 165 53 66 171 55 135 135 135 168 168 168 176 176 176 176 176 176 176 176 176 176 176 176 176 176 176 176 176 176 163 163 163 176 176 176 176 176 176 176 176 176 157 157 157 168 168 168 168 168 168 128 128 128 0 0 0 0 0 0 0 0 0 0 0 0 0 0 0 0 0 0 0 0 0 254 254 254 179 214 219 0 0 0 0 0 0 0 0 0 0 0 0 0 0 0 0 0 0 0 0 0 0 0 0 0 0 0 0 0 0 0 0 0 0 0 0 0 0 0 0 0 0 0 0 0 0 0 0 0 0 0 0 0 0 0 0 0 0 0 0 0 0 0 0 0 0 0 0 0 0 0 0 0 0 0 0 0 0 0 0 0 0 0 0 0 0 0 0 0 0 0 0 0 0 0 0 0 0 0 0 0 0 0 0 0 0 0 0 0 0 0 0 0 0 0 0 0 0 0 0 0 0 0 0 0 0 0 0 0 0 0 0 0 0 0 0 0 0 0 0 0 0 0 0 0 0 0 0 0 0 0 0 0 0 0 0 0 0 0 0 0 0 0 0 0 0 0 0 0 0 0 0 0 0 0 0 0 0 0 0 0 0 0 0 0 0 0 0 0 0 0 0 0 0 0 0 0 0 0 0 0 0 0 0 0 0 0 0 0 0 0 0 0 125 94 39 104 78 32 120 89 36 86 64 22 86 64 22 91 72 29 89 66 25 91 72 29 104 78 32 104 78 32 104 78 32 124 94 39 125 94 41 103 78 32 103 78 32 103 78 32 58 58 58 64 64 64 70 70 70 74 74 74 76 76 76 81 81 81 79 79 79 82 82 82 79 79 79 78 78 78 77 77 77 69 69 69 74 74 74 67 67 67 65 65 65 56 56 56 44 44 44 44 44 44 45 45 45 45 45 45 0 0 0 0 0 0 0 0 0 0 0 0 0 0 0 0 0 0 0 0 0 0 0 0 44 44 44 44 44 44 45 45 45 45 45 45 82 82 82 89 89 89 113 113 113 114 114 114 102 102 102 91 91 91 113 113 113 102 102 102 116 116 116 104 104 104 105 105 105 89 89 89 90 90 90 112 112 112 99 99 99 99 99 99 0 0 0 0 0 0 0 0 0 49 49 49 0 0 0 0 0 0 0 0 0 0 0 0 0 0 0 0 0 0 0 0 0 0 0 0 49 49 49 0 0 0 0 0 0 0 0 0 66 115 103 153 198 147 34 69 72 34 69 72 34 69 72 153 198 147 185 183 125 34 69 72 47 87 84 185 183 125 153 198 147 34 69 72 34 69 72 34 69 72 153 198 147 58 103 95 0 0 0 0 0 0 0 0 0 0 0 0 0 0 0 0 0 0 
0 0 0 0 0 0 0 0 0 0 0 0 0 0 0 0 0 0 0 0 0 0 0 0 0 0 0 0 0 0 
20 69 180 23 80 193 28 87 198 43 108 159 28 91 193 27 74 161 25 63 157 28 77 158 42 79 140 29 79 167 25 66 177 14 49 190 15 38 184 29 75 163 20 69 180 20 69 180 57 76 30 58 78 30 51 68 26 52 69 27 59 79 31 58 78 30 55 72 28 51 68 26 55 74 28 58 78 30 55 74 28 55 74 28 59 79 31 60 81 31 55 74 28 55 74 28 70 187 61 73 189 61 63 170 54 64 173 55 72 193 63 73 189 61 68 177 57 63 170 54 68 183 59 73 189 61 68 183 59 68 183 59 72 193 63 80 194 68 68 183 59 66 180 58 135 135 135 157 157 157 163 163 163 163 163 163 157 157 157 163 163 163 163 163 163 163 163 163 176 176 176 163 163 163 168 168 168 168 168 168 168 168 168 176 176 176 168 168 168 135 135 135 0 0 0 0 0 0 0 0 0 0 0 0 0 0 0 0 0 0 0 0 0 254 254 254 192 245 254 0 0 0 0 0 0 0 0 0 0 0 0 0 0 0 0 0 0 0 0 0 0 0 0 0 0 0 0 0 0 0 0 0 0 0 0 0 0 0 0 0 0 0 0 0 0 0 0 0 0 0 0 0 0 0 0 0 0 0 0 0 0 0 0 0 0 0 0 0 0 0 0 0 0 0 0 0 0 0 0 0 0 0 0 0 0 0 0 0 0 0 0 0 0 0 0 0 0 0 0 0 0 0 0 0 0 0 0 0 0 0 0 0 0 0 0 0 0 0 0 0 0 0 0 0 0 0 0 0 0 0 0 0 0 0 0 0 0 0 0 0 0 0 0 0 0 0 0 0 0 0 0 0 0 0 0 0 0 0 0 0 0 0 0 0 0 0 0 0 0 0 0 0 0 0 0 0 0 0 0 0 0 0 0 0 0 0 0 0 0 0 0 0 0 0 0 0 0 0 0 0 0 0 0 0 0 0 0 0 0 0 0 0 88 70 25 86 66 24 89 72 28 89 71 28 90 72 29 91 70 28 91 71 29 92 72 29 89 66 25 55 40 19 59 45 19 57 47 19 57 47 19 68 57 19 68 57 19 56 44 19 60 60 60 66 66 66 72 72 72 74 74 74 74 74 74 78 78 78 80 80 80 79 79 79 77 77 77 77 77 77 78 78 78 77 77 77 68 68 68 70 70 70 59 59 59 53 53 53 45 45 45 45 45 45 0 0 0 0 0 0 0 0 0 0 0 0 0 0 0 0 0 0 0 0 0 0 0 0 0 0 0 0 0 0 0 0 0 0 0 0 45 45 45 45 45 45 89 89 89 110 110 110 125 125 125 111 111 111 88 88 88 90 90 90 125 125 125 136 136 136 127 127 127 127 127 127 130 130 130 107 107 107 114 114 114 113 113 113 107 107 107 100 100 100 0 0 0 0 0 0 0 0 0 49 49 49 77 77 77 97 97 97 77 77 77 97 97 97 97 97 97 77 77 77 97 97 97 77 77 77 49 49 49 0 0 0 0 0 0 0 0 0 66 115 103 38 75 76 32 66 70 173 169 113 173 169 113 80 135 117 66 115 103 185 183 125 249 249 197 80 135 117 66 115 103 179 174 120 176 174 117 47 87 84 47 87 84 58 103 95 0 0 0 0 0 0 0 0 0 
0 0 0 0 0 0 0 0 0 0 0 0 0 0 0 0 0 0 0 0 0 0 0 0 0 0 0 0 0 0 0 0 0 0 0 0 0 0 0 
20 69 180 20 69 180 29 77 178 28 87 198 28 83 198 23 70 197 29 69 168 31 83 137 20 69 188 42 79 140 28 76 157 14 49 190 14 49 190 28 74 152 28 74 167 23 64 178 53 71 27 50 66 26 56 75 29 58 78 30 51 68 26 51 68 26 53 71 27 58 78 30 49 65 25 52 69 27 58 78 30 58 78 30 53 71 27 50 66 26 61 82 32 57 76 30 65 176 56 61 165 53 68 185 59 73 189 61 63 170 54 62 168 54 67 174 56 73 189 61 59 160 52 63 170 54 73 189 61 73 189 61 65 176 56 61 165 53 83 195 71 73 189 61 135 135 135 176 176 176 168 168 168 168 168 168 168 168 168 157 157 157 168 168 168 176 176 176 168 168 168 168 168 168 163 163 163 163 163 163 163 163 163 163 163 163 163 163 163 135 135 135 0 0 0 0 0 0 0 0 0 0 0 0 0 0 0 0 0 0 0 0 0 192 245 254 192 245 254 0 0 0 0 0 0 0 0 0 0 0 0 0 0 0 0 0 0 0 0 0 0 0 0 0 0 0 0 0 0 0 0 0 0 0 0 0 0 0 0 0 0 0 0 0 0 0 0 0 0 0 0 0 0 0 0 0 0 0 0 0 0 0 0 0 0 0 0 0 0 0 0 0 0 0 0 0 0 0 0 0 0 0 0 0 0 0 0 0 0 0 0 0 0 0 0 0 0 0 0 0 0 0 0 0 0 0 0 0 0 0 0 0 0 0 0 0 0 0 0 0 0 0 0 0 0 0 0 0 0 0 0 0 0 0 0 0 0 0 0 0 0 0 0 0 0 0 0 0 0 0 0 0 0 0 0 0 0 0 0 0 0 0 0 0 0 0 0 0 0 0 0 0 0 0 0 0 0 0 0 0 0 0 0 0 0 0 0 0 0 0 0 0 0 0 0 0 0 0 0 0 0 0 0 0 0 0 0 0 0 0 0 0 65 58 19 54 49 19 54 48 19 54 47 19 56 46 19 60 47 19 62 47 19 58 45 19 70 55 19 80 62 23 117 87 31 119 104 39 119 103 38 99 88 32 119 105 39 119 103 38 59 59 59 54 54 54 66 66 66 75 75 75 65 65 65 75 75 75 75 75 75 74 74 74 76 76 76 74 74 74 73 73 73 75 75 75 67 67 67 64 64 64 62 62 62 52 52 52 45 45 45 45 45 45 0 0 0 0 0 0 0 0 0 0 0 0 0 0 0 0 0 0 0 0 0 0 0 0 0 0 0 0 0 0 0 0 0 0 0 0 45 45 45 45 45 45 89 89 89 89 89 89 141 141 141 93 93 93 86 86 86 86 86 86 93 93 93 129 129 129 135 135 135 127 127 127 107 107 107 108 108 108 146 146 146 113 113 113 89 89 89 84 84 84 0 0 0 0 0 0 0 0 0 49 49 49 49 49 49 49 49 49 49 49 49 60 60 60 60 60 60 49 49 49 49 49 49 49 49 49 27 27 27 0 0 0 0 0 0 0 0 0 66 115 103 34 69 72 170 164 110 235 237 180 237 242 185 249 249 197 80 135 117 66 115 103 53 100 91 53 100 91 229 228 175 249 249 197 226 224 172 192 194 135 47 87 84 58 103 95 58 103 95 58 103 95 
58 103 95 58 103 95 58 103 95 58 103 95 58 103 95 58 103 95 58 103 95 58 103 95 58 103 95 58 103 95 58 103 95 58 103 95 58 103 95 58 103 95 
24 61 192 24 74 185 20 69 180 27 82 192 28 87 198 23 66 206 25 67 177 31 79 133 20 69 188 28 70 159 28 76 160 42 79 140 42 79 140 14 49 190 28 74 152 23 64 178 55 74 28 52 69 27 49 65 25 53 71 27 56 75 29 56 75 29 45 60 24 45 59 23 50 66 26 55 72 28 50 66 26 46 62 24 56 75 29 56 75 29 47 63 25 45 60 24 66 180 58 66 171 55 59 160 52 65 176 56 68 185 59 68 185 59 55 148 48 53 142 46 61 165 53 68 177 57 60 164 52 57 154 50 68 185 59 68 185 59 58 157 51 55 148 48 135 135 135 176 176 176 176 176 176 163 163 163 163 163 163 163 163 163 146 146 146 146 146 146 146 146 146 146 146 146 176 176 176 176 176 176 176 176 176 176 176 176 176 176 176 120 120 120 0 0 0 0 0 0 0 0 0 0 0 0 0 0 0 0 0 0 0 0 0 192 245 254 254 254 254 0 0 0 0 0 0 0 0 0 0 0 0 0 0 0 0 0 0 0 0 0 0 0 0 0 0 0 0 0 0 0 0 0 0 0 0 0 0 0 0 0 0 0 0 0 0 0 0 0 0 0 0 0 0 0 0 0 0 0 0 0 0 0 0 0 0 0 0 0 0 0 0 0 0 0 0 0 0 0 0 0 0 0 0 0 0 0 0 0 0 0 0 0 0 0 0 0 0 0 0 0 0 0 0 0 0 0 0 0 0 0 0 0 0 0 0 0 0 0 0 0 0 0 0 0 0 0 0 0 0 0 0 0 0 0 0 0 0 0 0 0 0 0 0 0 0 0 0 0 0 0 0 0 0 0 0 0 0 0 0 0 0 0 0 0 0 0 0 0 0 0 0 0 0 0 0 0 0 0 0 0 0 0 0 0 0 0 0 0 0 0 0 0 0 0 0 0 0 0 0 0 0 0 0 0 0 0 0 0 0 0 0 0 86 71 25 116 104 38 82 77 25 114 101 38 120 103 41 125 98 45 123 89 36 121 88 35 104 78 32 104 78 32 89 71 27 89 72 28 88 71 26 88 69 25 88 71 26 88 69 25 59 59 59 66 66 66 68 68 68 68 68 68 80 80 80 80 80 80 68 68 68 70 70 70 72 72 72 73 73 73 80 80 80 72 72 72 61 61 61 70 70 70 61 61 61 52 52 52 0 0 0 0 0 0 0 0 0 0 0 0 0 0 0 0 0 0 0 0 0 0 0 0 0 0 0 0 0 0 0 0 0 0 0 0 0 0 0 0 0 0 0 0 0 0 0 0 108 108 108 113 113 113 107 107 107 90 90 90 90 90 90 90 90 90 89 89 89 127 127 127 104 104 104 107 107 107 147 147 147 140 140 140 127 127 127 127 127 127 89 89 89 93 93 93 0 0 0 0 0 0 0 0 0 94 44 34 0 0 0 77 77 77 49 49 49 203 193 104 190 174 74 49 49 49 77 77 77 0 0 0 94 44 34 0 0 0 0 0 0 0 0 0 66 115 103 34 69 72 179 174 120 249 249 197 36 67 59 36 67 59 36 67 59 34 63 56 36 67 59 36 67 59 31 58 51 31 58 51 235 236 180 185 183 125 47 87 84 58 103 95 42 80 80 153 198 147 24 53 62 19 46 55 
19 46 55 19 46 55 19 46 55 19 46 55 19 46 55 19 46 55 19 46 55 19 46 55 19 46 55 24 53 62 153 198 147 24 53 62 
24 74 185 23 69 187 20 69 180 25 72 190 27 82 191 28 87 198 20 69 188 27 74 161 20 69 188 42 79 140 27 70 157 36 99 177 28 74 152 14 49 190 28 74 152 23 64 178 46 62 24 44 59 23 49 65 25 58 78 30 49 65 25 45 59 23 49 65 25 50 66 26 49 65 25 45 59 23 50 66 26 51 68 26 45 60 24 50 66 26 47 63 25 51 68 26 56 153 49 57 147 47 62 162 52 73 189 61 59 160 52 53 142 46 59 160 52 61 165 53 59 160 52 53 142 46 61 165 53 63 170 54 55 150 48 60 164 52 61 159 51 62 168 54 128 128 128 163 163 163 168 168 168 168 168 168 168 168 168 146 146 146 130 130 130 120 120 120 120 120 120 129 129 129 197 197 197 168 168 168 163 163 163 163 163 163 157 157 157 135 135 135 0 0 0 0 0 0 0 0 0 0 0 0 0 0 0 0 0 0 0 0 0 254 254 254 179 214 219 0 0 0 0 0 0 0 0 0 0 0 0 0 0 0 0 0 0 0 0 0 0 0 0 0 0 0 0 0 0 0 0 0 0 0 0 0 0 0 0 0 0 0 0 0 0 0 0 0 0 0 0 0 0 0 0 0 0 0 0 0 0 0 0 0 0 0 0 0 0 0 0 0 0 0 0 0 0 0 0 0 0 0 0 0 0 0 0 0 0 0 0 0 0 0 0 0 0 0 0 0 0 0 0 0 0 0 0 0 0 0 0 0 0 0 0 0 0 0 0 0 0 0 0 0 0 0 0 0 0 0 0 0 0 0 0 0 0 0 0 0 0 0 0 0 0 0 0 0 0 0 0 0 0 0 0 0 0 0 0 0 0 0 0 0 0 0 0 0 0 0 0 0 0 0 0 0 0 0 0 0 0 0 0 0 0 0 0 0 0 0 0 0 0 0 0 0 0 0 0 0 0 0 0 0 0 0 0 0 0 0 0 0 91 73 29 87 73 26 84 66 22 85 68 24 81 64 25 82 63 25 57 41 19 62 48 19 58 42 19 58 45 19 59 45 19 62 48 19 58 45 19 58 45 19 59 45 19 92 73 29 53 53 53 59 59 59 64 64 64 75 75 75 78 78 78 65 65 65 69 69 69 75 75 75 78 78 78 68 68 68 77 77 77 66 66 66 59 59 59 70 70 70 58 58 58 55 55 55 0 0 0 0 0 0 0 0 0 0 0 0 0 0 0 0 0 0 0 0 0 0 0 0 0 0 0 0 0 0 0 0 0 0 0 0 0 0 0 0 0 0 0 0 0 0 0 0 116 116 116 98 98 98 121 121 121 127 127 127 92 92 92 93 93 93 102 102 102 107 107 107 116 116 116 159 159 159 142 142 142 127 127 127 135 135 135 127 127 127 102 102 102 91 91 91 0 0 0 0 0 0 0 0 0 130 61 47 0 0 0 89 89 89 49 49 49 190 168 74 190 168 74 49 49 49 89 89 89 0 0 0 130 61 47 0 0 0 0 0 0 0 0 0 66 115 103 34 69 72 174 170 115 226 224 172 31 58 51 2 17 13 3 18 14 3 18 14 3 18 14 2 17 13 2 17 13 53 100 88 233 230 177 185 183 125 47 87 84 58 103 95 42 80 80 24 53 62 19 46 55 165 159 105 165 159 105 
165 159 105 173 171 114 176 171 117 170 167 115 165 159 105 165 159 105 169 165 110 168 162 108 19 46 55 24 53 62 24 53 62 
24 74 185 27 55 187 23 60 200 24 61 192 25 70 181 28 87 198 21 66 204 27 74 161 28 80 150 42 79 140 27 69 158 34 76 142 28 74 152 43 87 139 28 74 152 27 55 187 60 81 31 61 82 32 57 76 30 56 75 29 53 71 27 53 71 27 52 69 27 55 72 28 57 76 30 61 82 32 55 74 28 52 69 27 61 82 32 61 82 32 55 74 28 55 72 28 80 194 68 79 194 70 69 188 60 68 185 59 67 174 56 67 174 56 66 171 55 68 177 57 70 187 61 79 194 70 66 180 58 63 170 54 83 195 71 83 195 71 68 183 59 68 177 57 120 120 120 128 128 128 168 168 168 168 168 168 168 168 168 146 146 146 146 146 146 255 0 3 251 0 6 176 176 176 205 205 205 168 168 168 176 176 176 176 176 176 120 120 120 120 120 120 0 0 0 0 0 0 0 0 0 0 0 0 0 0 0 0 0 0 0 0 0 192 245 254 179 214 219 0 0 0 0 0 0 0 0 0 0 0 0 0 0 0 0 0 0 0 0 0 0 0 0 0 0 0 0 0 0 0 0 0 0 0 0 0 0 0 0 0 0 0 0 0 0 0 0 0 0 0 0 0 0 0 0 0 0 0 0 0 0 0 0 0 0 0 0 0 0 0 0 0 0 0 0 0 0 0 0 0 0 0 0 0 0 0 0 0 0 0 0 0 0 0 0 0 0 0 0 0 0 0 0 0 0 0 0 0 0 0 0 0 0 0 0 0 0 0 0 0 0 0 0 0 0 0 0 0 0 0 0 0 0 0 0 0 0 0 0 0 0 0 0 0 0 0 0 0 0 0 0 0 0 0 0 0 0 0 0 0 0 0 0 0 0 0 0 0 0 0 0 0 0 0 0 0 0 0 0 0 0 0 0 0 0 0 0 0 0 0 0 0 0 0 0 0 0 0 0 0 0 0 0 0 0 0 0 0 0 0 0 0 119 87 34 119 87 34 119 87 34 61 47 19 56 41 19 60 45 19 91 71 28 90 71 27 125 93 38 119 87 34 91 72 29 94 74 30 125 91 38 125 91 38 125 93 38 125 91 38 52 52 52 61 61 61 62 62 62 62 62 62 62 62 62 70 70 70 68 68 68 67 67 67 75 75 75 68 68 68 77 77 77 70 70 70 58 58 58 63 63 63 57 57 57 51 51 51 0 0 0 0 0 0 0 0 0 0 0 0 0 0 0 0 0 0 0 0 0 0 0 0 0 0 0 0 0 0 0 0 0 0 0 0 0 0 0 0 0 0 0 0 0 0 0 0 97 97 97 102 102 102 111 111 111 141 141 141 129 129 129 125 125 125 126 126 126 113 113 113 113 113 113 113 113 113 111 111 111 95 95 95 94 94 94 105 105 105 88 88 88 86 86 86 0 0 0 0 0 0 147 75 60 0 0 0 0 0 0 97 97 97 49 49 49 189 163 82 203 193 104 49 49 49 97 97 97 0 0 0 147 75 60 0 0 0 0 0 0 0 0 0 72 123 109 153 198 147 177 174 118 220 217 165 34 63 56 3 18 14 4 23 18 6 25 20 6 25 20 6 25 20 4 23 18 51 92 82 223 221 167 181 175 121 153 198 147 61 107 98 42 80 80 19 46 55 174 171 116 195 189 137 
217 220 158 217 222 158 217 222 158 235 248 182 235 248 182 235 248 182 217 220 158 211 205 149 212 211 148 167 161 107 24 53 62 19 46 55 
27 55 187 29 64 168 23 73 181 24 76 187 25 72 191 15 38 184 27 74 161 20 67 178 27 79 160 27 77 159 20 69 188 29 69 166 27 70 166 43 87 139 17 41 150 27 55 187 50 66 26 50 66 26 60 81 31 61 82 32 55 74 28 55 74 28 58 78 30 57 76 30 47 63 25 50 66 26 56 75 29 58 78 30 55 74 28 55 74 28 58 78 30 57 76 30 61 165 53 61 165 53 80 194 68 83 195 71 68 183 59 66 180 58 73 189 61 73 189 61 61 159 51 60 164 52 68 185 59 73 189 61 66 180 58 66 180 58 71 190 62 73 189 61 135 135 135 146 146 146 128 128 128 163 163 163 146 146 146 128 128 128 146 146 146 255 0 0 212 1 2 176 176 176 163 163 163 197 197 197 163 163 163 120 120 120 135 135 135 135 135 135 0 0 0 0 0 0 0 0 0 0 0 0 0 0 0 0 0 0 0 0 0 192 245 254 179 214 219 0 0 0 0 0 0 0 0 0 0 0 0 0 0 0 0 0 0 0 0 0 135 13 9 132 10 11 131 6 11 129 9 6 132 4 9 128 10 13 134 9 9 131 16 16 133 15 17 124 19 16 131 19 15 129 15 15 129 14 15 130 9 11 127 16 16 129 15 16 130 8 12 132 6 9 122 10 12 131 7 8 129 11 14 129 9 6 133 10 9 130 17 16 131 18 18 127 16 16 129 13 16 128 17 16 126 11 15 125 9 9 129 20 17 129 13 18 131 15 9 132 5 6 121 4 4 132 9 6 159 45 42 133 12 9 132 8 9 107 0 3 182 182 182 206 205 208 205 211 207 204 203 203 181 184 185 187 186 183 183 182 187 181 176 182 187 179 182 206 210 207 207 207 207 201 201 201 182 184 184 186 185 179 181 179 177 184 179 181 180 181 183 206 208 209 204 207 210 205 205 203 187 183 180 187 183 188 182 182 181 182 184 182 87 65 22 87 65 22 94 74 30 91 71 28 125 94 39 87 66 23 91 71 28 61 48 19 61 48 19 58 45 19 91 71 28 89 68 25 89 70 26 89 68 25 89 66 25 104 78 32 48 48 48 56 56 56 62 62 62 65 65 65 64 64 64 63 63 63 72 72 72 66 66 66 67 67 67 73 73 73 62 62 62 69 69 69 64 64 64 62 62 62 56 56 56 48 48 48 0 0 0 0 0 0 0 0 0 0 0 0 0 0 0 0 0 0 0 0 0 0 0 0 0 0 0 0 0 0 0 0 0 0 0 0 0 0 0 0 0 0 0 0 0 0 0 0 97 97 97 97 97 97 122 122 122 107 107 107 103 103 103 103 103 103 107 107 107 103 103 103 110 110 110 129 129 129 88 88 88 81 81 81 86 86 86 90 90 90 87 87 87 91 91 91 0 0 0 212 109 73 188 85 49 169 71 37 0 0 0 97 97 97 49 49 49 203 193 104 
198 188 81 49 49 49 97 97 97 0 0 0 147 75 60 0 0 0 0 0 0 0 0 0 66 115 103 50 92 87 174 170 115 229 228 175 36 67 59 3 18 14 6 25 20 4 23 18 4 21 17 4 23 18 6 24 20 59 108 96 224 224 170 198 194 141 47 87 84 54 97 91 24 53 62 19 46 55 24 53 62 181 178 122 192 188 138 187 187 129 187 187 129 186 187 129 192 187 134 181 178 122 181 178 122 192 188 138 187 187 129 58 103 95 19 46 55 19 46 55 
27 55 187 35 75 159 24 63 185 23 81 192 28 72 194 30 62 169 15 38 184 21 70 194 34 77 161 28 83 168 42 79 140 31 74 167 30 69 154 43 87 139 27 55 187 27 55 187 55 74 28 55 74 28 46 62 24 50 66 26 57 76 30 55 74 28 49 65 25 51 68 26 50 66 26 51 68 26 50 66 26 45 60 24 53 71 27 52 69 27 47 63 25 46 62 24 68 183 59 68 183 59 56 153 49 61 165 53 73 189 61 66 180 58 59 160 52 62 168 54 61 165 53 63 170 54 60 164 52 55 150 48 67 174 56 63 170 54 58 156 50 57 154 50 146 146 146 135 135 135 197 197 197 157 157 157 146 146 146 128 128 128 146 146 146 253 1 1 171 3 1 176 176 176 157 157 157 205 205 205 176 176 176 128 128 128 135 135 135 146 146 146 0 0 0 0 0 0 0 0 0 0 0 0 0 0 0 0 0 0 0 0 0 254 254 254 179 214 219 0 0 0 0 0 0 0 0 0 0 0 0 0 0 0 0 0 0 0 0 0 132 9 9 142 24 17 139 17 18 137 20 18 138 22 22 136 23 22 140 21 19 129 19 13 129 16 17 128 15 16 129 11 17 129 18 16 140 15 21 136 24 21 140 20 21 128 12 17 130 9 9 141 23 21 140 24 21 138 21 19 142 17 19 138 21 20 140 22 21 130 16 16 126 17 16 127 20 16 130 16 18 125 18 16 144 23 26 139 20 17 139 22 21 131 17 13 137 20 19 140 21 21 122 4 1 177 53 52 163 39 42 140 21 17 132 15 18 108 0 0 185 182 180 237 238 238 238 241 238 233 238 241 237 240 238 238 239 238 205 210 207 182 181 184 181 184 185 206 207 207 237 234 236 239 236 238 249 251 248 248 250 250 248 248 250 247 248 246 250 247 247 250 246 248 239 239 238 241 239 235 235 242 242 239 235 239 207 205 209 182 183 181 56 41 19 56 41 19 56 41 19 56 41 19 62 48 19 58 42 19 62 48 19 89 71 27 124 94 39 89 70 26 88 66 25 91 73 29 59 45 19 59 45 19 60 48 19 60 48 19 48 48 48 53 53 53 60 60 60 58 58 58 69 69 69 61 61 61 65 65 65 68 68 68 64 64 64 68 68 68 67 67 67 68 68 68 62 62 62 59 59 59 55 55 55 48 48 48 0 0 0 0 0 0 0 0 0 0 0 0 0 0 0 0 0 0 0 0 0 0 0 0 0 0 0 0 0 0 0 0 0 0 0 0 0 0 0 0 0 0 0 0 0 0 0 0 89 89 89 113 113 113 147 147 147 147 147 147 129 129 129 110 110 110 149 149 149 106 106 106 110 110 110 147 147 147 95 95 95 83 83 83 86 86 86 95 95 95 91 91 91 89 89 89 0 0 0 204 175 165 151 55 22 204 175 165 0 0 0 
97 97 97 49 49 49 198 188 81 190 168 74 49 49 49 97 97 97 0 0 0 130 61 47 0 0 0 0 0 0 0 0 0 66 115 103 34 69 72 170 164 110 220 217 165 34 63 56 3 18 14 4 21 17 4 21 17 4 21 17 4 21 17 4 21 17 56 103 91 220 217 165 183 178 122 47 87 84 58 103 95 166 160 106 19 46 55 19 46 55 24 53 62 47 87 84 47 87 84 47 87 84 47 87 84 47 87 84 47 87 84 58 103 95 58 103 95 58 103 95 39 76 75 19 46 55 175 172 116 
27 55 187 27 55 187 30 62 169 24 61 197 25 69 187 37 99 171 34 77 161 24 70 178 28 69 175 27 70 160 27 67 173 42 79 140 42 79 140 27 64 160 43 87 139 27 55 187 50 66 26 52 69 27 51 68 26 57 76 30 45 59 23 45 60 24 52 69 27 55 72 28 49 65 25 55 74 28 61 82 32 61 82 32 52 69 27 55 74 28 61 82 32 60 81 31 61 165 53 63 170 54 62 168 54 70 187 61 55 144 46 55 148 48 63 170 54 66 180 58 59 160 52 66 180 58 83 195 71 83 195 71 64 173 55 68 183 59 83 195 71 80 194 68 197 197 197 197 197 197 163 163 163 146 146 146 128 128 128 163 163 163 146 146 146 214 0 0 214 0 6 176 176 176 163 163 163 157 157 157 205 205 205 163 163 163 197 197 197 197 197 197 0 0 0 0 0 0 0 0 0 0 0 0 0 0 0 0 0 0 0 0 0 192 245 254 179 214 219 0 0 0 0 0 0 0 0 0 0 0 0 0 0 0 0 0 0 0 0 0 131 7 10 138 17 20 154 32 34 155 33 38 158 32 34 155 36 37 152 31 32 156 35 31 137 20 19 142 20 19 138 26 21 129 12 19 129 16 16 130 14 12 140 21 23 142 22 22 128 10 9 140 18 23 155 34 33 156 35 35 151 34 37 156 35 30 154 35 36 153 30 35 141 21 23 142 19 19 143 21 24 128 15 14 128 17 15 129 17 16 134 22 16 140 21 21 143 19 21 126 18 16 115 0 0 162 40 41 129 18 10 137 22 23 140 18 26 107 0 2 181 181 182 202 207 208 238 233 234 239 234 236 238 238 238 232 231 233 209 207 207 182 182 181 183 181 182 212 208 207 232 238 243 237 238 240 240 237 233 235 238 235 238 239 238 243 235 239 250 250 248 241 238 238 236 240 236 247 247 246 239 240 238 240 236 239 206 211 210 183 180 180 89 72 27 103 78 32 104 78 32 125 94 39 125 94 39 124 89 37 120 89 36 59 50 19 57 47 19 83 67 22 87 73 26 101 83 32 101 83 32 122 99 38 122 97 38 80 66 25 46 46 46 52 52 52 59 59 59 60 60 60 63 63 63 59 59 59 61 61 61 66 66 66 70 70 70 65 65 65 64 64 64 58 58 58 60 60 60 59 59 59 54 54 54 45 45 45 0 0 0 0 0 0 0 0 0 0 0 0 0 0 0 0 0 0 0 0 0 0 0 0 0 0 0 0 0 0 0 0 0 0 0 0 0 0 0 0 0 0 0 0 0 0 0 0 89 89 89 99 99 99 131 131 131 127 127 127 134 134 134 104 104 104 115 115 115 121 121 121 147 147 147 147 147 147 105 105 105 88 88 88 85 85 85 102 102 102 113 113 113 113 113 113 0 0 0 228 228 228 179 24 24 
206 206 206 0 0 0 97 97 97 49 49 49 203 193 104 198 188 81 49 49 49 97 97 97 0 0 0 0 0 0 0 0 0 0 0 0 0 0 0 72 123 109 153 198 147 173 168 113 224 223 168 32 61 54 3 18 14 6 25 20 4 23 18 4 21 17 4 20 16 5 23 18 53 98 87 229 228 177 192 194 135 153 198 147 61 107 98 235 248 182 172 168 112 19 46 55 19 46 55 19 46 55 19 46 55 19 46 55 19 46 55 19 46 55 19 46 55 19 46 55 19 46 55 19 46 55 19 46 55 169 163 109 195 189 137 
51 96 133 27 55 187 30 54 153 21 44 181 25 57 172 42 85 146 34 77 161 15 38 184 25 60 180 27 70 161 36 73 146 42 79 140 42 79 140 29 70 160 51 96 133 49 95 139 57 76 30 58 78 30 55 74 28 55 74 28 61 82 32 58 78 30 55 74 28 55 74 28 58 78 30 57 76 30 51 68 26 55 72 28 55 74 28 53 71 27 47 63 25 53 71 27 73 189 61 71 190 62 68 183 59 68 183 59 79 194 70 73 189 61 68 183 59 66 180 58 71 190 62 70 187 61 63 170 54 68 177 57 66 180 58 67 174 56 58 157 51 65 176 56 135 135 135 168 168 168 176 176 176 146 146 146 128 128 128 157 157 157 146 146 146 214 0 2 177 0 1 176 176 176 163 163 163 163 163 163 205 205 205 168 168 168 168 168 168 135 135 135 0 0 0 0 0 0 0 0 0 0 0 0 0 0 0 0 0 0 0 0 0 254 254 254 192 245 254 0 0 0 0 0 0 0 0 0 0 0 0 0 0 0 0 0 0 0 0 0 109 0 0 104 0 0 106 4 1 104 5 0 108 0 0 106 1 0 111 0 0 108 1 0 109 3 0 109 0 0 109 2 1 108 0 0 111 0 1 108 0 0 110 2 0 109 0 0 109 3 1 113 1 0 111 0 0 112 0 0 109 0 0 108 0 2 109 0 1 105 0 0 108 1 2 105 1 0 107 0 1 107 0 0 109 0 4 107 0 0 111 1 3 109 2 0 105 0 0 108 1 3 106 3 0 109 5 0 108 2 0 110 1 1 106 0 0 110 0 0 181 182 182 184 186 185 208 214 206 201 202 205 200 200 204 179 182 182 180 184 184 182 182 183 181 179 181 183 185 182 207 203 205 203 198 203 202 203 200 182 182 180 182 182 180 179 182 182 182 184 185 185 186 186 208 207 209 205 202 201 203 204 204 185 184 180 183 185 185 183 182 184 83 71 23 90 73 29 89 70 26 91 72 29 94 75 30 89 68 25 91 75 30 114 99 36 120 105 40 118 102 38 119 105 39 99 88 32 99 88 32 84 77 26 57 52 19 84 76 25 45 45 45 50 50 50 53 53 53 60 60 60 64 64 64 62 62 62 61 61 61 59 59 59 58 58 58 63 63 63 66 66 66 62 62 62 61 61 61 57 57 57 49 49 49 47 47 47 0 0 0 0 0 0 0 0 0 0 0 0 0 0 0 0 0 0 0 0 0 0 0 0 0 0 0 0 0 0 0 0 0 0 0 0 0 0 0 0 0 0 0 0 0 0 0 0 84 84 84 87 87 87 132 132 132 111 111 111 85 85 85 84 84 84 102 102 102 117 117 117 109 109 109 127 127 127 127 127 127 104 104 104 112 112 112 147 147 147 113 113 113 100 100 100 206 206 206 221 52 52 186 186 186 221 52 52 228 228 228 97 97 97 49 49 49 190 168 74 190 168 74 49 49 49 
97 97 97 0 0 0 0 0 0 0 0 0 0 0 0 0 0 0 66 115 103 50 92 87 172 167 112 235 236 180 36 67 59 3 18 14 6 25 20 6 25 20 6 24 20 4 22 18 4 22 18 59 108 96 243 248 190 176 170 117 47 87 84 54 97 91 249 249 197 244 249 189 166 160 105 172 168 112 177 172 120 175 172 116 175 172 116 174 172 116 177 172 118 172 168 112 172 168 112 177 172 120 175 172 116 169 163 109 195 189 137 217 220 158 
43 87 139 35 74 141 30 73 153 18 38 155 17 41 150 31 67 139 29 55 163 15 38 184 20 56 175 27 72 161 32 68 153 42 79 140 35 74 141 34 74 144 49 95 139 43 87 139 47 63 25 49 65 25 55 72 28 55 72 28 50 66 26 51 68 26 56 75 29 55 74 28 47 63 25 49 65 25 50 66 26 55 74 28 44 59 23 44 59 23 51 68 26 55 74 28 58 157 51 59 160 52 66 180 58 66 180 58 61 165 53 62 168 54 68 185 59 68 183 59 61 159 51 59 160 52 61 165 53 66 180 58 57 147 47 57 147 47 62 168 54 66 180 58 120 120 120 168 168 168 146 146 146 128 128 128 163 163 163 157 157 157 146 146 146 253 3 0 219 2 7 176 176 176 163 163 163 157 157 157 163 163 163 205 205 205 176 176 176 120 120 120 0 0 0 0 0 0 0 0 0 0 0 0 0 0 0 0 0 0 0 0 0 254 254 254 179 214 219 0 0 0 0 0 0 0 0 0 0 0 0 0 0 0 0 0 0 0 0 0 167 144 74 145 109 54 140 105 50 148 109 56 144 109 56 147 111 59 141 104 46 139 105 51 148 110 52 145 107 54 135 105 49 139 107 50 145 110 54 147 111 53 145 112 57 83 65 27 170 143 76 145 110 56 135 106 50 146 112 56 143 106 59 147 108 57 137 103 50 137 104 48 145 111 54 147 108 56 136 104 51 135 100 50 145 107 57 144 115 53 145 108 57 136 104 52 137 105 49 139 104 47 145 108 56 145 108 55 143 112 58 147 111 59 145 107 55 142 106 53 140 104 50 145 106 52 137 103 53 146 109 57 139 110 55 145 110 53 143 109 54 91 59 27 172 149 72 145 105 57 134 103 51 148 109 56 148 109 57 145 109 54 139 104 54 141 103 51 148 117 57 145 109 60 135 102 49 138 107 49 145 108 54 144 109 53 146 112 62 88 60 28 58 47 19 60 48 19 92 73 29 89 66 25 89 68 25 91 71 28 89 68 25 93 77 31 89 73 29 90 74 29 87 68 25 88 69 25 60 49 19 60 49 19 55 42 19 57 43 19 45 45 45 48 48 48 56 56 56 59 59 59 58 58 58 58 58 58 53 53 53 55 55 55 55 55 55 54 54 54 58 58 58 56 56 56 60 60 60 56 56 56 52 52 52 45 45 45 0 0 0 0 0 0 0 0 0 0 0 0 0 0 0 0 0 0 0 0 0 0 0 0 0 0 0 0 0 0 0 0 0 0 0 0 0 0 0 0 0 0 0 0 0 0 0 0 85 85 85 89 89 89 107 107 107 92 92 92 84 84 84 83 83 83 88 88 88 129 129 129 122 122 122 105 105 105 113 113 113 113 113 113 151 151 151 130 130 130 105 105 105 99 99 99 186 186 186 179 24 24 179 24 24 
186 186 186 228 228 228 89 89 89 49 49 49 190 168 74 203 193 104 49 49 49 89 89 89 0 0 0 0 0 0 0 0 0 0 0 0 0 0 0 66 115 103 34 69 72 179 174 120 249 249 197 36 67 59 47 88 78 47 88 78 53 100 88 55 100 89 59 108 96 58 107 95 58 107 95 226 224 172 184 180 124 47 87 84 58 103 95 249 249 197 235 248 182 249 249 197 249 249 197 235 248 182 195 189 137 195 189 137 217 220 158 222 230 166 249 250 198 235 248 182 235 248 182 195 189 137 213 213 153 207 201 147 217 220 158 
49 95 139 43 83 151 40 77 142 24 51 148 18 46 159 21 44 163 20 50 177 15 38 184 16 44 181 28 64 169 27 74 161 30 75 152 42 79 140 36 76 140 34 66 139 43 87 139 51 68 26 50 66 26 45 59 23 45 60 24 57 76 30 59 79 31 46 62 24 45 59 23 53 71 27 56 75 29 55 72 28 55 74 28 61 82 32 61 82 32 55 74 28 45 60 24 62 168 54 61 165 53 55 144 46 55 148 48 73 189 61 72 193 63 57 154 50 53 142 46 67 174 56 68 185 59 68 177 57 68 183 59 83 195 71 83 195 71 66 180 58 55 150 48 135 135 135 163 163 163 146 146 146 128 128 128 157 157 157 163 163 163 146 146 146 255 2 1 177 3 0 176 176 176 157 157 157 168 160 166 163 163 163 197 197 197 163 163 163 135 135 135 0 0 0 0 0 0 0 0 0 0 0 0 0 0 0 0 0 0 0 0 0 254 254 254 192 245 254 0 0 0 0 0 0 0 0 0 0 0 0 0 0 0 0 0 0 0 0 0 177 150 85 136 103 49 103 67 34 108 68 32 106 67 32 109 65 32 105 65 29 109 64 32 87 58 23 86 60 34 107 66 30 106 68 33 91 63 25 145 116 71 142 111 56 88 64 27 174 151 80 137 106 52 107 63 33 107 65 31 106 66 30 105 67 30 105 65 30 104 69 32 85 63 25 86 60 28 106 68 27 106 68 31 87 57 25 106 62 32 104 67 30 105 66 31 103 69 32 88 63 26 111 67 30 106 66 31 86 59 27 106 68 31 106 68 35 109 69 31 104 66 29 104 66 31 107 65 32 107 68 30 101 65 29 146 117 71 141 108 61 87 58 27 178 153 79 136 100 49 104 67 31 108 64 33 99 69 29 102 64 32 106 67 28 108 64 29 85 60 27 90 60 28 105 67 31 105 65 31 89 57 26 154 120 70 143 109 55 91 59 29 103 78 32 124 90 38 83 63 25 57 41 19 61 47 19 61 48 19 66 53 21 61 47 19 60 45 19 70 55 19 92 73 29 92 73 29 87 65 22 87 66 23 94 75 30 104 78 32 46 46 46 50 50 50 58 58 58 55 55 55 60 60 60 56 56 56 54 54 54 51 51 51 51 51 51 56 56 56 56 56 56 56 56 56 60 60 60 56 56 56 53 53 53 47 47 47 44 44 44 44 44 44 0 0 0 0 0 0 0 0 0 0 0 0 0 0 0 0 0 0 0 0 0 0 0 0 0 0 0 0 0 0 0 0 0 0 0 0 44 44 44 45 45 45 89 89 89 109 109 109 140 140 140 86 86 86 87 87 87 84 84 84 87 87 87 135 135 135 149 149 149 147 147 147 113 113 113 113 113 113 147 147 147 130 130 130 101 101 101 86 86 86 186 186 186 140 8 8 179 24 24 140 8 8 206 206 206 77 77 77 49 49 49 190 168 74 
198 188 81 49 49 49 77 77 77 0 0 0 0 0 0 0 0 0 0 0 0 0 0 0 66 115 103 34 69 72 170 164 110 227 225 173 249 249 197 235 237 180 80 135 117 66 115 103 53 100 91 53 100 91 243 248 190 243 248 190 226 224 172 184 181 124 47 87 84 58 103 95 235 248 182 195 189 137 198 192 140 198 192 140 249 249 197 217 222 158 195 189 137 211 205 149 195 189 137 195 189 137 235 248 182 235 248 182 195 189 137 215 215 153 215 215 153 249 249 197 
46 91 134 35 74 141 35 68 144 37 77 141 21 46 173 20 46 175 27 74 161 15 48 185 21 42 183 21 53 146 34 68 140 31 70 147 42 79 140 40 74 135 36 72 134 43 87 139 55 74 28 55 74 28 59 79 31 61 82 32 57 76 30 55 74 28 55 72 28 51 68 26 45 59 23 52 69 27 55 74 28 58 78 30 52 69 27 52 69 27 58 78 30 60 81 31 68 183 59 66 180 58 72 193 63 83 195 71 73 189 61 68 183 59 68 177 57 63 170 54 55 144 46 64 173 55 68 183 59 73 189 61 66 171 55 64 173 55 73 189 61 80 194 68 135 135 135 176 176 176 163 163 163 176 176 176 157 157 157 163 163 163 151 151 151 215 3 4 177 0 2 176 176 176 168 160 166 205 205 205 205 205 205 168 168 168 176 176 176 146 146 146 0 0 0 0 0 0 0 0 0 0 0 0 0 0 0 0 0 0 0 0 0 254 254 254 192 245 254 0 0 0 0 0 0 0 0 0 0 0 0 0 0 0 0 0 0 0 0 0 172 143 69 140 99 49 86 60 26 0 0 0 0 0 0 0 0 0 0 0 0 0 0 0 0 0 0 0 0 0 0 0 0 0 0 0 0 0 0 170 145 72 147 109 58 86 61 30 170 141 73 137 104 45 88 60 29 0 0 0 0 0 0 0 0 0 0 0 0 0 0 0 0 0 0 0 0 0 0 0 0 0 0 0 0 0 0 0 0 0 0 0 0 0 0 0 0 0 0 0 0 0 0 0 0 0 0 0 0 0 0 0 0 0 0 0 0 0 0 0 0 0 0 0 0 0 0 0 0 0 0 0 0 0 0 170 145 76 146 111 57 90 63 27 172 144 73 141 104 53 84 60 28 0 0 0 0 0 0 0 0 0 0 0 0 0 0 0 0 0 0 0 0 0 0 0 0 0 0 0 0 0 0 169 138 70 145 108 54 87 60 26 89 70 26 89 68 25 93 74 30 125 94 39 104 78 32 104 78 32 126 94 41 125 93 38 125 94 39 104 78 32 83 63 25 61 48 19 65 52 20 83 63 25 88 66 24 125 93 38 46 46 46 49 49 49 56 56 56 59 59 59 41 41 41 41 41 41 0 0 0 0 0 0 0 0 0 0 0 0 0 0 0 41 41 41 60 60 60 58 58 58 51 51 51 47 47 47 44 44 44 44 44 44 0 0 0 0 0 0 0 0 0 0 0 0 0 0 0 0 0 0 0 0 0 0 0 0 0 0 0 0 0 0 0 0 0 0 0 0 45 45 45 45 45 45 112 112 112 112 112 112 135 135 135 102 102 102 85 85 85 84 84 84 95 95 95 115 115 115 122 122 122 130 130 130 126 126 126 113 113 113 125 125 125 131 131 131 99 99 99 85 85 85 0 0 0 186 186 186 186 186 186 186 186 186 0 0 0 0 0 0 0 0 0 198 188 81 198 188 81 0 0 0 0 0 0 0 0 0 0 0 0 0 0 0 0 0 0 0 0 0 66 115 103 34 69 72 47 87 84 184 180 124 191 193 135 80 135 117 66 115 103 249 249 197 185 183 125 53 100 91 47 87 84 192 194 135 
185 183 125 47 87 84 47 87 84 58 103 95 195 189 137 195 189 137 211 205 149 213 213 153 232 247 181 235 248 182 250 250 208 232 247 181 222 230 166 215 215 153 217 222 158 235 248 182 217 222 158 212 211 148 217 220 158 249 249 197 
28 76 150 36 66 115 28 87 198 28 87 198 37 77 141 37 77 141 37 77 141 37 77 141 15 41 190 27 74 161 21 53 146 14 49 190 42 79 140 35 67 141 40 74 135 20 69 180 59 79 31 59 79 31 53 71 27 52 69 27 58 78 30 55 72 28 55 74 28 56 75 29 61 82 32 57 76 30 50 66 26 50 66 26 55 72 28 55 74 28 51 68 26 47 63 25 72 193 63 72 191 63 65 176 56 63 170 54 73 189 61 68 177 57 66 180 58 68 185 59 83 195 71 70 187 61 60 164 52 61 165 53 68 177 57 68 183 59 62 168 54 61 159 51 135 135 135 168 168 168 168 168 168 163 163 163 163 163 163 176 176 176 176 176 176 197 197 197 197 197 197 197 197 197 205 205 205 176 176 176 168 168 168 163 163 163 163 163 163 135 135 135 0 0 0 0 0 0 0 0 0 0 0 0 0 0 0 0 0 0 0 0 0 254 254 254 179 214 219 0 0 0 0 0 0 0 0 0 0 0 0 0 0 0 0 0 0 0 0 0 174 153 82 140 110 60 89 60 23 0 0 0 0 0 0 0 0 0 0 0 0 0 0 0 0 0 0 0 0 0 0 0 0 0 0 0 0 0 0 177 150 81 145 109 58 110 70 29 176 150 81 143 105 55 85 61 31 0 0 0 0 0 0 0 0 0 0 0 0 0 0 0 0 0 0 0 0 0 0 0 0 0 0 0 0 0 0 0 0 0 0 0 0 0 0 0 0 0 0 0 0 0 0 0 0 0 0 0 0 0 0 0 0 0 0 0 0 0 0 0 0 0 0 0 0 0 0 0 0 0 0 0 0 0 0 177 150 81 145 109 56 106 66 34 180 151 82 143 109 59 85 62 27 0 0 0 0 0 0 0 0 0 0 0 0 0 0 0 0 0 0 0 0 0 0 0 0 0 0 0 0 0 0 176 151 82 143 110 57 107 64 33 83 63 25 58 42 19 61 48 19 83 63 25 83 63 25 83 63 25 90 71 27 90 71 27 91 72 29 104 78 32 83 63 25 104 78 32 94 75 30 83 63 25 88 66 24 88 66 24 46 46 46 50 50 50 54 54 54 58 58 58 41 41 41 41 41 41 0 0 0 0 0 0 0 0 0 0 0 0 0 0 0 41 41 41 59 59 59 57 57 57 50 50 50 49 49 49 45 45 45 45 45 45 45 45 45 45 45 45 0 0 0 0 0 0 0 0 0 0 0 0 0 0 0 0 0 0 0 0 0 0 0 0 45 45 45 45 45 45 45 45 45 45 45 45 91 91 91 103 103 103 112 112 112 99 99 99 96 96 96 99 99 99 98 98 98 87 87 87 89 89 89 87 87 87 99 99 99 89 89 89 93 93 93 85 85 85 85 85 85 91 91 91 0 0 0 0 0 0 0 0 0 0 0 0 0 0 0 0 0 0 0 0 0 194 180 74 194 175 83 0 0 0 0 0 0 0 0 0 0 0 0 0 0 0 0 0 0 0 0 0 58 103 95 153 198 147 47 87 84 47 87 84 47 87 84 153 198 147 185 183 125 66 115 103 47 87 84 176 170 117 153 198 147 47 87 84 47 87 84 47 87 84 153 198 147 
58 103 95 232 247 181 212 208 148 195 189 137 217 220 158 222 230 166 217 220 158 217 222 158 244 249 189 242 248 188 244 249 189 217 220 158 235 248 182 224 237 173 249 249 197 249 249 197 236 248 180 
48 95 125 28 74 152 28 74 152 28 87 198 17 64 211 27 74 161 27 74 161 37 77 141 37 77 141 27 74 161 34 67 140 42 79 140 42 79 140 42 79 140 20 69 180 20 69 180 45 60 24 49 65 25 57 76 30 55 72 28 47 63 25 51 68 26 58 78 30 59 79 31 52 69 27 50 66 26 55 74 28 57 76 30 47 63 25 49 65 25 57 76 30 58 78 30 56 151 49 59 160 52 73 189 61 68 177 57 61 159 51 62 168 54 73 189 61 72 193 63 66 171 55 61 165 53 66 180 58 73 189 61 61 159 51 59 160 52 70 187 61 73 189 61 128 128 128 128 128 128 128 128 128 128 128 128 120 120 120 146 146 146 143 136 141 129 129 129 129 129 129 129 129 129 135 135 135 128 128 128 128 128 128 128 128 128 135 135 135 135 135 135 0 0 0 0 0 0 0 0 0 0 0 0 0 0 0 0 0 0 0 0 0 254 254 254 179 214 219 0 0 0 0 0 0 0 0 0 0 0 0 0 0 0 0 0 0 0 0 0 170 138 75 152 109 53 108 67 31 0 0 0 0 0 0 0 0 0 0 0 0 0 0 0 0 0 0 0 0 0 0 0 0 0 0 0 0 0 0 170 142 74 146 110 58 105 69 30 173 143 74 148 108 56 107 68 29 0 0 0 0 0 0 0 0 0 0 0 0 0 0 0 0 0 0 0 0 0 0 0 0 0 0 0 0 0 0 0 0 0 0 0 0 0 0 0 0 0 0 0 0 0 0 0 0 0 0 0 0 0 0 0 0 0 0 0 0 0 0 0 0 0 0 0 0 0 0 0 0 0 0 0 0 0 0 170 142 68 148 109 56 106 66 31 168 142 71 145 112 55 106 64 31 0 0 0 0 0 0 0 0 0 0 0 0 0 0 0 0 0 0 0 0 0 0 0 0 0 0 0 0 0 0 170 144 69 145 110 60 106 66 35 83 63 25 93 74 30 124 90 38 58 42 19 60 45 19 65 52 20 90 71 27 90 71 27 91 72 29 89 70 26 92 73 29 91 71 28 93 74 30 58 42 19 61 47 19 58 42 19 46 46 46 51 51 51 54 54 54 63 63 63 41 41 41 41 41 41 0 0 0 0 0 0 0 0 0 0 0 0 0 0 0 0 0 0 60 60 60 57 57 57 54 54 54 47 47 47 45 45 45 45 45 45 45 45 45 45 45 45 0 0 0 0 0 0 0 0 0 0 0 0 0 0 0 0 0 0 0 0 0 0 0 0 45 45 45 45 45 45 45 45 45 45 45 45 102 102 102 84 84 84 97 97 97 102 102 102 99 99 99 85 85 85 91 91 91 112 112 112 99 99 99 99 99 99 83 83 83 92 92 92 112 112 112 113 113 113 89 89 89 100 100 100 0 0 0 0 0 0 0 0 0 0 0 0 0 0 0 0 0 0 0 0 0 194 175 83 190 174 74 0 0 0 0 0 0 0 0 0 0 0 0 0 0 0 0 0 0 0 0 0 58 103 95 58 103 95 58 103 95 58 103 95 58 103 95 61 107 98 58 103 95 58 103 95 58 103 95 58 103 95 61 107 98 61 107 98 58 103 95 58 103 95 58 103 95 
58 103 95 213 213 153 249 249 197 223 230 166 213 213 153 217 220 158 249 249 197 232 247 181 195 189 137 217 220 158 217 220 158 250 250 208 232 247 181 195 189 137 195 189 137 235 248 182 217 220 158 
127 127 127 116 116 116 116 116 116 116 116 116 116 116 116 127 127 127 143 143 143 143 143 143 104 104 104 143 143 143 127 127 127 116 116 116 116 116 116 116 116 116 116 116 116 127 127 127 72 46 28 75 47 29 70 46 28 72 46 28 79 50 31 83 53 33 73 47 29 75 47 29 82 52 32 83 53 33 67 43 27 70 46 28 80 51 32 80 51 32 70 46 28 69 45 27 160 150 34 166 156 36 154 144 32 158 148 34 176 165 40 189 177 43 161 151 35 165 154 35 183 171 41 188 176 42 147 137 29 156 145 32 180 169 40 180 169 40 156 145 32 151 141 31 0 0 0 0 0 0 164 164 164 104 104 104 201 144 31 0 0 0 0 0 0 0 0 0 0 0 0 0 0 0 0 0 0 201 144 31 104 104 104 164 164 164 0 0 0 0 0 0 0 0 0 0 0 0 0 0 0 0 0 0 0 0 0 0 0 0 0 0 0 0 0 0 235 235 235 0 0 0 0 0 0 0 0 0 0 0 0 0 0 0 0 0 0 0 0 0 0 0 0 0 0 0 0 0 0 0 0 0 0 0 0 0 0 0 0 0 0 0 0 0 0 0 0 0 0 0 0 0 0 0 0 0 0 0 0 0 0 0 0 0 0 0 0 0 27 123 107 32 149 129 32 149 129 44 205 177 107 0 0 107 0 0 107 0 0 107 0 0 107 0 0 107 0 0 107 0 0 107 0 0 44 205 177 32 149 129 32 149 129 27 123 107 8 8 12 8 8 12 8 8 12 8 8 12 8 8 12 8 8 12 8 8 12 8 8 12 8 8 12 8 8 12 16 16 16 8 8 12 8 8 12 8 8 12 8 8 12 8 8 12 85 25 9 103 46 11 127 62 15 126 66 18 130 60 14 105 42 11 83 23 9 0 0 0 0 0 0 0 0 0 0 0 0 0 0 0 0 0 0 0 0 0 146 110 45 96 68 25 84 54 24 105 86 27 152 119 56 152 119 56 121 94 47 84 56 24 0 0 0 0 0 0 0 0 0 0 0 0 0 0 0 0 0 0 0 0 0 0 0 0 148 128 61 105 87 42 96 91 40 102 114 44 99 104 42 119 115 53 0 0 0 0 0 0 0 0 0 0 0 0 0 0 0 0 0 0 0 0 0 0 0 0 0 0 0 0 0 0 189 192 96 172 173 87 127 127 127 116 116 116 116 116 116 116 116 116 116 116 116 92 92 92 99 99 99 119 119 119 104 104 104 143 143 143 127 127 127 116 116 116 116 116 116 116 116 116 116 116 116 127 127 127 0 0 0 0 0 0 0 0 0 0 0 0 0 0 0 0 0 0 0 0 0 0 0 0 0 0 0 0 0 0 0 0 0 0 0 0 0 0 0 0 0 0 0 0 0 0 0 0 0 0 0 0 0 0 143 143 143 164 164 164 0 0 0 0 0 0 0 0 0 147 147 147 0 0 0 0 0 0 149 149 149 118 118 118 0 0 0 0 0 0 164 164 164 0 0 0 0 0 0 0 0 0 0 0 0 0 0 0 11 34 42 24 53 62 24 53 62 47 87 84 47 87 84 24 53 62 24 53 62 11 34 42 0 0 0 0 0 0 0 0 0 0 0 0 217 222 158 236 248 180 
235 248 182 195 189 137 195 189 137 217 220 158 222 233 169 195 189 137 195 189 137 217 222 158 236 248 180 249 249 197 249 249 197 224 237 173 195 189 137 195 189 137 
127 127 127 127 127 127 143 143 143 143 143 143 143 143 143 143 143 143 143 143 143 143 143 143 116 116 116 143 143 143 143 143 143 143 143 143 104 104 104 127 127 127 127 127 127 116 116 116 79 50 31 82 52 32 91 57 35 92 58 36 85 55 33 83 53 33 76 48 30 76 48 30 72 46 28 69 45 27 75 47 29 76 48 30 63 40 25 69 45 27 75 47 29 78 49 30 178 167 40 183 171 41 203 190 49 207 194 49 193 180 43 188 176 42 171 160 37 171 160 37 158 148 34 151 141 31 165 154 35 171 160 37 139 130 27 152 145 32 166 156 36 172 161 38 0 0 0 129 103 64 164 164 164 104 104 104 201 144 31 75 0 0 113 93 53 164 128 74 172 136 82 135 109 69 75 0 0 201 144 31 104 104 104 164 164 164 129 103 64 0 0 0 0 0 0 0 0 0 0 0 0 0 0 0 0 0 0 0 0 0 0 0 0 0 0 0 0 0 0 0 0 0 0 0 0 0 0 0 0 0 0 0 0 0 0 0 0 0 0 0 0 0 0 0 0 0 0 0 0 0 0 0 0 0 0 0 0 0 0 0 0 0 0 0 0 0 0 0 0 0 0 0 0 0 0 0 0 0 0 0 0 0 0 0 0 0 0 0 32 149 129 255 255 255 162 246 231 74 237 209 127 7 9 162 43 41 162 43 41 162 43 41 162 43 41 162 43 41 162 43 41 127 7 9 74 237 209 162 246 231 255 255 255 32 149 129 16 16 16 8 8 12 8 8 12 16 16 16 16 16 16 16 16 16 8 8 12 8 8 12 8 8 12 8 8 12 8 8 12 8 8 12 8 8 12 16 16 16 8 8 12 8 8 12 103 46 11 151 83 23 184 107 38 204 124 46 203 117 41 154 76 18 103 43 11 0 0 0 0 0 0 0 0 0 0 0 0 0 0 0 0 0 0 154 116 47 85 57 22 66 41 17 105 86 27 149 117 57 156 125 64 198 155 72 195 147 63 105 86 27 0 0 0 0 0 0 0 0 0 0 0 0 0 0 0 0 0 0 0 0 0 184 158 71 128 108 51 80 65 29 119 115 53 177 183 83 163 168 78 99 104 42 0 0 0 0 0 0 0 0 0 0 0 0 0 0 0 0 0 0 0 0 0 0 0 0 0 0 0 197 203 103 168 167 82 127 121 59 127 127 127 127 127 127 143 143 143 109 109 109 95 95 95 91 91 91 217 255 235 23 221 98 97 97 97 143 143 143 143 143 143 143 143 143 104 104 104 127 127 127 127 127 127 116 116 116 0 0 0 0 0 0 0 0 0 0 0 0 0 0 0 0 0 0 0 0 0 0 0 0 0 0 0 0 0 0 0 0 0 0 0 0 0 0 0 0 0 0 0 0 0 0 0 0 104 104 104 0 0 0 0 0 0 0 0 0 118 118 118 143 143 143 143 143 143 0 0 0 0 0 0 0 0 0 149 149 149 0 0 0 206 206 206 143 143 143 0 0 0 0 0 0 0 0 0 0 0 0 0 0 0 0 0 0 7 28 35 11 34 42 24 53 62 24 53 62 24 53 62 
24 53 62 11 34 42 7 28 35 0 0 0 0 0 0 0 0 0 0 0 0 212 211 148 235 248 182 195 189 137 195 189 137 213 213 153 232 247 181 195 189 137 213 213 153 195 189 137 211 205 149 211 205 149 235 248 182 236 248 180 195 189 137 217 220 158 217 220 158 
127 127 127 104 104 104 28 87 198 43 108 159 28 91 193 27 74 161 116 116 116 116 116 116 143 143 143 116 116 116 127 127 127 127 127 127 15 38 184 29 75 163 127 127 127 127 127 127 85 55 33 86 56 34 76 48 30 78 49 30 89 57 35 86 56 34 80 51 32 76 48 30 83 53 33 86 56 34 83 53 33 83 53 33 89 57 35 91 57 35 83 53 33 82 52 32 193 180 43 196 184 46 171 160 37 175 164 39 200 188 48 196 184 46 180 169 40 171 160 37 188 176 42 196 184 46 188 176 42 188 176 42 200 188 48 204 191 50 188 176 42 183 171 41 0 0 0 82 67 40 164 164 164 104 104 104 221 184 44 40 0 0 82 67 40 100 79 42 100 79 42 76 61 37 40 0 0 221 184 44 104 104 104 164 164 164 82 67 40 0 0 0 0 0 0 0 0 0 0 0 0 0 0 0 0 0 0 0 0 0 0 0 0 0 0 0 254 254 254 0 0 0 0 0 0 0 0 0 0 0 0 0 0 0 0 0 0 0 0 0 0 0 0 0 0 0 0 0 0 0 0 0 0 0 0 0 0 0 0 0 0 0 0 0 0 0 0 0 0 0 0 0 0 0 0 0 0 0 0 0 0 0 0 0 0 0 0 0 32 149 129 162 246 231 162 246 231 74 237 209 127 7 9 162 43 41 116 30 29 88 23 22 88 23 22 116 30 29 162 43 41 127 7 9 74 237 209 162 246 231 162 246 231 32 149 129 16 16 16 8 8 12 8 8 12 8 8 12 8 8 12 8 8 12 8 8 12 16 16 16 8 8 12 8 8 12 8 8 12 45 1 51 8 8 12 8 8 12 8 8 12 8 8 12 128 67 18 204 126 50 187 118 57 203 141 81 175 105 43 204 118 42 130 60 14 0 0 0 0 0 0 0 0 0 0 0 0 0 0 0 154 118 47 85 57 22 66 41 17 0 0 0 120 94 48 154 123 62 205 164 85 186 150 82 161 127 67 106 87 28 0 0 0 0 0 0 0 0 0 0 0 0 0 0 0 0 0 0 184 158 71 128 108 51 103 84 40 0 0 0 119 115 53 163 168 78 138 145 65 117 127 51 0 0 0 0 0 0 0 0 0 0 0 0 0 0 0 0 0 0 0 0 0 0 0 0 197 203 103 168 167 82 162 159 80 0 0 0 127 127 127 104 104 104 116 116 116 116 116 116 104 104 104 97 97 97 23 221 98 0 123 24 119 119 119 116 116 116 127 127 127 127 127 127 106 106 106 119 119 119 127 127 127 127 127 127 0 0 0 0 0 0 0 0 0 0 0 0 0 0 0 0 0 0 0 0 0 0 0 0 0 0 0 0 0 0 0 0 0 0 0 0 0 0 0 0 0 0 0 0 0 0 0 0 0 0 0 0 0 0 119 119 119 0 0 0 0 0 0 0 0 0 0 0 0 119 119 119 91 91 91 0 0 0 0 0 0 0 0 0 0 0 0 0 0 0 0 0 0 91 91 91 0 0 0 0 0 0 0 0 0 0 0 0 7 28 35 7 28 35 11 34 42 11 34 42 11 34 42 11 34 42 7 28 35 7 28 35 0 0 0 0 0 0 
0 0 0 0 0 0 235 248 182 195 189 137 217 222 158 217 220 158 217 220 158 249 249 197 195 189 137 207 201 147 217 220 158 217 220 158 213 213 153 249 249 197 236 248 180 235 248 182 198 192 140 215 215 153 
127 127 127 143 143 143 127 127 127 127 127 127 127 127 127 23 70 197 127 127 127 31 83 137 20 69 188 127 127 127 116 116 116 116 116 116 116 116 116 116 116 116 116 116 116 127 127 127 79 50 31 75 47 29 83 53 33 86 56 34 76 48 30 76 48 30 79 50 31 86 56 34 73 47 29 76 48 30 86 56 34 86 56 34 79 50 31 75 47 29 92 58 36 86 56 34 178 167 40 166 156 36 189 177 43 196 184 46 171 160 37 170 159 36 176 165 40 196 184 46 161 151 35 171 160 37 196 184 46 196 184 46 178 167 40 166 156 36 207 194 49 194 182 46 0 0 0 0 0 0 164 164 164 104 104 104 221 184 44 0 0 0 0 0 0 40 0 0 75 0 0 0 0 0 0 0 0 221 184 44 104 104 104 164 164 164 0 0 0 0 0 0 0 0 0 0 0 0 0 0 0 0 0 0 0 0 0 0 0 0 0 0 0 235 235 235 217 217 217 0 0 0 0 0 0 0 0 0 0 0 0 0 0 0 0 0 0 0 0 0 0 0 0 0 0 0 0 0 0 0 0 0 0 0 0 0 0 0 0 0 0 0 0 0 0 0 0 0 0 0 0 0 0 0 0 0 0 0 0 0 0 0 0 0 0 0 0 0 44 205 177 74 237 209 74 237 209 127 7 9 116 30 29 88 23 22 88 23 22 88 23 22 88 23 22 88 23 22 88 23 22 116 30 29 127 7 9 74 237 209 74 237 209 44 205 177 8 8 12 8 8 12 8 8 12 45 1 51 45 1 51 8 8 12 8 8 12 16 16 16 16 16 16 8 8 12 8 8 12 8 8 12 8 8 12 16 16 16 8 8 12 8 8 12 129 68 19 207 135 65 212 157 104 226 177 124 205 144 85 203 127 53 128 66 16 0 0 0 0 0 0 0 0 0 0 0 0 0 0 0 94 67 25 66 41 17 53 31 14 0 0 0 105 86 27 195 147 63 177 138 69 177 138 69 195 147 63 121 94 47 0 0 0 0 0 0 0 0 0 0 0 0 0 0 0 0 0 0 107 88 42 103 84 40 79 65 28 0 0 0 99 104 42 119 115 53 99 104 42 103 100 43 0 0 0 0 0 0 0 0 0 0 0 0 0 0 0 0 0 0 0 0 0 0 0 0 180 183 91 162 159 80 125 119 57 0 0 0 127 127 127 143 143 143 127 127 127 127 127 127 106 106 106 87 87 87 106 106 106 119 119 119 127 127 127 127 127 127 116 116 116 97 97 97 217 255 235 23 221 98 97 97 97 127 127 127 0 0 0 0 0 0 0 0 0 0 0 0 0 0 0 144 144 144 148 148 148 122 122 122 145 145 145 147 147 147 147 147 147 0 0 0 0 0 0 0 0 0 0 0 0 0 0 0 0 0 0 0 0 0 99 99 99 0 0 0 91 91 91 0 0 0 0 0 0 0 0 0 0 0 0 0 0 0 0 0 0 91 91 91 0 0 0 0 0 0 119 119 119 0 0 0 0 0 0 0 0 0 0 0 0 0 0 0 7 28 35 7 28 35 7 28 35 7 28 35 7 28 35 7 28 35 7 28 35 7 28 35 0 0 0 
0 0 0 0 0 0 0 0 0 235 248 182 235 248 182 195 189 137 217 222 158 222 233 169 249 249 197 217 220 158 217 220 158 211 205 149 217 220 158 249 249 197 249 249 197 195 189 137 235 248 182 235 248 182 249 249 197 
127 127 127 143 143 143 143 143 143 116 116 116 116 116 116 116 116 116 116 116 116 116 116 116 116 116 116 116 116 116 143 143 143 143 143 143 143 143 143 143 143 143 143 143 143 104 104 104 82 52 32 78 49 30 73 47 29 79 50 31 83 53 33 83 53 33 67 43 27 64 41 26 75 47 29 80 51 32 75 47 29 69 45 27 83 53 33 83 53 33 70 46 28 67 43 27 183 171 41 172 161 38 161 151 35 178 167 40 189 177 43 189 177 43 147 137 29 139 129 27 165 154 35 180 169 40 165 154 35 152 145 32 189 177 43 189 177 43 156 145 32 147 137 29 0 0 0 0 0 0 164 164 164 104 104 104 221 184 44 0 0 0 0 0 0 40 0 0 75 0 0 0 0 0 0 0 0 221 184 44 104 104 104 164 164 164 0 0 0 0 0 0 0 0 0 0 0 0 0 0 0 0 0 0 0 0 0 0 0 0 0 0 0 235 235 235 0 0 0 217 217 217 0 0 0 0 0 0 0 0 0 0 0 0 0 0 0 0 0 0 0 0 0 0 0 0 0 0 0 0 0 0 0 0 0 0 0 0 0 0 0 0 0 0 0 0 0 0 0 0 0 0 0 0 0 0 0 0 0 0 0 0 0 0 0 0 0 0 107 0 0 127 7 9 127 7 9 116 30 29 88 23 22 88 23 22 88 23 22 88 23 22 88 23 22 88 23 22 88 23 22 88 23 22 116 30 29 127 7 9 127 7 9 107 0 0 8 8 12 8 8 12 8 8 12 45 1 51 45 1 51 8 8 12 8 8 12 8 8 12 16 16 16 8 8 12 8 8 12 8 8 12 8 8 12 16 16 16 16 16 16 8 8 12 127 65 15 203 125 49 185 115 53 203 142 83 180 110 48 181 106 39 101 58 11 83 16 9 103 33 11 101 41 11 103 50 11 103 54 11 127 61 13 130 52 14 99 29 11 0 0 0 100 74 36 166 127 60 194 145 60 194 145 60 154 118 56 121 94 47 0 0 0 0 0 0 0 0 0 84 54 24 106 87 28 123 96 49 113 91 37 95 61 33 95 61 33 0 0 0 0 0 0 0 0 0 0 0 0 0 0 0 0 0 0 0 0 0 0 0 0 0 0 0 0 0 0 0 0 0 0 0 0 114 109 50 133 138 60 123 119 55 107 99 47 0 0 0 127 127 127 143 143 143 143 143 143 97 97 97 217 255 235 23 221 98 97 97 97 97 97 97 116 116 116 116 116 116 143 143 143 99 99 99 23 221 98 0 123 24 119 119 119 104 104 104 0 0 0 0 0 0 0 0 0 0 0 0 0 0 0 144 144 144 132 132 132 127 127 127 119 119 119 127 127 127 137 137 137 0 0 0 0 0 0 0 0 0 0 0 0 0 0 0 0 0 0 0 0 0 0 0 0 0 0 0 0 0 0 0 0 0 0 0 0 0 0 0 0 0 0 0 0 0 0 0 0 0 0 0 0 0 0 0 0 0 0 0 0 0 0 0 0 0 0 0 0 0 0 0 0 0 0 0 11 34 42 24 53 62 24 53 62 47 87 84 47 87 84 24 53 62 24 53 62 11 34 42 0 0 0 0 0 0 0 0 0 
0 0 0 198 192 140 195 189 137 249 249 197 249 249 197 249 249 197 249 249 197 232 247 181 217 220 158 250 250 208 249 249 197 195 189 137 195 189 137 217 220 158 217 220 158 235 248 182 222 237 171 
116 116 116 116 116 116 127 127 127 127 127 127 127 127 127 28 87 198 20 69 188 116 116 116 127 127 127 104 104 104 27 70 157 36 99 177 116 116 116 116 116 116 104 104 104 127 127 127 69 45 27 66 42 26 73 47 29 86 56 34 73 47 29 64 41 26 72 46 28 75 47 29 73 47 29 64 41 26 75 47 29 76 48 30 67 43 27 75 47 29 72 46 28 76 48 30 152 145 32 143 134 29 161 151 35 196 184 46 161 151 35 139 129 27 160 150 34 166 156 36 161 151 35 139 129 27 166 156 36 171 160 37 149 139 31 165 154 35 158 148 34 170 159 36 0 0 0 129 103 64 164 164 164 104 104 104 221 184 44 75 0 0 135 109 69 172 136 82 142 115 60 100 79 42 75 0 0 221 184 44 104 104 104 164 164 164 129 103 64 0 0 0 0 0 0 0 0 0 0 0 0 0 0 0 0 0 0 0 0 0 254 254 254 0 0 0 254 254 254 217 217 217 0 0 0 0 0 0 0 0 0 0 0 0 0 0 0 0 0 0 0 0 0 0 0 0 0 0 0 0 0 0 0 0 0 0 0 0 0 0 0 0 0 0 0 0 0 0 0 0 0 0 0 0 0 0 0 0 0 0 0 0 0 0 0 0 0 0 107 0 0 162 43 41 162 43 41 88 23 22 88 23 22 88 23 22 88 23 22 88 23 22 88 23 22 88 23 22 88 23 22 88 23 22 88 23 22 162 43 41 162 43 41 107 0 0 8 8 12 16 16 16 8 8 12 8 8 12 8 8 12 16 16 16 8 8 12 8 8 12 45 1 51 45 1 51 8 8 12 8 8 12 8 8 12 16 16 16 8 8 12 8 8 12 130 60 14 150 79 22 181 108 37 203 125 49 202 121 42 150 87 26 101 51 11 103 33 11 184 79 22 118 62 12 193 117 49 121 72 19 112 59 12 183 88 25 137 49 15 0 0 0 105 86 27 105 86 27 108 78 36 87 64 25 108 78 36 84 54 24 0 0 0 0 0 0 0 0 0 106 87 28 205 160 83 202 162 92 149 120 65 185 142 67 95 73 27 0 0 0 0 0 0 0 0 0 0 0 0 0 0 0 0 0 0 0 0 0 0 0 0 0 0 0 0 0 0 0 0 0 0 0 0 120 123 53 183 189 91 163 168 78 145 150 70 0 0 0 116 116 116 116 116 116 127 127 127 106 106 106 23 221 98 0 123 24 217 255 235 23 221 98 106 106 106 104 104 104 102 102 102 127 127 127 97 97 97 97 97 97 104 104 104 127 127 127 0 0 0 0 0 0 0 0 0 0 0 0 0 0 0 124 124 124 118 118 118 0 0 0 0 0 0 121 121 121 122 122 122 0 0 0 0 0 0 0 0 0 0 0 0 0 0 0 0 0 0 0 0 0 0 0 0 0 0 0 0 0 0 0 0 0 0 0 0 0 0 0 0 0 0 0 0 0 0 0 0 0 0 0 0 0 0 0 0 0 0 0 0 0 0 0 0 0 0 0 0 0 0 0 0 0 0 0 24 53 62 24 53 62 80 135 117 67 108 85 67 108 85 80 135 117 
24 53 62 24 53 62 0 0 0 0 0 0 0 0 0 0 0 0 195 189 137 217 222 158 222 230 166 195 189 137 195 189 137 195 189 137 235 248 182 249 249 197 232 247 181 195 189 137 195 189 137 217 220 158 211 205 149 217 220 158 213 213 153 232 247 181 
143 143 143 143 143 143 127 127 127 24 61 192 25 70 181 28 87 198 21 66 204 27 74 161 127 127 127 127 127 127 27 69 158 34 76 142 143 143 143 143 143 143 143 143 143 104 104 104 91 57 35 92 58 36 85 55 33 83 53 33 79 50 31 79 50 31 78 49 30 80 51 32 85 55 33 92 58 36 82 52 32 76 48 30 92 58 36 92 58 36 83 53 33 80 51 32 204 191 50 207 194 49 193 180 43 189 177 43 176 165 40 176 165 40 172 161 38 180 169 40 193 180 43 207 194 49 183 171 41 171 160 37 207 194 49 207 194 49 188 176 42 180 169 40 0 0 0 82 67 40 164 164 164 104 104 104 245 204 45 40 0 0 76 61 37 91 70 37 100 79 42 91 70 37 40 0 0 245 204 45 104 104 104 164 164 164 82 67 40 0 0 0 0 0 0 0 0 0 0 0 0 0 0 0 217 217 217 217 217 217 254 254 254 217 217 217 235 235 235 254 254 254 254 254 254 254 254 254 0 0 0 0 0 0 0 0 0 0 0 0 0 0 0 0 0 0 0 0 0 0 0 0 217 217 217 217 217 217 217 217 217 0 0 0 0 0 0 0 0 0 0 0 0 0 0 0 0 0 0 0 0 0 0 0 0 0 0 0 107 0 0 162 43 41 116 30 29 88 23 22 88 23 22 88 23 22 88 23 22 88 23 22 88 23 22 88 23 22 88 23 22 88 23 22 88 23 22 116 30 29 162 43 41 107 0 0 8 8 12 16 16 16 16 16 16 8 8 12 8 8 12 16 16 16 8 8 12 16 16 16 45 1 51 8 8 12 8 8 12 8 8 12 8 8 12 16 16 16 8 8 12 8 8 12 83 26 9 101 47 11 101 55 11 125 69 19 126 65 16 130 58 14 83 23 9 81 22 9 203 112 39 174 104 42 221 162 99 189 121 55 158 94 32 179 92 29 103 39 11 0 0 0 0 0 0 0 0 0 0 0 0 0 0 0 0 0 0 0 0 0 0 0 0 0 0 0 0 0 0 98 76 30 196 157 90 211 177 117 150 128 74 205 160 81 88 69 20 0 0 0 0 0 0 0 0 0 0 0 0 0 0 0 0 0 0 0 0 0 0 0 0 0 0 0 0 0 0 0 0 0 0 0 0 119 115 53 182 188 90 161 167 75 132 136 60 0 0 0 143 143 143 143 143 143 127 127 127 107 107 107 106 106 106 97 97 97 23 221 98 0 123 24 106 106 106 127 127 127 127 127 127 127 127 127 143 143 143 143 143 143 143 143 143 104 104 104 0 0 0 0 0 0 0 0 0 0 0 0 0 0 0 115 115 115 118 118 118 0 0 0 0 0 0 133 133 133 125 125 125 0 0 0 0 0 0 0 0 0 0 0 0 0 0 0 0 0 0 0 0 0 0 0 0 0 0 0 0 0 0 0 0 0 0 0 0 0 0 0 0 0 0 0 0 0 0 0 0 0 0 0 0 0 0 0 0 0 0 0 0 0 0 0 0 0 0 0 0 0 0 0 0 0 0 0 24 53 62 47 87 84 204 226 215 103 130 110 58 89 63 
109 165 112 47 87 84 24 53 62 0 0 0 0 0 0 0 0 0 0 0 0 223 230 166 213 213 153 242 248 188 195 189 137 217 220 158 217 222 158 217 222 158 235 248 182 235 248 182 235 248 182 217 220 158 211 205 149 212 211 148 207 201 147 242 248 188 249 249 197 
127 127 127 29 64 168 23 73 181 116 116 116 116 116 116 116 116 116 116 116 116 116 116 116 116 116 116 104 104 104 116 116 116 116 116 116 116 116 116 116 116 116 127 127 127 127 127 127 75 47 29 75 47 29 91 57 35 92 58 36 83 53 33 82 52 32 86 56 34 86 56 34 72 46 28 75 47 29 83 53 33 86 56 34 82 52 32 82 52 32 86 56 34 86 56 34 166 156 36 166 156 36 204 191 50 207 194 49 188 176 42 183 171 41 196 184 46 194 182 46 158 148 34 165 154 35 189 177 43 196 184 46 183 171 41 183 171 41 196 184 46 194 182 46 0 0 0 0 0 0 164 164 164 104 104 104 245 204 45 0 0 0 0 0 0 40 0 0 75 0 0 0 0 0 0 0 0 245 204 45 104 104 104 164 164 164 0 0 0 0 0 0 235 235 235 0 0 0 254 254 254 217 217 217 0 0 0 0 0 0 235 235 235 235 235 235 0 0 0 235 235 235 235 235 235 254 254 254 254 254 254 254 254 254 254 254 254 0 0 0 235 235 235 0 0 0 254 254 254 217 217 217 0 0 0 0 0 0 235 235 235 217 217 217 254 254 254 0 0 0 235 235 235 0 0 0 254 254 254 0 0 0 254 254 254 0 0 0 107 0 0 162 43 41 88 23 22 88 23 22 88 23 22 88 23 22 88 23 22 88 23 22 88 23 22 88 23 22 88 23 22 88 23 22 88 23 22 88 23 22 162 43 41 107 0 0 8 8 12 8 8 12 16 16 16 8 8 12 8 8 12 16 16 16 8 8 12 16 16 16 16 16 16 8 8 12 8 8 12 8 8 12 8 8 12 8 8 12 45 1 51 8 8 12 0 0 0 0 0 0 0 0 0 0 0 0 0 0 0 0 0 0 0 0 0 92 31 10 202 117 42 186 117 50 222 164 102 212 146 76 171 101 39 202 109 34 81 26 9 0 0 0 0 0 0 0 0 0 0 0 0 0 0 0 0 0 0 0 0 0 0 0 0 0 0 0 0 0 0 98 75 30 213 171 97 193 167 111 151 127 75 204 158 78 81 58 19 0 0 0 0 0 0 0 0 0 0 0 0 0 0 0 0 0 0 0 0 0 0 0 0 0 0 0 0 0 0 0 0 0 0 0 0 124 125 55 178 183 89 146 153 67 119 117 53 0 0 0 127 127 127 127 127 127 127 127 127 132 132 132 124 124 124 97 97 97 97 97 97 97 97 97 97 97 97 104 104 104 116 116 116 116 116 116 116 116 116 116 116 116 127 127 127 127 127 127 0 0 0 0 0 0 0 0 0 0 0 0 0 0 0 106 106 106 123 123 123 112 112 112 110 110 110 109 109 109 116 116 116 0 0 0 0 0 0 0 0 0 0 0 0 0 0 0 0 0 0 0 0 0 0 0 0 0 0 0 0 0 0 0 0 0 0 0 0 0 0 0 0 0 0 0 0 0 0 0 0 0 0 0 0 0 0 0 0 0 0 0 0 0 0 0 0 0 0 0 0 0 0 0 0 0 0 0 47 87 84 64 104 82 
153 198 147 27 43 16 27 43 16 130 186 116 64 104 82 47 87 84 0 0 0 0 0 0 0 0 0 0 0 0 217 226 162 223 230 166 222 230 166 249 249 197 250 250 208 250 250 208 249 249 197 212 211 148 195 189 137 217 220 158 244 249 189 236 248 180 222 230 166 249 249 197 244 249 189 232 247 181 
127 127 127 35 75 159 24 63 185 104 104 104 143 143 143 116 116 116 127 127 127 21 70 194 127 127 127 28 83 168 42 79 140 31 74 167 143 143 143 143 143 143 143 143 143 143 143 143 83 53 33 83 53 33 69 45 27 75 47 29 86 56 34 82 52 32 73 47 29 76 48 30 75 47 29 76 48 30 75 47 29 67 43 27 79 50 31 76 48 30 70 46 28 69 45 27 188 176 42 188 176 42 152 145 32 165 154 35 194 182 46 183 171 41 161 151 35 170 159 36 165 154 35 171 160 37 165 154 35 149 139 31 176 165 40 171 160 37 154 144 32 152 145 32 0 0 0 0 0 0 164 164 164 104 104 104 245 204 45 0 0 0 0 0 0 75 0 0 40 0 0 0 0 0 0 0 0 221 184 44 104 104 104 164 164 164 0 0 0 0 0 0 0 0 0 0 0 0 0 0 0 235 235 235 235 235 235 254 254 254 217 217 217 235 235 235 254 254 254 235 235 235 254 254 254 0 0 0 217 217 217 0 0 0 0 0 0 254 254 254 0 0 0 0 0 0 0 0 0 235 235 235 235 235 235 0 0 0 0 0 0 235 235 235 0 0 0 254 254 254 217 217 217 0 0 0 217 217 217 0 0 0 0 0 0 0 0 0 107 0 0 162 43 41 88 23 22 88 23 22 88 23 22 88 23 22 88 23 22 88 23 22 88 23 22 88 23 22 88 23 22 88 23 22 88 23 22 88 23 22 162 43 41 107 0 0 8 8 12 8 8 12 8 8 12 8 8 12 8 8 12 16 16 16 8 8 12 8 8 12 8 8 12 16 16 16 8 8 12 8 8 12 45 1 51 45 1 51 8 8 12 8 8 12 0 0 0 0 0 0 0 0 0 0 0 0 0 0 0 0 0 0 0 0 0 118 57 12 199 118 39 177 108 41 220 160 96 211 143 71 167 97 35 201 110 37 101 41 11 0 0 0 0 0 0 0 0 0 0 0 0 0 0 0 0 0 0 0 0 0 0 0 0 0 0 0 0 0 0 103 81 33 202 160 88 182 150 94 142 118 62 195 149 69 96 72 30 0 0 0 0 0 0 0 0 0 0 0 0 0 0 0 0 0 0 0 0 0 0 0 0 0 0 0 0 0 0 0 0 0 0 0 0 121 118 55 138 145 65 117 120 52 110 105 48 0 0 0 127 127 127 143 143 143 143 143 143 104 104 104 99 99 99 116 116 116 217 255 235 23 221 98 88 88 88 119 119 119 99 99 99 99 99 99 119 119 119 143 143 143 143 143 143 143 143 143 0 0 0 0 0 0 0 0 0 0 0 0 0 0 0 118 118 118 130 130 130 129 129 129 122 122 122 126 126 126 132 132 132 0 0 0 0 0 0 0 0 0 0 0 0 0 0 0 0 0 0 0 0 0 0 0 0 0 0 0 0 0 0 0 0 0 0 0 0 0 0 0 0 0 0 0 0 0 0 0 0 0 0 0 0 0 0 0 0 0 0 0 0 0 0 0 0 0 0 0 0 0 0 0 0 0 0 0 47 87 84 64 104 82 130 186 116 27 43 16 27 43 16 130 186 116 
64 104 82 47 87 84 0 0 0 0 0 0 0 0 0 0 0 0 235 248 182 195 189 137 195 189 137 195 189 137 217 220 158 244 249 189 195 189 137 198 192 140 195 189 137 195 189 137 211 203 147 224 237 173 195 189 137 212 208 148 236 248 180 235 248 182 
127 127 127 116 116 116 116 116 116 116 116 116 116 116 116 116 116 116 116 116 116 24 70 178 28 69 175 27 70 160 27 67 173 42 79 140 116 116 116 27 64 160 43 87 139 127 127 127 75 47 29 76 48 30 76 48 30 85 55 33 64 41 26 67 43 27 76 48 30 82 52 32 73 47 29 82 52 32 92 58 36 92 58 36 78 49 30 83 53 33 92 58 36 91 57 35 165 154 35 171 160 37 170 159 36 193 180 43 142 133 28 147 137 29 171 160 37 183 171 41 161 151 35 183 171 41 207 194 49 207 194 49 175 164 39 188 176 42 207 194 49 203 190 49 0 0 0 129 103 64 164 164 164 104 104 104 245 204 45 84 2 0 135 109 69 142 115 60 142 115 60 164 128 74 75 0 0 245 204 45 104 104 104 164 164 164 129 103 64 0 0 0 0 0 0 0 0 0 0 0 0 0 0 0 0 0 0 254 254 254 217 217 217 254 254 254 0 0 0 217 217 217 254 254 254 0 0 0 0 0 0 0 0 0 0 0 0 0 0 0 0 0 0 0 0 0 0 0 0 0 0 0 0 0 0 0 0 0 0 0 0 0 0 0 0 0 0 0 0 0 217 217 217 254 254 254 0 0 0 0 0 0 0 0 0 0 0 0 107 0 0 162 43 41 116 30 29 88 23 22 88 23 22 88 23 22 88 23 22 88 23 22 88 23 22 88 23 22 88 23 22 88 23 22 88 23 22 116 30 29 162 43 41 107 0 0 8 8 12 8 8 12 8 8 12 8 8 12 8 8 12 8 8 12 8 8 12 8 8 12 16 16 16 16 16 16 8 8 12 8 8 12 45 1 51 8 8 12 8 8 12 8 8 12 0 0 0 0 0 0 0 0 0 0 0 0 0 0 0 0 0 0 0 0 0 127 65 15 199 118 39 175 103 39 207 136 59 207 132 59 155 88 29 203 104 31 76 29 8 0 0 0 0 0 0 0 0 0 0 0 0 0 0 0 0 0 0 0 0 0 0 0 0 0 0 0 0 0 0 108 87 32 188 147 76 139 116 67 166 134 72 184 141 66 76 52 18 0 0 0 0 0 0 0 0 0 0 0 0 0 0 0 0 0 0 0 0 0 0 0 0 0 0 0 0 0 0 0 0 0 0 0 0 0 0 0 0 0 0 0 0 0 0 0 0 0 0 0 127 127 127 116 116 116 116 116 116 116 116 116 104 104 104 87 87 87 23 221 98 0 123 24 87 87 87 106 106 106 217 255 235 23 221 98 88 88 88 97 97 97 119 119 119 127 127 127 0 0 0 0 0 0 0 0 0 0 0 0 0 0 0 0 0 0 0 0 0 159 132 77 188 152 98 0 0 0 0 0 0 0 0 0 0 0 0 0 0 0 0 0 0 0 0 0 0 0 0 0 0 0 0 0 0 0 0 0 0 0 0 0 0 0 0 0 0 0 0 0 0 0 0 0 0 0 0 0 0 0 0 0 0 0 0 0 0 0 0 0 0 0 0 0 0 0 0 0 0 0 0 0 0 0 0 0 24 53 62 47 87 84 109 165 112 58 89 63 58 89 63 109 165 112 47 87 84 24 53 62 0 0 0 0 0 0 0 0 0 0 0 0 235 248 182 217 220 158 213 213 153 
217 220 158 211 205 149 250 250 208 232 247 181 222 230 166 195 189 137 195 189 137 224 237 173 217 220 158 250 250 208 235 248 182 195 189 137 195 189 137 
127 127 127 127 127 127 143 143 143 116 116 116 25 57 172 143 143 143 143 143 143 116 116 116 25 60 180 27 70 161 36 73 146 143 143 143 143 143 143 29 70 160 51 96 133 127 127 127 86 56 34 86 56 34 83 53 33 83 53 33 92 58 36 86 56 34 83 53 33 82 52 32 86 56 34 85 55 33 76 48 30 80 51 32 82 52 32 79 50 31 70 46 28 79 50 31 194 182 46 196 184 46 188 176 42 188 176 42 207 194 49 196 184 46 188 176 42 183 171 41 196 184 46 193 180 43 171 160 37 180 169 40 183 171 41 176 165 40 156 145 32 178 167 40 0 0 0 82 67 40 164 164 164 104 104 104 245 204 45 40 0 0 76 61 37 91 70 37 100 79 42 100 79 42 40 0 0 221 184 44 104 104 104 164 164 164 82 67 40 0 0 0 0 0 0 0 0 0 0 0 0 0 0 0 0 0 0 0 0 0 0 0 0 217 217 217 254 254 254 0 0 0 254 254 254 0 0 0 0 0 0 0 0 0 0 0 0 0 0 0 0 0 0 0 0 0 0 0 0 0 0 0 0 0 0 0 0 0 0 0 0 0 0 0 0 0 0 0 0 0 0 0 0 0 0 0 0 0 0 0 0 0 0 0 0 0 0 0 107 0 0 162 43 41 162 43 41 88 23 22 88 23 22 88 23 22 88 23 22 88 23 22 88 23 22 88 23 22 88 23 22 88 23 22 88 23 22 162 43 41 162 43 41 107 0 0 8 8 12 16 16 16 16 16 16 8 8 12 8 8 12 8 8 12 45 1 51 8 8 12 16 16 16 8 8 12 8 8 12 8 8 12 8 8 12 8 8 12 8 8 12 8 8 12 0 0 0 0 0 0 0 0 0 0 0 0 0 0 0 0 0 0 0 0 0 127 61 13 194 109 34 165 96 35 206 137 62 185 112 47 157 90 31 184 89 26 69 16 7 0 0 0 0 0 0 0 0 0 0 0 0 0 0 0 0 0 0 0 0 0 0 0 0 0 0 0 0 0 0 88 57 26 119 95 43 96 76 32 108 84 38 85 57 25 88 58 28 0 0 0 0 0 0 0 0 0 0 0 0 0 0 0 0 0 0 0 0 0 0 0 0 0 0 0 0 0 0 0 0 0 0 0 0 0 0 0 0 0 0 0 0 0 0 0 0 0 0 0 127 127 127 127 127 127 143 143 143 116 116 116 116 116 116 119 119 119 99 99 99 97 97 97 87 87 87 97 97 97 23 221 98 0 123 24 99 99 99 217 255 235 23 221 98 106 106 106 0 0 0 0 0 0 0 0 0 0 0 0 0 0 0 0 0 0 0 0 0 115 94 57 180 144 90 0 0 0 0 0 0 0 0 0 0 0 0 0 0 0 0 0 0 0 0 0 0 0 0 0 0 0 0 0 0 0 0 0 0 0 0 0 0 0 0 0 0 0 0 0 0 0 0 0 0 0 0 0 0 0 0 0 0 0 0 0 0 0 0 0 0 0 0 0 0 0 0 0 0 0 0 0 0 0 0 0 24 53 62 24 53 62 80 135 117 67 108 85 67 108 85 80 135 117 24 53 62 24 53 62 0 0 0 0 0 0 0 0 0 0 0 0 249 249 197 244 249 189 212 211 148 217 220 158 250 250 208 235 248 182 
235 248 182 232 247 181 249 249 197 217 220 158 217 220 158 250 250 208 235 248 182 195 189 137 195 189 137 217 220 158 
104 104 104 127 127 127 30 73 153 18 38 155 17 41 150 127 127 127 127 127 127 127 127 127 143 143 143 143 143 143 127 127 127 127 127 127 127 127 127 34 74 144 49 95 139 104 104 104 70 46 28 73 47 29 82 52 32 82 52 32 75 47 29 76 48 30 83 53 33 83 53 33 72 46 28 73 47 29 75 47 29 82 52 32 66 42 26 66 42 26 76 48 30 82 52 32 156 145 32 161 151 35 183 171 41 183 171 41 166 156 36 170 159 36 189 177 43 188 176 42 158 148 34 161 151 35 165 154 35 183 171 41 143 134 29 143 134 29 170 159 36 183 171 41 0 0 0 0 0 0 164 164 164 104 104 104 221 184 44 0 0 0 0 0 0 75 0 0 40 0 0 0 0 0 0 0 0 221 184 44 104 104 104 164 164 164 0 0 0 0 0 0 0 0 0 0 0 0 0 0 0 0 0 0 0 0 0 0 0 0 254 254 254 0 0 0 0 0 0 254 254 254 0 0 0 0 0 0 0 0 0 0 0 0 0 0 0 0 0 0 0 0 0 0 0 0 0 0 0 0 0 0 0 0 0 0 0 0 0 0 0 0 0 0 0 0 0 0 0 0 0 0 0 0 0 0 0 0 0 0 0 0 0 0 0 0 0 0 107 0 0 127 7 9 127 7 9 116 30 29 88 23 22 88 23 22 88 23 22 88 23 22 88 23 22 88 23 22 88 23 22 88 23 22 116 30 29 127 7 9 127 7 9 107 0 0 8 8 12 16 16 16 45 1 51 8 8 12 16 16 16 8 8 12 45 1 51 8 8 12 16 16 16 8 8 12 16 16 16 8 8 12 8 8 12 8 8 12 16 16 16 16 16 16 0 0 0 0 0 0 0 0 0 0 0 0 0 0 0 0 0 0 0 0 0 110 44 12 179 92 29 126 69 18 194 120 54 194 123 54 118 62 12 185 79 21 71 13 7 0 0 0 0 0 0 0 0 0 0 0 0 0 0 0 0 0 0 0 0 0 0 0 0 0 0 0 0 0 0 0 0 0 0 0 0 0 0 0 0 0 0 0 0 0 0 0 0 0 0 0 0 0 0 0 0 0 0 0 0 0 0 0 0 0 0 0 0 0 0 0 0 0 0 0 0 0 0 0 0 0 0 0 0 0 0 0 0 0 0 0 0 0 0 0 0 0 0 0 104 104 104 127 127 127 127 127 127 136 136 136 132 132 132 102 102 102 127 127 127 217 255 235 23 221 98 143 143 143 106 106 106 106 106 106 106 106 106 23 221 98 0 123 24 87 87 87 0 0 0 0 0 0 0 0 0 0 0 0 0 0 0 0 0 0 0 0 0 180 144 90 159 132 77 0 0 0 0 0 0 0 0 0 0 0 0 0 0 0 0 0 0 0 0 0 0 0 0 0 0 0 0 0 0 0 0 0 0 0 0 0 0 0 0 0 0 0 0 0 0 0 0 0 0 0 0 0 0 0 0 0 0 0 0 0 0 0 0 0 0 0 0 0 0 0 0 0 0 0 0 0 0 0 0 0 11 34 42 24 53 62 24 53 62 47 87 84 47 87 84 24 53 62 24 53 62 11 34 42 0 0 0 0 0 0 0 0 0 0 0 0 249 249 197 235 248 182 249 249 197 249 249 197 235 248 182 195 189 137 195 189 137 217 220 158 222 230 166 
249 250 198 235 248 182 235 248 182 195 189 137 213 213 153 207 201 147 217 220 158 
127 127 127 116 116 116 116 116 116 116 116 116 116 116 116 21 44 163 116 116 116 116 116 116 16 44 181 28 64 169 27 74 161 116 116 116 116 116 116 36 76 140 34 66 139 127 127 127 76 48 30 75 47 29 64 41 26 67 43 27 86 56 34 89 57 35 69 45 27 64 41 26 79 50 31 83 53 33 80 51 32 83 53 33 92 58 36 92 58 36 82 52 32 67 43 27 170 159 36 166 156 36 142 133 28 147 137 29 194 182 46 200 188 48 152 145 32 139 129 27 176 165 40 189 177 43 180 169 40 188 176 42 207 194 49 207 194 49 183 171 41 149 139 31 0 0 0 0 0 0 164 164 164 104 104 104 221 184 44 0 0 0 0 0 0 40 0 0 40 0 0 0 0 0 0 0 0 201 144 31 104 104 104 164 164 164 0 0 0 0 0 0 0 0 0 0 0 0 0 0 0 0 0 0 0 0 0 0 0 0 0 0 0 217 217 217 254 254 254 0 0 0 0 0 0 0 0 0 0 0 0 0 0 0 0 0 0 0 0 0 0 0 0 0 0 0 0 0 0 0 0 0 0 0 0 0 0 0 0 0 0 0 0 0 0 0 0 0 0 0 0 0 0 0 0 0 0 0 0 0 0 0 0 0 0 0 0 0 44 205 177 74 237 209 74 237 209 127 7 9 116 30 29 88 23 22 88 23 22 88 23 22 88 23 22 88 23 22 88 23 22 116 30 29 127 7 9 74 237 209 74 237 209 44 205 177 16 16 16 16 16 16 45 1 51 8 8 12 16 16 16 8 8 12 8 8 12 8 8 12 8 8 12 16 16 16 16 16 16 8 8 12 8 8 12 8 8 12 8 8 12 16 16 16 0 0 0 0 0 0 0 0 0 0 0 0 0 0 0 0 0 0 0 0 0 89 21 9 134 51 14 112 52 12 160 82 24 110 58 12 103 46 11 78 20 8 69 12 7 0 0 0 0 0 0 0 0 0 0 0 0 0 0 0 0 0 0 0 0 0 0 0 0 0 0 0 0 0 0 0 0 0 0 0 0 0 0 0 0 0 0 0 0 0 0 0 0 0 0 0 0 0 0 0 0 0 0 0 0 0 0 0 0 0 0 0 0 0 0 0 0 0 0 0 0 0 0 0 0 0 0 0 0 0 0 0 0 0 0 0 0 0 0 0 0 0 0 0 127 127 127 97 97 97 97 97 97 116 116 116 98 98 98 132 132 132 132 132 132 95 173 125 0 123 24 95 95 95 98 98 98 98 98 98 116 116 116 97 97 97 97 97 97 127 127 127 0 0 0 0 0 0 0 0 0 0 0 0 0 0 0 0 0 0 0 0 0 188 152 98 115 94 57 0 0 0 0 0 0 0 0 0 0 0 0 0 0 0 0 0 0 0 0 0 0 0 0 0 0 0 0 0 0 0 0 0 0 0 0 0 0 0 0 0 0 0 0 0 0 0 0 0 0 0 0 0 0 0 0 0 0 0 0 0 0 0 0 0 0 0 0 0 0 0 0 0 0 0 0 0 0 0 0 0 0 0 0 0 0 0 0 0 0 0 0 0 0 0 0 0 0 0 0 0 0 0 0 0 0 0 0 0 0 0 0 0 0 0 0 0 235 248 182 195 189 137 198 192 140 198 192 140 249 249 197 217 222 158 195 189 137 211 205 149 195 189 137 195 189 137 235 248 182 235 248 182 
195 189 137 215 215 153 215 215 153 249 249 197 
127 127 127 143 143 143 116 116 116 143 143 143 21 46 173 20 46 175 27 74 161 116 116 116 21 42 183 21 53 146 34 68 140 116 116 116 127 127 127 127 127 127 143 143 143 143 143 143 83 53 33 82 52 32 89 57 35 92 58 36 86 56 34 83 53 33 80 51 32 76 48 30 64 41 26 78 49 30 83 53 33 86 56 34 78 49 30 78 49 30 86 56 34 91 57 35 188 176 42 183 171 41 200 188 48 207 194 49 194 182 46 188 176 42 180 169 40 171 160 37 142 133 28 175 164 39 188 176 42 196 184 46 172 161 38 175 164 39 196 184 46 204 191 50 0 0 0 129 103 64 164 164 164 104 104 104 201 144 31 75 0 0 135 109 69 172 136 82 172 136 82 142 115 60 75 0 0 221 184 44 104 104 104 164 164 164 129 103 64 0 0 0 0 0 0 0 0 0 0 0 0 0 0 0 0 0 0 0 0 0 217 217 217 0 0 0 254 254 254 0 0 0 0 0 0 0 0 0 0 0 0 0 0 0 0 0 0 0 0 0 0 0 0 0 0 0 0 0 0 0 0 0 0 0 0 0 0 0 0 0 0 0 0 0 0 0 0 0 0 0 0 0 0 0 0 0 0 0 0 0 0 0 0 0 0 0 0 0 32 149 129 162 246 231 162 246 231 74 237 209 127 7 9 162 43 41 116 30 29 88 23 22 88 23 22 116 30 29 162 43 41 127 7 9 74 237 209 162 246 231 162 246 231 32 149 129 16 16 16 16 16 16 45 1 51 8 8 12 16 16 16 8 8 12 8 8 12 16 16 16 8 8 12 8 8 12 8 8 12 8 8 12 8 8 12 8 8 12 16 16 16 8 8 12 0 0 0 0 0 0 0 0 0 0 0 0 0 0 0 0 0 0 0 0 0 0 0 0 0 0 0 0 0 0 0 0 0 0 0 0 0 0 0 0 0 0 0 0 0 0 0 0 0 0 0 0 0 0 0 0 0 0 0 0 0 0 0 0 0 0 0 0 0 0 0 0 0 0 0 0 0 0 0 0 0 0 0 0 0 0 0 0 0 0 0 0 0 0 0 0 0 0 0 0 0 0 0 0 0 0 0 0 0 0 0 0 0 0 0 0 0 0 0 0 0 0 0 0 0 0 0 0 0 0 0 0 0 0 0 0 0 0 0 0 0 0 0 0 106 106 106 217 255 235 23 221 98 99 99 99 119 119 119 119 119 119 127 127 127 116 116 116 91 91 91 116 116 116 104 104 104 116 116 116 127 127 127 127 127 127 143 143 143 143 143 143 0 0 0 0 0 0 0 0 0 0 0 0 0 0 0 0 0 0 0 0 0 159 132 77 188 152 98 0 0 0 0 0 0 0 0 0 0 0 0 0 0 0 0 0 0 0 0 0 0 0 0 0 0 0 0 0 0 0 0 0 0 0 0 0 0 0 0 0 0 0 0 0 0 0 0 0 0 0 0 0 0 0 0 0 0 0 0 0 0 0 0 0 0 0 0 0 0 0 0 0 0 0 0 0 0 0 0 0 0 0 0 0 0 0 0 0 0 0 0 0 0 0 0 0 0 0 0 0 0 0 0 0 0 0 0 0 0 0 0 0 0 0 0 0 195 189 137 195 189 137 211 205 149 213 213 153 232 247 181 235 248 182 250 250 208 232 247 181 222 230 166 215 215 153 
217 222 158 235 248 182 217 222 158 212 211 148 217 220 158 249 249 197 
127 127 127 127 127 127 127 127 127 116 116 116 37 77 141 37 77 141 37 77 141 116 116 116 127 127 127 127 127 127 143 143 143 143 143 143 127 127 127 116 116 116 116 116 116 127 127 127 89 57 35 88 56 34 79 50 31 76 48 30 86 56 34 80 51 32 82 52 32 83 53 33 92 58 36 85 55 33 75 47 29 75 47 29 80 51 32 83 53 33 76 48 30 72 46 28 200 188 48 199 187 47 178 167 40 171 160 37 196 184 46 180 169 40 183 171 41 189 177 43 207 194 49 193 180 43 165 154 35 165 154 35 180 169 40 188 176 42 170 159 36 158 148 34 0 0 0 82 67 40 164 164 164 104 104 104 201 144 31 40 0 0 76 61 37 109 83 47 100 79 42 100 79 42 40 0 0 221 184 44 104 104 104 164 164 164 82 67 40 0 0 0 0 0 0 0 0 0 0 0 0 0 0 0 0 0 0 0 0 0 0 0 0 0 0 0 254 254 254 0 0 0 0 0 0 0 0 0 0 0 0 0 0 0 0 0 0 0 0 0 0 0 0 0 0 0 0 0 0 0 0 0 0 0 0 0 0 0 0 0 0 0 0 0 0 0 0 0 0 0 0 0 0 0 0 0 0 0 0 0 0 0 0 0 0 0 0 0 32 149 129 255 255 255 162 246 231 74 237 209 127 7 9 162 43 41 162 43 41 162 43 41 162 43 41 162 43 41 162 43 41 127 7 9 74 237 209 162 246 231 255 255 255 32 149 129 8 8 12 16 16 16 8 8 12 8 8 12 8 8 12 8 8 12 16 16 16 16 16 16 8 8 12 8 8 12 45 1 51 16 16 16 8 8 12 8 8 12 8 8 12 8 8 12 0 0 0 0 0 0 0 0 0 0 0 0 0 0 0 0 0 0 0 0 0 0 0 0 0 0 0 0 0 0 0 0 0 0 0 0 0 0 0 0 0 0 0 0 0 0 0 0 0 0 0 0 0 0 0 0 0 0 0 0 0 0 0 0 0 0 0 0 0 0 0 0 0 0 0 0 0 0 0 0 0 0 0 0 0 0 0 0 0 0 0 0 0 0 0 0 0 0 0 0 0 0 0 0 0 0 0 0 0 0 0 0 0 0 0 0 0 0 0 0 0 0 0 0 0 0 0 0 0 0 0 0 0 0 0 0 0 0 0 0 0 0 0 0 106 106 106 23 221 98 0 123 24 81 81 81 116 116 116 116 116 116 116 116 116 116 116 116 127 127 127 127 127 127 143 143 143 143 143 143 127 127 127 116 116 116 116 116 116 127 127 127 0 0 0 0 0 0 0 0 0 0 0 0 0 0 0 0 0 0 0 0 0 180 144 90 180 144 90 0 0 0 0 0 0 0 0 0 0 0 0 0 0 0 0 0 0 0 0 0 0 0 0 0 0 0 0 0 0 0 0 0 0 0 0 0 0 0 0 0 0 0 0 0 0 0 0 0 0 0 0 0 0 0 0 0 0 0 0 0 0 0 0 0 0 0 0 0 0 0 0 0 0 0 0 0 0 0 0 0 0 0 0 0 0 0 0 0 0 0 0 0 0 0 0 0 0 0 0 0 0 0 0 0 0 0 0 0 0 0 0 0 0 0 0 0 232 247 181 212 208 148 195 189 137 217 220 158 222 230 166 217 220 158 217 222 158 244 249 189 242 248 188 244 249 189 
217 220 158 235 248 182 224 237 173 249 249 197 249 249 197 236 248 180 
116 116 116 116 116 116 116 116 116 116 116 116 104 104 104 143 143 143 143 143 143 127 127 127 127 127 127 127 127 127 127 127 127 116 116 116 116 116 116 116 116 116 127 127 127 127 127 127 69 45 27 73 47 29 86 56 34 80 51 32 72 46 28 76 48 30 86 56 34 89 57 35 78 49 30 75 47 29 82 52 32 86 56 34 72 46 28 73 47 29 85 55 33 86 56 34 151 141 31 161 151 35 194 182 46 180 169 40 158 148 34 170 159 36 196 184 46 200 188 48 172 161 38 166 156 36 183 171 41 194 182 46 158 148 34 161 151 35 193 180 43 196 184 46 0 0 0 0 0 0 164 164 164 104 104 104 201 144 31 0 0 0 0 0 0 0 0 0 0 0 0 0 0 0 0 0 0 201 144 31 104 104 104 164 164 164 0 0 0 0 0 0 0 0 0 0 0 0 0 0 0 0 0 0 0 0 0 0 0 0 0 0 0 254 254 254 0 0 0 0 0 0 0 0 0 0 0 0 0 0 0 0 0 0 0 0 0 0 0 0 0 0 0 0 0 0 0 0 0 0 0 0 0 0 0 0 0 0 0 0 0 0 0 0 0 0 0 0 0 0 0 0 0 0 0 0 0 0 0 0 0 0 0 0 0 0 0 0 27 123 107 32 149 129 32 149 129 44 205 177 107 0 0 107 0 0 107 0 0 107 0 0 107 0 0 107 0 0 107 0 0 107 0 0 44 205 177 32 149 129 32 149 129 27 123 107 16 16 16 16 16 16 8 8 12 16 16 16 16 16 16 16 16 16 16 16 16 8 8 12 8 8 12 8 8 12 16 16 16 16 16 16 8 8 12 8 8 12 8 8 12 8 8 12 0 0 0 0 0 0 0 0 0 0 0 0 0 0 0 0 0 0 0 0 0 0 0 0 0 0 0 0 0 0 0 0 0 0 0 0 0 0 0 0 0 0 0 0 0 0 0 0 0 0 0 0 0 0 0 0 0 0 0 0 0 0 0 0 0 0 0 0 0 0 0 0 0 0 0 0 0 0 0 0 0 0 0 0 0 0 0 0 0 0 0 0 0 0 0 0 0 0 0 0 0 0 0 0 0 0 0 0 0 0 0 0 0 0 0 0 0 0 0 0 0 0 0 0 0 0 0 0 0 0 0 0 0 0 0 0 0 0 0 0 0 0 0 0 116 116 116 97 97 97 97 97 97 116 116 116 104 104 104 143 143 143 143 143 143 127 127 127 127 127 127 127 127 127 127 127 127 116 116 116 116 116 116 116 116 116 127 127 127 127 127 127 0 0 0 0 0 0 0 0 0 0 0 0 0 0 0 0 0 0 0 0 0 188 152 98 159 132 77 0 0 0 0 0 0 0 0 0 0 0 0 0 0 0 0 0 0 0 0 0 0 0 0 0 0 0 0 0 0 0 0 0 0 0 0 0 0 0 0 0 0 0 0 0 0 0 0 0 0 0 0 0 0 0 0 0 0 0 0 0 0 0 0 0 0 0 0 0 0 0 0 0 0 0 0 0 0 0 0 0 0 0 0 0 0 0 0 0 0 0 0 0 0 0 0 0 0 0 0 0 0 0 0 0 0 0 0 0 0 0 0 0 0 0 0 0 213 213 153 249 249 197 223 230 166 213 213 153 217 220 158 249 249 197 232 247 181 195 189 137 217 220 158 217 220 158 250 250 208 232 247 181 
195 189 137 195 189 137 235 248 182 217 220 158 
228 219 168 226 218 164 215 206 156 216 208 157 225 216 165 219 210 161 213 204 154 210 203 148 221 214 162 221 213 163 215 207 155 223 215 162 225 216 160 215 208 159 227 220 166 233 225 174 43 51 129 44 55 134 40 50 126 42 50 128 45 56 141 49 61 149 43 51 129 43 53 133 48 59 146 48 60 148 40 47 120 42 52 126 47 58 143 47 58 143 42 52 126 41 49 123 88 123 194 95 129 197 82 118 192 86 122 194 105 137 201 120 148 206 89 124 195 93 127 197 114 144 204 117 146 205 73 111 189 85 121 193 109 140 203 109 140 203 85 121 193 77 115 191 0 0 0 0 0 0 164 164 164 104 104 104 201 128 27 0 0 0 0 0 0 0 0 0 0 0 0 0 0 0 0 0 0 201 136 29 104 104 104 164 164 164 0 0 0 0 0 0 0 0 0 0 0 0 0 0 0 0 0 0 0 0 0 0 0 0 0 0 0 0 0 0 0 0 0 0 0 0 0 0 0 0 0 0 0 0 0 0 0 0 0 0 0 0 0 0 0 0 0 0 0 0 0 0 0 0 0 0 0 0 0 0 0 0 0 0 0 0 0 0 0 0 0 0 0 0 0 0 0 0 0 0 0 0 0 0 0 0 0 0 0 0 0 0 0 0 0 0 0 0 0 0 0 0 0 0 0 0 0 0 0 0 0 0 0 0 0 0 0 0 0 0 0 0 0 0 0 0 0 0 0 0 0 0 0 0 0 0 0 0 0 0 8 8 12 8 8 12 8 8 12 8 8 12 8 8 12 8 8 12 8 8 12 8 8 12 8 8 12 8 8 12 16 16 16 8 8 12 8 8 12 8 8 12 8 8 12 8 8 12 199 126 79 199 126 79 154 99 63 128 84 54 207 166 139 128 84 54 188 119 74 199 126 79 199 126 79 199 126 79 154 99 63 128 84 54 207 166 139 128 84 54 188 119 74 199 126 79 41 36 34 49 44 40 49 44 40 49 44 40 49 44 40 53 47 43 53 47 43 52 46 42 49 44 40 53 47 43 53 47 43 53 47 43 53 47 43 53 47 43 53 47 43 39 34 32 0 0 0 0 0 0 0 0 0 0 0 0 0 0 0 0 0 0 0 0 0 0 0 0 0 0 0 0 0 0 0 0 0 0 0 0 0 0 0 0 0 0 0 0 0 0 0 0 135 135 135 128 128 128 128 128 128 128 128 128 128 128 128 135 135 135 146 146 146 146 146 146 120 120 120 146 146 146 135 135 135 128 128 128 128 128 128 128 128 128 128 128 128 135 135 135 135 135 135 128 128 128 128 128 128 128 128 128 128 128 128 135 135 135 146 146 146 146 146 146 120 120 120 146 146 146 135 135 135 128 128 128 128 128 128 128 128 128 128 128 128 135 135 135 107 63 127 107 63 127 107 63 127 107 63 127 107 63 127 107 63 127 107 63 127 107 63 127 107 63 127 107 63 127 107 63 127 107 63 127 107 63 127 107 63 127 107 63 127 107 63 127 
107 63 127 107 63 127 107 63 127 107 63 127 107 63 127 107 63 127 107 63 127 107 63 127 107 63 127 107 63 127 107 63 127 107 63 127 107 63 127 107 63 127 107 63 127 107 63 127 215 199 186 215 199 186 64 25 25 154 83 83 194 134 105 115 60 60 82 40 40 78 39 39 78 39 39 131 13 13 194 115 115 166 89 89 116 61 61 78 39 39 216 200 190 171 150 138 
222 213 166 220 210 165 224 214 167 221 211 162 214 204 157 207 197 152 207 199 150 206 199 147 218 212 154 216 209 156 213 206 154 227 218 163 221 215 157 230 224 170 230 224 171 232 224 175 46 55 142 48 59 146 52 65 162 54 64 164 50 60 152 48 60 148 45 56 137 45 56 137 42 50 128 41 49 123 43 53 133 45 56 137 37 46 115 41 51 125 44 55 134 45 56 139 108 139 202 114 144 204 138 162 212 142 166 214 124 152 208 117 146 205 101 133 199 100 132 198 86 122 194 77 115 191 93 127 197 100 132 198 66 104 182 79 116 191 95 129 197 102 134 200 0 0 0 129 103 64 164 164 164 104 104 104 201 136 29 212 1 2 137 70 40 164 128 74 181 103 62 153 82 52 212 1 2 201 136 29 104 104 104 164 164 164 129 103 64 0 0 0 0 0 0 0 0 0 0 0 0 0 0 0 0 0 0 0 0 0 0 0 0 0 0 0 0 0 0 0 0 0 0 0 0 0 0 0 0 0 0 0 0 0 0 0 0 0 0 0 0 0 0 0 0 0 0 0 0 0 0 0 0 0 0 0 0 0 0 0 0 0 0 0 0 0 0 0 0 0 0 0 0 0 0 0 0 0 0 0 0 0 0 0 0 0 0 0 0 0 0 0 0 0 0 0 0 0 0 0 0 0 0 0 0 0 0 0 0 0 0 0 0 0 0 0 0 0 0 0 0 0 0 0 0 0 0 0 0 0 0 0 0 0 0 0 8 8 12 17 17 23 9 9 14 9 9 14 10 10 15 16 16 16 15 15 29 16 16 24 8 8 13 54 42 80 16 16 24 16 16 24 16 16 29 8 8 12 60 48 86 8 8 12 199 126 79 154 99 63 128 84 54 207 166 139 207 166 139 207 166 139 128 84 54 188 119 74 199 126 79 154 99 63 128 84 54 207 166 139 207 166 139 207 166 139 128 84 54 188 119 74 53 47 43 123 69 42 129 71 44 126 70 43 129 71 44 129 71 44 115 64 40 115 64 40 115 64 40 115 64 40 115 64 40 129 71 44 115 64 40 129 71 44 123 69 42 49 44 40 0 0 0 0 0 0 0 0 0 0 0 0 0 0 0 0 0 0 0 0 0 0 0 0 0 0 0 0 0 0 0 0 0 0 0 0 0 0 0 0 0 0 0 0 0 0 0 0 135 135 135 168 168 168 176 176 176 176 176 176 176 176 176 176 176 176 176 176 176 176 176 176 163 163 163 176 176 176 176 176 176 176 176 176 157 157 157 168 168 168 168 168 168 128 128 128 135 135 135 168 168 168 176 176 176 176 176 176 176 176 176 176 176 176 176 176 176 176 176 176 163 163 163 176 176 176 176 176 176 176 176 176 157 157 157 168 168 168 168 168 168 128 128 128 107 63 127 214 127 255 214 127 255 214 127 255 214 127 255 214 127 255 214 127 255 214 127 255 214 127 255 
214 127 255 214 127 255 214 127 255 214 127 255 214 127 255 214 127 255 214 127 255 107 63 127 214 127 255 214 127 255 214 127 255 214 127 255 214 127 255 214 127 255 214 127 255 214 127 255 214 127 255 214 127 255 214 127 255 214 127 255 214 127 255 214 127 255 214 127 255 175 136 120 68 42 40 69 7 7 136 79 79 29 10 10 78 39 39 194 115 115 131 13 13 143 117 110 200 177 165 57 32 32 90 6 6 104 8 8 109 47 35 193 172 164 219 205 195 
219 212 163 214 204 157 222 214 163 217 208 158 207 200 151 206 199 152 206 197 147 208 201 148 214 206 149 215 209 152 212 206 150 228 222 165 229 223 170 223 217 164 225 218 163 228 220 169 50 60 152 50 62 154 45 56 137 45 56 139 51 64 159 50 62 154 47 58 143 45 56 137 48 60 148 50 62 154 48 60 148 48 60 148 51 64 159 52 65 162 48 60 148 48 59 146 124 152 208 126 153 208 100 132 198 104 135 200 131 158 211 126 153 208 109 140 203 100 132 198 117 146 205 126 153 208 117 146 205 117 146 205 133 159 211 138 162 212 117 146 205 114 144 204 0 0 0 82 67 40 164 164 164 104 104 104 220 174 41 171 3 1 113 50 30 100 79 42 100 79 42 76 61 37 171 3 1 220 174 41 104 104 104 164 164 164 82 67 40 0 0 0 0 0 0 0 0 0 0 0 0 0 0 0 0 0 0 0 0 0 0 0 0 0 0 0 0 0 0 0 0 0 0 0 0 0 0 0 0 0 0 0 0 0 0 0 0 0 0 0 0 0 0 0 0 0 0 0 0 0 0 0 0 0 0 0 0 0 0 0 0 0 0 0 0 0 0 0 0 0 0 0 0 0 0 0 0 0 0 0 0 0 0 0 0 0 0 0 0 0 0 0 0 0 0 0 0 0 0 0 0 0 0 0 0 0 0 0 0 0 0 0 0 0 0 0 0 0 0 0 0 0 0 0 0 0 0 0 0 0 0 0 0 0 0 0 8 8 12 9 9 15 58 46 84 60 48 86 60 48 86 14 14 22 14 14 21 9 9 14 60 48 86 30 24 43 18 18 27 13 13 21 8 8 12 60 48 86 30 24 43 8 8 12 154 99 63 128 84 54 207 166 139 207 166 139 207 166 139 207 166 139 207 166 139 128 84 54 154 99 63 128 84 54 207 166 139 207 166 139 207 166 139 207 166 139 207 166 139 128 84 54 53 47 43 134 73 45 123 69 42 123 69 42 123 69 42 123 69 42 139 77 48 115 64 40 115 64 40 148 81 50 148 81 50 139 77 48 138 76 47 148 81 50 134 73 45 49 44 40 0 0 0 0 0 0 0 0 0 0 0 0 0 0 0 0 0 0 0 0 0 0 0 0 0 0 0 0 0 0 0 0 0 0 0 0 0 0 0 0 0 0 0 0 0 0 0 0 135 135 135 157 157 157 163 163 163 163 163 163 157 157 157 163 163 163 163 163 163 163 163 163 176 176 176 163 163 163 168 168 168 168 168 168 168 168 168 176 176 176 168 168 168 135 135 135 135 135 135 157 157 157 163 163 163 163 163 163 157 157 157 163 163 163 163 163 163 163 163 163 176 176 176 163 163 163 168 168 168 168 168 168 168 168 168 176 176 176 168 168 168 135 135 135 107 63 127 214 127 255 214 127 255 214 127 255 214 127 255 214 127 255 214 127 255 214 127 255 
214 127 255 214 127 255 214 127 255 214 127 255 214 127 255 214 127 255 214 127 255 214 127 255 107 63 127 214 127 255 214 127 255 214 127 255 214 127 255 214 127 255 214 127 255 214 127 255 214 127 255 214 127 255 214 127 255 214 127 255 214 127 255 214 127 255 214 127 255 214 127 255 68 42 40 120 69 69 136 79 79 40 19 19 77 37 37 131 13 13 218 195 182 152 98 92 205 193 179 162 151 140 51 26 26 90 6 6 41 17 17 85 28 28 185 164 156 83 22 22 
224 216 164 218 210 158 218 212 157 218 210 159 212 205 152 216 207 158 217 208 157 224 214 165 213 207 150 216 209 154 208 200 150 220 213 157 228 221 166 220 213 160 221 213 163 212 203 151 46 55 142 44 55 134 49 61 149 50 62 154 45 56 137 44 55 136 45 56 141 50 62 154 43 51 129 45 56 137 50 62 154 50 62 154 46 55 142 44 55 134 54 64 164 50 62 154 108 139 202 95 129 197 120 148 206 126 153 208 100 132 198 98 131 198 105 137 201 126 153 208 89 124 195 101 133 199 126 153 208 126 153 208 108 139 202 95 129 197 142 166 214 126 153 208 0 0 0 0 0 0 164 164 164 104 104 104 220 174 41 0 0 0 0 0 0 212 1 2 160 0 2 0 0 0 0 0 0 220 174 41 104 104 104 164 164 164 0 0 0 0 0 0 0 0 0 0 0 0 0 0 0 0 0 0 0 0 0 0 0 0 0 0 0 0 0 0 0 0 0 0 0 0 0 0 0 0 0 0 0 0 0 0 0 0 0 0 0 0 0 0 0 0 0 0 0 0 0 0 0 0 0 0 0 0 0 0 0 0 0 0 0 0 0 0 0 0 0 0 0 0 0 0 0 0 0 0 0 0 0 0 0 0 0 0 0 0 0 0 0 0 0 0 0 0 0 0 0 0 0 0 0 0 0 0 0 0 0 0 0 0 0 0 0 0 0 0 0 0 0 0 0 0 0 0 0 0 0 0 0 0 0 0 0 0 0 0 8 8 12 9 9 14 30 24 43 33 27 46 14 14 22 16 16 17 16 16 16 70 58 96 30 24 43 30 24 43 15 15 22 16 16 24 8 8 14 15 15 23 16 16 24 8 8 12 128 84 54 207 166 139 207 166 139 183 141 113 183 141 113 183 141 113 183 141 113 181 130 97 128 84 54 183 141 113 183 141 113 183 141 113 183 141 113 183 141 113 207 166 139 204 150 116 51 45 42 125 70 42 136 75 46 122 68 42 122 68 42 136 75 46 136 75 46 136 75 46 136 75 46 136 75 46 136 75 46 122 67 41 122 67 41 136 75 46 126 70 43 52 44 41 0 0 0 0 0 0 0 0 0 0 0 0 0 0 0 0 0 0 0 0 0 0 0 0 0 0 0 0 0 0 0 0 0 0 0 0 0 0 0 0 0 0 0 0 0 0 0 0 135 135 135 176 176 176 168 168 168 168 168 168 168 168 168 157 157 157 168 168 168 176 176 176 168 168 168 168 168 168 163 163 163 163 163 163 163 163 163 163 163 163 163 163 163 135 135 135 135 135 135 176 176 176 168 168 168 168 168 168 168 168 168 157 157 157 168 168 168 176 176 176 168 168 168 168 168 168 163 163 163 163 163 163 163 163 163 163 163 163 163 163 163 135 135 135 107 63 127 214 127 255 214 127 255 214 127 255 214 127 255 214 127 255 214 127 255 214 127 255 214 127 255 214 127 255 
214 127 255 214 127 255 214 127 255 214 127 255 214 127 255 214 127 255 107 63 127 214 127 255 214 127 255 214 127 255 214 127 255 214 127 255 214 127 255 214 127 255 214 127 255 214 127 255 214 127 255 214 127 255 214 127 255 214 127 255 214 127 255 214 127 255 42 14 14 70 38 38 23 9 9 95 54 54 195 146 139 232 226 217 219 204 191 218 202 186 170 155 144 75 36 36 31 13 13 40 20 20 78 39 39 184 109 109 94 20 20 93 52 52 
217 209 156 213 205 150 219 212 156 208 201 149 215 208 152 217 208 156 223 215 165 224 216 164 209 200 150 221 212 159 216 208 157 215 209 158 228 221 166 220 213 161 222 214 163 215 206 156 48 59 146 45 56 139 43 51 129 46 55 142 49 61 149 49 61 149 40 47 120 38 47 116 43 53 133 47 58 143 43 53 133 40 50 126 49 61 149 49 61 149 42 52 126 40 47 120 114 144 204 102 134 200 89 124 195 108 139 202 120 148 206 120 148 206 73 111 189 67 106 185 93 127 197 109 140 203 93 127 197 80 117 192 120 148 206 120 148 206 85 121 193 73 111 189 0 0 0 0 0 0 164 164 164 104 104 104 220 174 41 0 0 0 0 0 0 160 0 2 171 3 1 0 0 0 0 0 0 220 174 41 104 104 104 164 164 164 0 0 0 0 0 0 0 0 0 0 0 0 0 0 0 0 0 0 0 0 0 0 0 0 0 0 0 0 0 0 0 0 0 0 0 0 0 0 0 0 0 0 0 0 0 0 0 0 0 0 0 0 0 0 0 0 0 0 0 0 0 0 0 0 0 0 0 0 0 0 0 0 0 0 0 0 0 0 0 0 0 0 0 0 0 0 0 0 0 0 0 0 0 0 0 0 0 0 0 0 0 0 27 123 107 32 149 129 32 149 129 44 205 177 107 0 0 107 0 0 107 0 0 107 0 0 107 0 0 107 0 0 107 0 0 107 0 0 44 205 177 32 149 129 32 149 129 27 123 107 8 8 12 9 9 11 30 24 43 16 16 25 16 16 20 16 16 20 13 13 20 16 16 24 15 15 15 13 13 20 16 16 27 9 9 18 30 24 43 15 15 26 16 16 25 8 8 12 201 141 102 128 84 54 207 166 139 183 141 113 221 215 210 218 212 207 218 212 207 218 212 207 213 207 202 205 199 194 205 199 194 205 199 194 205 199 194 183 141 113 204 150 116 128 84 54 53 47 43 115 64 40 123 69 42 117 65 40 123 69 42 138 76 46 139 75 45 151 79 46 151 79 46 151 79 46 128 71 43 138 76 47 123 68 42 139 77 48 129 71 44 53 47 43 0 0 0 0 0 0 0 0 0 0 0 0 0 0 0 0 0 0 0 0 0 0 0 0 0 0 0 0 0 0 0 0 0 0 0 0 0 0 0 0 0 0 0 0 0 0 0 0 135 135 135 176 176 176 176 176 176 163 163 163 163 163 163 163 163 163 146 146 146 146 146 146 146 146 146 146 146 146 176 176 176 176 176 176 176 176 176 176 176 176 176 176 176 120 120 120 135 135 135 176 176 176 176 176 176 163 163 163 163 163 163 163 163 163 146 146 146 146 146 146 146 146 146 146 146 146 176 176 176 176 176 176 176 176 176 176 176 176 176 176 176 120 120 120 107 63 127 214 127 255 214 127 255 214 127 255 214 127 255 
214 127 255 214 127 255 214 127 255 214 127 255 214 127 255 214 127 255 214 127 255 214 127 255 214 127 255 214 127 255 214 127 255 107 63 127 214 127 255 214 127 255 214 127 255 214 127 255 214 127 255 214 127 255 214 127 255 214 127 255 214 127 255 214 127 255 214 127 255 214 127 255 214 127 255 214 127 255 214 127 255 225 165 129 194 115 115 103 57 47 86 57 55 232 223 214 215 199 186 209 190 177 33 9 9 61 34 34 58 30 30 180 138 131 192 149 143 34 16 16 170 109 85 126 13 13 95 54 54 
210 202 151 217 209 157 219 211 156 204 197 146 203 196 145 211 204 152 226 219 168 238 229 182 222 213 162 212 203 155 216 206 158 213 205 155 219 210 158 216 208 157 219 210 161 217 208 158 41 51 125 38 48 120 43 53 131 50 62 154 43 51 129 38 47 116 43 51 129 44 55 134 43 51 129 38 47 116 44 55 134 45 56 137 40 49 122 43 53 133 42 50 128 44 55 136 79 116 191 70 109 188 90 125 196 126 153 208 89 124 195 67 106 185 88 123 194 95 129 197 89 124 195 67 106 185 95 129 197 100 132 198 75 112 189 93 127 197 86 122 194 98 131 198 0 0 0 129 103 64 164 164 164 104 104 104 220 174 41 212 1 2 135 109 69 172 136 82 142 115 60 127 60 32 212 1 2 220 174 41 104 104 104 164 164 164 129 103 64 0 0 0 0 0 0 0 0 0 0 0 0 0 0 0 0 0 0 0 0 0 0 0 0 0 0 0 0 0 0 0 0 0 0 0 0 0 0 0 0 0 0 0 0 0 0 0 0 0 0 0 0 0 0 0 0 0 0 0 0 0 0 0 0 0 0 0 0 0 0 0 0 0 0 0 0 0 0 0 0 0 0 0 0 0 0 0 0 0 0 0 0 0 0 0 0 0 0 0 32 149 129 255 255 255 162 246 231 74 237 209 107 0 0 138 21 18 138 21 18 138 21 18 138 21 18 138 21 18 138 21 18 107 0 0 74 237 209 162 246 231 255 255 255 32 149 129 8 8 12 16 16 24 16 16 21 9 9 19 9 9 11 9 9 14 8 8 13 9 9 14 16 16 24 14 14 21 9 9 15 16 16 24 16 16 25 16 16 24 14 14 21 8 8 12 199 126 79 199 126 79 128 84 54 183 141 113 214 208 203 185 180 176 185 180 176 185 180 176 185 180 176 185 180 176 185 180 176 185 180 176 175 170 165 181 130 97 128 84 54 201 141 102 49 44 40 115 64 40 138 76 47 139 77 48 139 77 48 165 86 50 165 86 50 165 86 50 165 86 50 165 86 50 165 86 50 139 77 48 123 69 42 123 69 42 115 64 40 49 44 40 0 0 0 0 0 0 0 0 0 0 0 0 0 0 0 124 69 54 117 65 51 115 64 50 121 67 52 124 69 54 116 64 50 0 0 0 0 0 0 0 0 0 0 0 0 0 0 0 128 128 128 163 163 163 168 168 168 168 168 168 168 168 168 146 146 146 130 130 130 120 120 120 120 120 120 129 129 129 197 197 197 168 168 168 163 163 163 163 163 163 157 157 157 135 135 135 128 128 128 163 163 163 168 168 168 168 168 168 168 168 168 146 146 146 130 130 130 120 120 120 120 120 120 129 129 129 197 197 197 168 168 168 163 163 163 163 163 163 157 157 157 135 135 135 107 63 127 
214 127 255 214 127 255 214 127 255 214 127 255 214 127 255 214 127 255 214 127 255 214 127 255 214 127 255 214 127 255 214 127 255 214 127 255 214 127 255 214 127 255 214 127 255 107 63 127 214 127 255 214 127 255 214 127 255 214 127 255 214 127 255 214 127 255 214 127 255 214 127 255 214 127 255 214 127 255 214 127 255 214 127 255 214 127 255 214 127 255 214 127 255 79 7 7 143 84 84 189 165 154 62 41 40 207 190 170 175 136 120 105 66 63 36 18 18 210 180 170 221 203 190 194 170 159 180 142 136 58 33 27 93 52 52 20 10 10 43 18 18 
213 205 155 220 213 160 220 213 163 212 205 153 219 212 155 210 203 151 213 205 152 231 223 176 219 210 161 216 208 156 227 219 164 217 210 157 214 206 155 220 212 160 220 211 161 220 211 163 52 65 162 52 65 162 50 60 152 49 61 149 45 56 141 45 56 141 45 56 139 47 58 143 50 60 152 52 65 162 48 59 146 45 56 137 54 64 164 54 64 164 48 60 148 47 58 143 138 162 212 141 165 213 124 152 208 120 148 206 105 137 201 105 137 201 102 134 200 109 140 203 124 152 208 141 165 213 114 144 204 101 133 199 142 166 214 142 166 214 117 146 205 109 140 203 0 0 0 82 67 40 164 164 164 104 104 104 243 193 42 171 3 1 76 61 37 120 53 28 100 79 42 120 53 28 171 3 1 243 193 42 104 104 104 164 164 164 82 67 40 0 0 0 0 0 0 0 0 0 0 0 0 0 0 0 0 0 0 0 0 0 0 0 0 0 0 0 0 0 0 0 0 0 0 0 0 0 0 0 0 0 0 0 0 0 0 0 0 0 0 0 0 0 0 0 0 0 0 0 0 0 0 0 0 0 0 0 0 0 0 0 0 0 0 0 0 0 0 0 0 0 0 0 0 0 0 0 0 0 0 0 0 0 0 0 0 0 0 0 32 149 129 162 246 231 162 246 231 74 237 209 8 8 12 107 0 0 138 21 18 138 21 18 138 21 18 138 21 18 107 0 0 8 8 12 74 237 209 162 246 231 162 246 231 32 149 129 8 8 12 17 17 17 17 17 28 16 16 25 60 48 86 60 48 86 60 48 86 60 48 86 15 15 20 9 9 13 60 48 86 14 14 21 8 8 13 9 9 12 8 8 15 8 8 12 199 126 79 199 126 79 199 126 79 128 84 54 214 208 203 185 180 176 168 84 81 185 180 176 162 46 44 185 180 176 98 135 62 185 180 176 167 161 157 128 84 54 201 141 102 199 126 79 53 47 43 134 73 45 148 81 50 139 77 48 175 92 54 175 92 54 162 85 49 162 85 49 167 87 50 167 87 50 167 87 50 175 92 54 148 81 50 148 81 50 134 73 45 53 47 43 0 0 0 0 0 0 0 0 0 0 0 0 0 0 0 101 56 43 0 0 0 0 0 0 0 0 0 0 0 0 123 68 53 0 0 0 0 0 0 0 0 0 0 0 0 0 0 0 120 120 120 128 128 128 168 168 168 168 168 168 168 168 168 146 146 146 146 146 146 153 153 153 157 157 157 163 163 163 205 205 205 168 168 168 176 176 176 176 176 176 120 120 120 120 120 120 120 120 120 128 128 128 168 168 168 168 168 168 168 168 168 146 146 146 146 146 146 153 153 153 157 157 157 163 163 163 205 205 205 168 168 168 176 176 176 176 176 176 120 120 120 120 120 120 107 63 127 214 127 255 214 127 255 
214 127 255 214 127 255 214 127 255 214 127 255 214 127 255 214 127 255 214 127 255 214 127 255 214 127 255 214 127 255 214 127 255 214 127 255 214 127 255 107 63 127 214 127 255 214 127 255 214 127 255 214 127 255 214 127 255 214 127 255 214 127 255 214 127 255 214 127 255 214 127 255 214 127 255 214 127 255 214 127 255 214 127 255 214 127 255 90 6 6 136 79 79 212 197 183 201 185 172 58 29 29 22 9 9 36 18 18 232 226 216 218 206 193 175 136 124 185 138 129 83 47 47 101 52 52 62 29 29 188 158 151 55 8 8 
220 212 160 215 207 156 222 214 162 207 200 149 217 208 159 215 206 158 208 200 149 209 201 148 222 214 165 222 214 161 228 220 165 220 211 160 217 208 157 220 212 162 223 215 164 219 210 160 44 55 134 44 55 134 52 65 162 54 64 164 48 60 148 48 59 146 50 62 154 50 62 154 42 50 128 43 53 133 49 61 149 50 62 154 48 59 146 48 59 146 50 63 156 50 62 154 95 129 197 95 129 197 138 162 212 142 166 214 117 146 205 114 144 204 126 153 208 126 153 208 86 122 194 93 127 197 120 148 206 126 153 208 114 144 204 114 144 204 127 154 209 126 153 208 0 0 0 0 0 0 164 164 164 104 104 104 243 193 42 0 0 0 0 0 0 146 0 2 160 0 2 0 0 0 0 0 0 243 193 42 104 104 104 164 164 164 0 0 0 0 0 0 0 0 0 0 0 0 0 0 0 0 0 0 0 0 0 0 0 0 0 0 0 0 0 0 0 0 0 0 0 0 0 0 0 0 0 0 0 0 0 0 0 0 0 0 0 0 0 0 0 0 0 0 0 0 0 0 0 0 0 0 0 0 0 0 0 0 0 0 0 0 0 0 0 0 0 0 0 0 0 0 0 0 0 0 0 0 0 0 0 0 0 0 0 0 0 0 44 205 177 74 237 209 74 237 209 8 8 12 16 16 24 8 8 12 107 0 0 138 21 18 138 21 18 107 0 0 8 8 12 8 8 12 8 8 12 74 237 209 74 237 209 44 205 177 8 8 12 16 16 24 8 8 8 13 13 20 16 16 24 27 21 40 30 24 43 23 17 36 19 19 28 9 9 11 30 24 43 8 8 12 48 36 74 60 48 86 30 24 43 8 8 12 199 126 79 199 126 79 199 126 79 146 94 60 218 212 207 185 180 176 185 180 176 185 180 176 185 180 176 185 180 176 185 180 176 185 180 176 153 147 143 178 123 87 199 126 79 199 126 79 52 44 41 146 76 45 136 75 46 136 75 46 161 84 48 161 84 48 161 84 48 161 84 48 161 84 48 161 84 48 161 84 48 161 84 48 136 75 46 136 75 46 126 70 43 52 44 41 0 0 0 0 0 0 0 0 0 0 0 0 0 0 0 110 61 47 0 0 0 0 0 0 0 0 0 0 0 0 121 66 52 0 0 0 0 0 0 0 0 0 0 0 0 0 0 0 135 135 135 146 146 146 128 128 128 163 163 163 146 146 146 128 128 128 146 146 146 149 149 149 149 149 149 155 155 155 163 163 163 197 197 197 163 163 163 120 120 120 135 135 135 135 135 135 135 135 135 146 146 146 128 128 128 163 163 163 146 146 146 128 128 128 146 146 146 149 149 149 149 149 149 155 155 155 163 163 163 197 197 197 163 163 163 120 120 120 135 135 135 135 135 135 107 63 127 214 127 255 214 127 255 214 127 255 214 127 255 
214 127 255 214 127 255 214 127 255 214 127 255 214 127 255 214 127 255 214 127 255 214 127 255 214 127 255 214 127 255 214 127 255 107 63 127 214 127 255 214 127 255 214 127 255 214 127 255 214 127 255 214 127 255 214 127 255 214 127 255 214 127 255 214 127 255 214 127 255 214 127 255 214 127 255 214 127 255 214 127 255 115 60 60 136 79 79 168 153 143 55 29 29 159 85 85 207 158 151 231 225 216 229 222 213 153 125 119 64 51 48 36 18 18 125 70 70 52 23 22 216 208 199 196 177 165 88 13 13 
216 210 153 212 204 149 222 213 163 220 211 160 218 209 158 224 215 166 222 214 165 220 211 160 220 211 162 218 211 156 220 213 159 227 218 166 228 222 173 227 220 171 226 217 166 215 209 153 48 60 148 48 60 148 41 51 125 43 53 133 50 62 154 48 59 146 43 51 129 44 55 136 43 53 133 45 56 137 43 53 133 40 49 122 45 56 141 45 56 137 40 50 126 40 50 126 117 146 205 117 146 205 79 116 191 93 127 197 126 153 208 114 144 204 89 124 195 98 131 198 93 127 197 100 132 198 93 127 197 75 112 189 105 137 201 101 133 199 82 118 192 80 117 192 0 0 0 0 0 0 164 164 164 104 104 104 243 193 42 0 0 0 0 0 0 160 0 2 171 3 1 0 0 0 0 0 0 220 174 41 104 104 104 164 164 164 0 0 0 0 0 0 0 0 0 0 0 0 0 0 0 0 0 0 0 0 0 0 0 0 0 0 0 0 0 0 0 0 0 0 0 0 0 0 0 0 0 0 0 0 0 0 0 0 0 0 0 0 0 0 0 0 0 0 0 0 0 0 0 0 0 0 0 0 0 0 0 0 0 0 0 0 0 0 0 0 0 0 0 0 0 0 0 0 0 0 0 0 0 0 0 0 0 0 0 0 0 0 8 8 12 8 8 12 8 8 12 30 24 43 15 15 23 17 17 26 8 8 12 107 0 0 107 0 0 8 8 12 16 16 29 8 8 13 27 21 40 8 8 12 8 8 12 8 8 12 8 8 12 9 9 14 60 48 86 30 24 43 15 15 23 17 17 26 36 30 49 30 24 43 16 16 25 15 15 22 16 16 29 8 8 13 27 21 40 30 24 43 15 15 22 8 8 12 199 126 79 199 126 79 154 99 63 128 84 54 213 207 202 185 180 176 194 135 62 185 180 176 168 84 81 185 180 176 205 58 54 185 180 176 128 121 116 128 84 54 188 119 74 199 126 79 53 47 43 134 73 45 148 81 50 148 81 50 175 92 54 162 85 49 165 86 50 168 88 51 168 88 51 165 86 50 165 86 50 165 86 50 148 81 50 148 81 50 134 73 45 49 44 40 0 0 0 0 0 0 0 0 0 0 0 0 0 0 0 114 63 49 0 0 0 0 0 0 0 0 0 0 0 0 109 60 47 0 0 0 0 0 0 0 0 0 0 0 0 0 0 0 146 146 146 135 135 135 197 197 197 157 157 157 146 146 146 128 128 128 146 146 146 150 150 150 149 149 149 153 153 153 155 155 155 205 205 205 176 176 176 128 128 128 135 135 135 146 146 146 146 146 146 135 135 135 197 197 197 157 157 157 146 146 146 128 128 128 146 146 146 150 150 150 149 149 149 153 153 153 155 155 155 205 205 205 176 176 176 128 128 128 135 135 135 146 146 146 107 63 127 214 127 255 214 127 255 214 127 255 214 127 255 214 127 255 214 127 255 214 127 255 
214 127 255 214 127 255 214 127 255 214 127 255 214 127 255 214 127 255 214 127 255 214 127 255 107 63 127 214 127 255 214 127 255 214 127 255 214 127 255 214 127 255 214 127 255 214 127 255 214 127 255 214 127 255 214 127 255 214 127 255 214 127 255 214 127 255 214 127 255 214 127 255 112 58 58 20 10 10 61 34 34 138 15 15 172 102 95 231 224 214 226 217 206 125 100 88 89 65 62 113 58 58 91 49 49 125 80 78 229 223 214 229 222 212 219 166 160 80 55 45 
209 202 149 211 206 149 210 202 151 214 207 152 221 212 162 226 218 165 219 210 159 205 197 146 225 217 165 214 207 154 215 206 149 220 213 166 228 222 172 222 215 167 219 213 164 218 211 157 43 53 133 45 56 137 44 55 136 50 60 152 39 46 117 40 47 120 45 56 137 48 57 144 43 51 129 48 59 146 54 64 164 54 64 164 45 56 139 48 60 148 54 64 164 52 65 162 93 127 197 101 133 199 98 131 198 124 152 208 67 107 187 73 111 189 101 133 199 113 143 203 89 124 195 114 144 204 142 166 214 142 166 214 104 135 200 117 146 205 142 166 214 138 162 212 0 0 0 129 103 64 164 164 164 104 104 104 243 193 42 212 1 2 153 82 52 142 115 60 142 115 60 175 97 56 212 1 2 243 193 42 104 104 104 164 164 164 129 103 64 0 0 0 0 0 0 0 0 0 0 0 0 0 0 0 0 0 0 0 0 0 0 0 0 0 0 0 0 0 0 0 0 0 0 0 0 0 0 0 0 0 0 0 0 0 0 0 0 0 0 0 0 0 0 0 0 0 0 0 0 0 0 0 0 0 0 0 0 0 0 0 0 0 0 0 0 0 0 0 0 0 0 0 0 0 0 0 0 0 0 0 0 0 0 0 0 0 0 0 8 8 12 16 16 24 16 16 24 16 16 30 16 16 25 16 16 23 16 16 24 8 8 12 8 8 12 13 13 20 15 15 20 7 7 17 30 24 43 14 14 21 16 16 24 8 8 12 8 8 12 16 16 24 16 16 24 16 16 30 16 16 25 16 16 23 16 16 24 34 28 47 15 15 24 13 13 20 15 15 20 7 7 17 30 24 43 14 14 21 16 16 24 8 8 12 199 126 79 154 99 63 128 84 54 183 141 113 213 207 202 185 180 176 185 180 176 185 180 176 185 180 176 185 180 176 185 180 176 185 180 176 128 121 116 183 141 113 128 84 54 188 119 74 49 44 40 115 64 40 123 69 42 123 69 42 154 80 46 175 92 54 161 84 48 161 84 48 161 84 48 161 84 48 161 84 48 162 85 49 148 81 50 123 69 42 115 64 40 49 44 40 0 0 0 0 0 0 0 0 0 0 0 0 0 0 0 120 66 51 0 0 0 0 0 0 0 0 0 0 0 0 106 59 46 0 0 0 0 0 0 0 0 0 0 0 0 0 0 0 197 197 197 197 197 197 163 163 163 146 146 146 128 128 128 163 163 163 149 149 149 149 149 149 149 149 149 150 150 150 157 157 157 157 157 157 205 205 205 163 163 163 197 197 197 197 197 197 197 197 197 197 197 197 163 163 163 146 146 146 128 128 128 163 163 163 149 149 149 149 149 149 149 149 149 150 150 150 157 157 157 157 157 157 205 205 205 163 163 163 197 197 197 197 197 197 107 63 127 214 127 255 214 127 255 214 127 255 
214 127 255 214 127 255 214 127 255 214 127 255 214 127 255 214 127 255 214 127 255 214 127 255 214 127 255 214 127 255 214 127 255 214 127 255 107 63 127 214 127 255 214 127 255 214 127 255 214 127 255 214 127 255 214 127 255 214 127 255 214 127 255 214 127 255 214 127 255 214 127 255 214 127 255 214 127 255 214 127 255 214 127 255 126 66 66 78 39 39 194 115 115 174 103 97 215 201 187 211 199 185 194 169 154 55 36 34 149 92 81 94 41 41 149 105 87 180 146 141 222 214 204 219 185 175 58 7 7 90 6 6 
206 198 145 219 213 155 215 209 153 216 209 154 215 206 155 225 217 168 222 213 165 219 211 158 216 208 156 222 216 159 219 213 155 204 197 142 224 217 167 236 227 179 229 222 169 208 201 148 50 62 154 50 63 156 48 60 148 48 60 148 52 65 162 50 62 154 48 60 148 48 59 146 50 63 156 50 60 152 45 56 137 47 58 143 48 59 146 45 56 141 42 52 126 46 55 142 126 153 208 127 154 209 117 146 205 117 146 205 141 165 213 126 153 208 117 146 205 114 144 204 127 154 209 124 152 208 100 132 198 109 140 203 114 144 204 105 137 201 85 121 193 108 139 202 0 0 0 82 67 40 164 164 164 104 104 104 243 193 42 171 3 1 109 46 28 91 70 37 100 79 42 127 60 32 171 3 1 220 174 41 104 104 104 164 164 164 82 67 40 0 0 0 0 0 0 0 0 0 0 0 0 0 0 0 0 0 0 0 0 0 0 0 0 0 0 0 0 0 0 0 0 0 0 0 0 0 0 0 0 0 0 0 0 0 0 0 0 0 0 0 0 0 0 0 0 0 0 0 0 0 0 0 0 0 0 0 0 0 0 0 0 0 0 0 0 0 0 0 0 0 0 0 0 0 0 0 0 0 0 0 0 0 0 0 0 0 0 0 8 8 12 16 16 24 17 17 26 15 15 23 15 15 22 16 16 24 15 15 26 15 15 28 16 16 24 9 9 14 14 14 22 16 16 35 16 16 24 9 9 18 16 16 24 8 8 12 8 8 12 16 16 24 17 17 26 15 15 23 15 15 22 16 16 24 15 15 26 15 15 28 16 16 24 9 9 14 14 14 22 16 16 35 16 16 24 9 9 18 16 16 24 8 8 12 154 99 63 128 84 54 207 166 139 183 141 113 205 199 194 185 180 176 162 46 44 185 180 176 168 84 81 185 180 176 168 84 81 185 180 176 128 121 116 183 141 113 207 166 139 128 84 54 53 47 43 129 71 44 139 77 48 139 77 48 148 81 50 175 92 54 168 88 51 168 88 51 168 88 51 168 88 51 168 88 51 139 77 48 139 77 48 139 77 48 129 71 44 49 44 40 0 0 0 0 0 0 0 0 0 0 0 0 0 0 0 124 69 54 110 61 48 103 57 45 124 69 54 118 66 50 131 73 57 0 0 0 0 0 0 0 0 0 0 0 0 0 0 0 135 135 135 168 168 168 176 176 176 146 146 146 128 128 128 157 157 157 150 150 150 149 149 149 150 150 150 150 150 150 157 157 157 163 163 163 205 205 205 168 168 168 168 168 168 135 135 135 135 135 135 168 168 168 176 176 176 146 146 146 128 128 128 157 157 157 150 150 150 149 149 149 150 150 150 150 150 150 157 157 157 163 163 163 205 205 205 168 168 168 168 168 168 135 135 135 107 63 127 214 127 255 214 127 255 
214 127 255 214 127 255 214 127 255 214 127 255 214 127 255 214 127 255 214 127 255 214 127 255 214 127 255 214 127 255 214 127 255 214 127 255 214 127 255 107 63 127 214 127 255 214 127 255 214 127 255 214 127 255 214 127 255 214 127 255 214 127 255 214 127 255 214 127 255 214 127 255 214 127 255 214 127 255 214 127 255 214 127 255 214 127 255 78 39 39 123 12 12 168 107 83 214 199 186 180 152 136 71 59 55 43 22 22 115 60 60 62 29 29 190 165 155 70 43 41 141 92 88 175 150 135 51 25 25 114 10 10 120 63 63 
219 210 159 227 218 166 220 212 160 221 213 160 214 206 157 216 207 158 225 215 166 205 199 145 215 207 153 214 207 153 209 203 148 214 206 155 221 212 160 218 210 160 214 207 155 218 212 157 42 52 126 43 51 129 48 57 144 48 57 144 44 55 134 44 55 136 49 61 149 48 60 148 42 50 128 43 51 129 43 53 133 48 59 146 38 48 120 38 48 120 44 55 136 48 59 146 85 121 193 89 124 195 113 143 203 113 143 203 95 129 197 98 131 198 120 148 206 117 146 205 86 122 194 89 124 195 93 127 197 114 144 204 70 109 188 70 109 188 98 131 198 114 144 204 0 0 0 0 0 0 164 164 164 104 104 104 220 174 41 0 0 0 0 0 0 160 0 2 212 1 2 0 0 0 0 0 0 220 174 41 104 104 104 164 164 164 0 0 0 0 0 0 0 0 0 0 0 0 0 0 0 0 0 0 0 0 0 0 0 0 0 0 0 0 0 0 0 0 0 0 0 0 0 0 0 0 0 0 0 0 0 0 0 0 0 0 0 0 0 0 0 0 0 0 0 0 0 0 0 0 0 0 0 0 0 0 0 0 0 0 0 0 0 0 0 0 0 0 0 0 0 0 0 0 0 0 0 0 0 0 0 0 0 0 0 0 0 0 8 8 12 9 9 14 10 10 15 16 16 24 15 15 22 15 15 22 16 16 24 15 15 22 9 9 14 60 48 86 15 15 23 16 16 25 8 8 13 64 52 90 30 24 43 8 8 12 8 8 12 9 9 14 10 10 15 16 16 24 15 15 22 15 15 22 16 16 24 15 15 22 9 9 14 60 48 86 15 15 23 16 16 25 8 8 13 64 52 90 30 24 43 8 8 12 128 84 54 207 166 139 207 166 139 183 141 113 205 199 194 185 180 176 185 180 176 185 180 176 185 180 176 185 180 176 185 180 176 185 180 176 128 121 116 183 141 113 207 166 139 204 150 116 52 44 41 125 70 42 138 76 47 122 68 42 136 75 46 136 75 46 162 85 49 162 85 49 162 85 49 162 85 49 138 76 47 138 76 47 122 67 41 136 75 46 125 70 42 52 44 41 0 0 0 0 0 0 0 0 0 0 0 0 0 0 0 127 70 55 124 69 54 115 63 49 124 69 54 116 63 49 118 65 51 0 0 0 0 0 0 0 0 0 0 0 0 0 0 0 120 120 120 168 168 168 146 146 146 128 128 128 86 6 0 84 2 0 85 0 0 88 1 1 91 0 3 76 0 0 73 1 0 71 1 2 163 163 163 205 205 205 176 176 176 120 120 120 120 120 120 168 168 168 146 146 146 128 128 128 255 0 3 255 0 0 253 1 1 214 0 0 214 0 2 253 3 0 255 2 1 215 3 4 163 163 163 205 205 205 176 176 176 120 120 120 107 63 127 214 127 255 214 127 255 214 127 255 214 127 255 214 127 255 214 127 255 214 127 255 214 127 255 214 127 255 214 127 255 
214 127 255 214 127 255 214 127 255 214 127 255 214 127 255 107 63 127 214 127 255 214 127 255 214 127 255 214 127 255 214 127 255 214 127 255 214 127 255 214 127 255 214 127 255 214 127 255 214 127 255 214 127 255 214 127 255 214 127 255 214 127 255 95 54 54 133 100 93 214 193 180 186 157 142 142 120 107 28 9 9 97 46 46 55 24 24 187 146 139 231 224 214 58 38 36 89 38 38 47 26 26 78 39 39 60 8 8 50 25 25 
221 212 162 223 215 167 219 211 162 219 212 167 219 211 164 222 216 167 221 214 158 210 204 149 202 196 140 212 207 149 210 203 150 205 198 147 209 201 150 218 211 157 224 217 162 216 208 158 44 55 136 44 55 134 39 46 117 40 47 120 50 62 154 51 64 159 40 50 126 38 47 116 45 56 141 49 61 149 47 58 143 48 60 148 54 64 164 54 64 164 48 59 146 40 49 122 98 131 198 95 129 197 67 107 187 73 111 189 126 153 208 131 158 211 80 117 192 67 106 185 105 137 201 120 148 206 109 140 203 117 146 205 142 166 214 142 166 214 114 144 204 75 112 189 0 0 0 0 0 0 164 164 164 104 104 104 220 174 41 0 0 0 0 0 0 171 3 1 146 0 2 0 0 0 0 0 0 201 136 29 104 104 104 164 164 164 0 0 0 0 0 0 0 0 0 0 0 0 0 0 0 0 0 0 0 0 0 0 0 0 0 0 0 0 0 0 0 0 0 0 0 0 0 0 0 0 0 0 0 0 0 0 0 0 0 0 0 0 0 0 0 0 0 0 0 0 0 0 0 0 0 0 0 0 0 0 0 0 0 0 0 0 0 0 0 0 0 0 0 0 0 0 0 0 0 0 0 0 0 0 0 0 0 0 0 0 0 0 8 8 12 60 48 86 58 46 84 33 27 46 15 15 23 15 15 15 17 14 29 14 14 21 9 9 9 58 46 84 30 24 43 16 16 24 16 16 25 16 16 20 15 15 21 8 8 12 8 8 12 60 48 86 58 46 84 33 27 46 15 15 23 15 15 15 17 14 29 14 14 21 9 9 9 58 46 84 30 24 43 16 16 24 16 16 25 16 16 20 15 15 21 8 8 12 201 141 102 128 84 54 207 166 139 183 141 113 205 199 194 175 170 165 167 161 157 153 147 143 128 121 116 128 121 116 128 121 116 128 121 116 128 121 116 183 141 113 204 150 116 128 84 54 53 47 43 134 73 45 148 81 50 126 70 43 126 70 43 123 69 42 115 64 40 123 69 42 123 69 42 123 69 42 123 69 42 117 65 40 123 68 42 138 76 47 134 73 45 53 47 43 0 0 0 0 0 0 0 0 0 0 0 0 0 0 0 124 69 54 115 63 49 124 69 54 109 61 47 124 69 54 118 65 51 0 0 0 0 0 0 0 0 0 0 0 0 0 0 0 135 135 135 163 163 163 146 146 146 128 128 128 88 0 0 73 4 2 42 0 0 44 3 0 40 0 0 42 0 2 42 0 2 38 0 3 163 163 163 197 197 197 163 163 163 135 135 135 135 135 135 163 163 163 146 146 146 128 128 128 251 0 6 212 1 2 171 3 1 214 0 6 177 0 1 219 2 7 177 3 0 177 0 2 163 163 163 197 197 197 163 163 163 135 135 135 107 63 127 214 127 255 214 127 255 214 127 255 214 127 255 214 127 255 214 127 255 214 127 255 214 127 255 214 127 255 
214 127 255 214 127 255 214 127 255 214 127 255 214 127 255 214 127 255 107 63 127 214 127 255 214 127 255 214 127 255 214 127 255 214 127 255 214 127 255 214 127 255 214 127 255 214 127 255 214 127 255 214 127 255 214 127 255 214 127 255 214 127 255 214 127 255 194 115 115 166 89 89 41 17 17 36 18 18 41 17 17 28 9 9 79 35 35 182 149 139 226 216 204 39 24 23 65 13 13 131 45 45 136 79 79 202 184 175 46 23 20 95 54 54 
228 218 168 223 213 164 214 207 158 223 217 168 219 211 163 215 206 164 212 203 153 215 208 152 215 207 153 213 205 153 220 213 159 215 207 159 219 210 161 219 212 164 220 213 159 225 217 166 48 60 148 48 59 146 51 64 159 54 64 164 50 62 154 48 60 148 47 58 143 45 56 137 39 46 117 45 56 139 48 60 148 50 62 154 45 56 139 45 56 139 50 62 154 52 65 162 117 146 205 114 144 204 133 159 211 142 166 214 126 153 208 117 146 205 109 140 203 100 132 198 67 107 187 104 135 200 117 146 205 126 153 208 102 134 200 104 135 200 126 153 208 138 162 212 0 0 0 129 103 64 164 164 164 104 104 104 201 136 29 212 1 2 153 82 52 172 136 82 172 136 82 159 87 45 212 1 2 220 174 41 104 104 104 164 164 164 129 103 64 0 0 0 0 0 0 0 0 0 0 0 0 0 0 0 0 0 0 0 0 0 0 0 0 0 0 0 0 0 0 0 0 0 0 0 0 0 0 0 0 0 0 0 0 0 0 0 0 0 0 0 0 0 0 0 0 0 0 0 0 0 0 0 0 0 0 0 0 0 0 0 0 0 0 0 0 0 0 0 0 0 0 0 0 0 0 0 0 0 0 0 0 0 0 0 0 0 0 0 8 8 12 16 16 24 30 24 43 30 24 43 16 16 31 7 7 11 30 24 43 16 16 24 9 9 14 35 29 48 30 24 43 30 24 43 16 16 25 16 16 26 15 15 26 8 8 12 8 8 12 16 16 24 30 24 43 30 24 43 16 16 31 7 7 11 30 24 43 16 16 24 9 9 14 35 29 48 30 24 43 30 24 43 16 16 25 16 16 26 15 15 26 8 8 12 199 126 79 188 119 74 128 84 54 183 141 113 183 141 113 181 130 97 128 84 54 178 123 87 177 113 71 169 108 67 128 84 54 183 141 113 183 141 113 181 130 97 128 84 54 201 141 102 52 46 42 115 64 40 138 76 47 148 81 50 148 81 50 148 81 50 148 81 50 115 64 40 115 64 40 139 77 48 139 77 48 123 69 42 123 69 42 123 69 42 115 64 40 52 46 42 0 0 0 0 0 0 0 0 0 0 0 0 0 0 0 110 61 48 131 73 57 118 66 50 124 69 54 118 65 51 124 69 54 0 0 0 0 0 0 0 0 0 0 0 0 0 0 0 135 135 135 176 176 176 163 163 163 176 176 176 157 157 157 163 163 163 151 151 151 168 168 168 170 164 168 176 176 176 168 160 166 205 205 205 205 205 205 168 168 168 176 176 176 146 146 146 135 135 135 176 176 176 163 163 163 176 176 176 157 157 157 163 163 163 151 151 151 168 168 168 170 164 168 176 176 176 168 160 166 205 205 205 205 205 205 168 168 168 176 176 176 146 146 146 107 63 127 214 127 255 214 127 255 
214 127 255 214 127 255 214 127 255 214 127 255 214 127 255 214 127 255 214 127 255 214 127 255 214 127 255 214 127 255 214 127 255 214 127 255 214 127 255 107 63 127 214 127 255 214 127 255 214 127 255 214 127 255 214 127 255 214 127 255 214 127 255 214 127 255 214 127 255 214 127 255 214 127 255 214 127 255 214 127 255 214 127 255 214 127 255 202 120 120 131 76 76 99 50 50 201 119 119 124 12 12 115 54 54 174 150 135 180 164 146 52 23 23 154 19 19 178 105 105 197 173 164 211 191 182 36 8 8 124 65 65 49 25 25 
224 217 163 225 219 164 217 210 156 224 218 166 216 209 161 223 216 167 213 206 155 207 200 149 211 202 153 217 208 157 215 208 155 218 212 162 221 214 160 229 221 169 223 215 162 222 214 161 51 64 159 51 64 157 46 55 142 45 56 137 50 62 154 47 58 143 48 59 146 49 61 149 54 64 164 50 60 152 43 53 133 43 53 133 47 58 143 48 60 148 44 55 136 42 50 128 131 158 211 130 156 210 108 139 202 101 133 199 126 153 208 109 140 203 114 144 204 120 148 206 142 166 214 124 152 208 93 127 197 93 127 197 109 140 203 117 146 205 98 131 198 86 122 194 0 0 0 82 67 40 164 164 164 104 104 104 201 136 29 171 3 1 109 46 28 109 83 47 100 79 42 127 60 32 171 3 1 220 174 41 104 104 104 164 164 164 82 67 40 0 0 0 0 0 0 0 0 0 0 0 0 0 0 0 0 0 0 0 0 0 0 0 0 0 0 0 0 0 0 0 0 0 0 0 0 0 0 0 0 0 0 0 0 0 0 0 0 0 0 0 0 0 0 0 0 0 0 0 0 0 0 0 0 0 0 0 0 0 0 0 0 0 0 0 0 0 0 0 0 0 0 0 0 0 0 0 0 0 0 0 0 0 0 0 0 0 0 0 8 8 12 16 16 23 16 16 24 30 24 43 17 17 25 16 16 24 12 12 19 15 15 23 9 9 15 26 20 39 30 24 43 30 24 43 30 24 43 16 16 25 15 15 23 8 8 12 8 8 12 16 16 23 16 16 24 30 24 43 17 17 25 16 16 24 12 12 19 15 15 23 9 9 15 26 20 39 30 24 43 30 24 43 30 24 43 16 16 25 15 15 23 8 8 12 199 126 79 199 126 79 188 119 74 128 84 54 204 150 116 128 84 54 201 141 102 199 126 79 199 126 79 199 126 79 188 119 74 128 84 54 204 150 116 128 84 54 201 141 102 199 126 79 53 47 43 123 69 42 115 64 40 115 64 40 115 64 40 134 73 45 134 73 45 115 64 40 134 73 45 134 73 45 115 64 40 129 71 44 134 73 45 134 73 45 123 69 42 53 47 43 0 0 0 0 0 0 0 0 0 0 0 0 0 0 0 124 69 54 118 65 51 116 63 49 134 74 58 137 76 59 121 67 53 0 0 0 0 0 0 0 0 0 0 0 0 0 0 0 135 135 135 168 168 168 168 168 168 163 163 163 163 163 163 176 176 176 176 176 176 197 197 197 197 197 197 197 197 197 205 205 205 176 176 176 168 168 168 163 163 163 163 163 163 135 135 135 135 135 135 168 168 168 168 168 168 163 163 163 163 163 163 176 176 176 176 176 176 197 197 197 197 197 197 197 197 197 205 205 205 176 176 176 168 168 168 163 163 163 163 163 163 135 135 135 107 63 127 214 127 255 214 127 255 
214 127 255 214 127 255 214 127 255 214 127 255 214 127 255 214 127 255 214 127 255 214 127 255 214 127 255 214 127 255 214 127 255 214 127 255 214 127 255 107 63 127 214 127 255 214 127 255 214 127 255 214 127 255 214 127 255 214 127 255 214 127 255 214 127 255 214 127 255 214 127 255 214 127 255 214 127 255 214 127 255 214 127 255 214 127 255 203 134 130 215 199 186 38 9 9 175 103 103 94 6 6 108 56 56 71 6 6 60 8 8 78 39 39 60 8 8 175 114 89 104 8 8 48 25 25 136 72 72 47 20 20 50 25 25 
232 224 172 226 219 164 221 212 160 221 213 158 216 206 158 225 215 166 220 209 160 212 205 152 215 207 158 221 212 161 215 208 159 229 220 170 218 210 157 223 216 167 220 213 163 219 213 161 41 49 123 43 51 129 50 62 154 47 58 143 42 50 128 44 55 136 50 62 154 51 64 159 45 56 139 44 55 134 48 59 146 50 62 154 42 50 128 43 51 129 50 60 152 50 62 154 77 115 191 89 124 195 126 153 208 109 140 203 86 122 194 98 131 198 126 153 208 133 159 211 102 134 200 95 129 197 114 144 204 126 153 208 86 122 194 89 124 195 124 152 208 126 153 208 0 0 0 0 0 0 164 164 164 104 104 104 201 136 29 0 0 0 0 0 0 0 0 0 0 0 0 0 0 0 0 0 0 201 128 27 104 104 104 164 164 164 0 0 0 0 0 0 0 0 0 0 0 0 0 0 0 0 0 0 0 0 0 0 0 0 0 0 0 0 0 0 0 0 0 0 0 0 0 0 0 0 0 0 0 0 0 0 0 0 0 0 0 0 0 0 0 0 0 0 0 0 0 0 0 0 0 0 0 0 0 0 0 0 0 0 0 0 0 0 0 0 0 0 0 0 0 0 0 0 0 0 0 0 0 0 0 0 0 0 0 0 0 0 8 8 12 8 8 12 8 8 12 8 8 12 8 8 12 8 8 12 8 8 12 8 8 12 8 8 12 8 8 12 8 8 12 8 8 12 8 8 12 8 8 12 8 8 12 8 8 12 8 8 12 8 8 12 8 8 12 8 8 12 8 8 12 8 8 12 8 8 12 8 8 12 8 8 12 8 8 12 8 8 12 8 8 12 8 8 12 8 8 12 8 8 12 8 8 12 199 126 79 199 126 79 199 126 79 154 99 63 128 84 54 201 141 102 199 126 79 199 126 79 199 126 79 199 126 79 199 126 79 154 99 63 128 84 54 201 141 102 199 126 79 199 126 79 40 35 32 52 44 41 52 44 41 53 44 41 51 45 42 51 45 42 53 44 41 51 45 42 52 44 41 52 44 41 52 44 41 51 45 42 48 43 41 51 45 42 51 45 42 49 44 40 0 0 0 0 0 0 0 0 0 0 0 0 0 0 0 124 69 54 95 53 41 124 69 54 107 60 47 130 73 56 124 69 54 0 0 0 0 0 0 0 0 0 0 0 0 0 0 0 128 128 128 128 128 128 128 128 128 128 128 128 120 120 120 146 146 146 143 136 141 129 129 129 129 129 129 129 129 129 135 135 135 128 128 128 128 128 128 128 128 128 135 135 135 135 135 135 128 128 128 128 128 128 128 128 128 128 128 128 120 120 120 146 146 146 143 136 141 129 129 129 129 129 129 129 129 129 135 135 135 128 128 128 128 128 128 128 128 128 135 135 135 135 135 135 107 63 127 214 127 255 214 127 255 214 127 255 214 127 255 214 127 255 214 127 255 214 127 255 214 127 255 214 127 255 214 127 255 
214 127 255 214 127 255 214 127 255 214 127 255 214 127 255 107 63 127 214 127 255 214 127 255 214 127 255 214 127 255 214 127 255 214 127 255 214 127 255 214 127 255 214 127 255 214 127 255 214 127 255 214 127 255 214 127 255 214 127 255 214 127 255 207 190 170 215 199 186 38 9 9 63 30 30 93 30 22 25 9 9 41 17 17 60 8 8 164 88 88 175 114 89 73 36 36 144 82 64 56 26 26 60 28 28 56 29 29 178 131 118 
232 223 177 235 226 182 235 226 182 230 221 178 224 215 172 224 216 172 242 233 186 233 224 181 233 224 181 242 233 186 233 224 176 233 224 181 234 225 182 242 233 186 242 233 186 234 225 180 117 55 169 121 56 176 114 53 165 116 54 168 126 59 183 133 64 192 117 55 169 119 55 173 130 62 188 132 63 191 108 51 157 115 54 166 129 60 188 129 60 188 115 54 166 110 52 160 172 66 182 177 68 186 168 65 177 171 66 180 181 78 190 185 90 194 172 67 181 175 68 184 184 85 193 185 88 194 160 61 169 170 65 179 182 80 192 182 80 192 170 65 179 164 63 173 0 0 0 0 0 0 164 164 164 104 104 104 0 0 0 0 0 0 0 0 0 0 0 0 0 0 0 0 0 0 0 0 0 0 0 0 104 104 104 164 164 164 0 0 0 0 0 0 127 127 127 159 159 159 114 114 114 159 159 159 159 159 159 159 159 159 0 0 0 105 105 105 114 114 114 169 169 169 0 0 0 201 201 201 159 159 159 102 102 102 169 169 169 127 127 127 127 127 127 159 159 159 114 114 114 159 159 159 159 159 159 159 159 159 75 75 75 105 105 105 114 114 114 169 169 169 75 75 75 201 201 201 159 159 159 102 102 102 169 169 169 127 127 127 128 94 54 102 79 47 102 79 47 102 79 47 102 79 47 128 94 54 128 94 54 120 88 54 102 79 47 128 94 54 128 94 54 128 94 54 128 94 54 128 94 54 128 94 54 102 79 47 184 135 100 159 113 74 159 113 74 159 113 74 159 113 74 184 135 100 184 135 100 177 128 92 159 113 74 184 135 100 184 135 100 184 135 100 184 135 100 184 135 100 184 135 100 142 100 66 0 0 0 0 0 0 0 0 0 0 0 0 0 0 0 0 0 0 0 0 0 0 0 0 0 0 0 0 0 0 0 0 0 0 0 0 0 0 0 0 0 0 0 0 0 0 0 0 0 0 0 0 0 0 0 0 0 0 0 0 0 0 0 0 0 0 0 0 0 0 0 0 0 0 0 0 0 0 0 0 0 0 0 0 0 0 0 0 0 0 0 0 0 0 0 0 0 0 0 0 0 0 0 0 0 0 0 0 0 0 0 0 0 0 0 0 0 0 0 0 0 0 0 0 0 0 0 0 0 0 0 0 0 0 0 0 0 0 0 0 0 0 0 0 0 0 0 0 0 0 0 0 0 0 0 0 0 0 0 0 0 0 0 0 0 0 0 0 0 0 0 0 0 0 0 0 0 0 0 0 0 0 0 0 0 0 0 0 0 0 0 0 0 0 0 0 0 0 0 0 0 0 0 0 0 0 0 0 0 0 0 0 0 0 0 0 0 0 0 0 0 0 0 0 0 0 0 0 0 0 0 0 0 0 0 0 0 0 0 0 61 109 255 38 92 255 38 92 255 31 85 255 31 85 255 31 85 255 38 92 255 38 92 255 38 92 255 38 92 255 38 92 255 38 92 255 61 109 255 61 109 255 61 109 255 61 109 255 61 109 255 38 92 255 
38 92 255 31 85 255 31 85 255 31 85 255 38 92 255 38 92 255 38 92 255 38 92 255 38 92 255 38 92 255 61 109 255 61 109 255 61 109 255 61 109 255 61 109 255 38 92 255 38 92 255 31 85 255 31 85 255 31 85 255 38 92 255 38 92 255 38 92 255 38 92 255 38 92 255 38 92 255 61 109 255 61 109 255 61 109 255 61 109 255 
229 219 169 215 204 162 217 208 162 219 210 161 217 208 162 214 205 163 210 202 157 204 197 144 213 207 155 212 205 155 216 209 159 219 210 161 211 206 155 228 223 176 228 222 182 227 220 174 127 60 184 130 62 188 143 79 197 145 82 198 136 69 193 132 63 191 123 58 178 123 58 178 116 54 168 110 52 160 119 55 173 123 58 178 102 48 148 111 52 162 121 56 176 125 59 181 181 80 190 184 85 193 192 106 200 194 110 202 188 94 196 185 88 194 178 72 188 178 72 188 171 66 180 164 63 173 175 68 184 178 72 188 151 58 160 166 63 175 177 68 186 180 75 189 0 0 0 129 103 64 164 164 164 104 104 104 92 77 48 113 93 53 164 128 74 164 128 74 172 136 82 172 136 82 135 109 69 104 85 56 104 104 104 164 164 164 129 103 64 0 0 0 127 127 127 159 159 159 114 114 114 114 114 114 159 159 159 159 159 159 0 0 0 0 0 0 102 102 102 0 0 0 0 0 0 201 201 201 159 159 159 102 102 102 169 169 169 127 127 127 127 127 127 159 159 159 114 114 114 114 114 114 159 159 159 159 159 159 75 75 75 75 75 75 102 102 102 75 75 75 75 75 75 201 201 201 159 159 159 102 102 102 169 169 169 127 127 127 128 94 54 128 94 54 120 88 54 93 70 42 120 88 54 120 88 54 102 79 47 102 79 47 102 79 47 102 79 47 102 79 47 120 88 54 102 79 47 120 88 54 128 94 54 102 79 47 184 135 100 184 135 100 177 128 92 114 80 53 177 128 92 177 128 92 159 113 74 159 113 74 159 113 74 159 113 74 159 113 74 177 128 92 159 113 74 177 128 92 184 135 100 142 100 66 0 0 0 0 0 0 0 0 0 0 0 0 0 0 0 0 0 0 0 0 0 0 0 0 0 0 0 0 0 0 0 0 0 0 0 0 0 0 0 0 0 0 0 0 0 0 0 0 0 0 0 0 0 0 0 0 0 0 0 0 0 0 0 0 0 0 0 0 0 0 0 0 0 0 0 0 0 0 0 0 0 0 0 0 0 0 0 0 0 0 0 0 0 0 0 0 0 0 0 0 0 0 0 0 0 0 0 0 0 0 0 0 0 0 0 0 0 0 0 0 0 0 0 0 0 0 0 0 0 0 0 0 0 0 0 0 0 0 0 0 0 0 0 0 0 0 0 0 0 0 0 0 0 0 0 0 0 0 0 0 0 0 0 0 0 0 0 0 0 0 0 0 0 0 0 0 0 0 0 0 0 0 0 0 0 0 0 0 0 0 0 0 0 0 0 0 0 0 0 0 0 0 0 0 0 0 0 0 0 0 0 0 0 0 0 0 0 0 0 0 0 0 0 0 0 0 0 0 0 0 0 0 0 0 0 0 0 0 0 0 31 85 255 38 92 255 61 109 255 61 109 255 61 109 255 61 109 255 61 109 255 61 109 255 61 109 255 61 109 255 61 109 255 38 92 255 38 92 255 38 92 255 31 85 255 
31 85 255 31 85 255 38 92 255 61 109 255 61 109 255 61 109 255 61 109 255 61 109 255 61 109 255 61 109 255 61 109 255 61 109 255 38 92 255 38 92 255 38 92 255 31 85 255 31 85 255 31 85 255 38 92 255 61 109 255 61 109 255 61 109 255 61 109 255 61 109 255 61 109 255 61 109 255 61 109 255 61 109 255 38 92 255 38 92 255 38 92 255 31 85 255 31 85 255 
197 192 134 212 207 155 210 203 143 198 191 129 201 195 130 198 193 133 202 197 137 196 191 131 197 192 131 199 192 126 195 186 122 194 186 114 205 199 135 205 201 150 194 189 139 193 186 125 136 69 193 137 70 194 123 58 178 125 59 181 140 75 195 137 70 194 129 60 188 123 58 178 132 63 191 137 70 194 132 63 191 132 63 191 141 76 196 144 80 198 132 63 191 130 62 188 188 94 196 189 97 197 178 72 188 180 75 189 191 101 199 189 97 197 182 80 192 178 72 188 185 88 194 189 97 197 185 88 194 185 88 194 191 103 199 193 107 201 185 88 194 184 85 193 0 0 0 82 67 40 164 164 164 104 104 104 69 59 39 82 67 40 100 79 42 100 79 42 100 79 42 100 79 42 76 61 37 65 54 37 104 104 104 164 164 164 82 67 40 0 0 0 127 127 127 159 159 159 114 114 114 159 159 159 0 0 0 0 0 0 105 105 105 169 169 169 0 0 0 0 0 0 114 114 114 169 169 169 159 159 159 102 102 102 169 169 169 159 159 159 127 127 127 159 159 159 114 114 114 159 159 159 75 75 75 75 75 75 105 105 105 169 169 169 75 75 75 75 75 75 114 114 114 169 169 169 159 159 159 102 102 102 169 169 169 159 159 159 128 94 54 128 94 54 102 79 47 102 79 47 102 79 47 102 79 47 120 88 54 120 88 54 93 70 42 128 94 54 128 94 54 120 88 54 128 94 54 128 94 54 128 94 54 102 79 47 184 135 100 184 135 100 159 113 74 159 113 74 159 113 74 159 113 74 177 128 92 177 128 92 114 80 53 184 135 100 184 135 100 177 128 92 184 135 100 184 135 100 184 135 100 142 100 66 0 0 0 0 0 0 0 0 0 0 0 0 0 0 0 0 0 0 0 0 0 0 0 0 0 0 0 0 0 0 0 0 0 0 0 0 0 0 0 0 0 0 0 0 0 0 0 0 0 0 0 0 0 0 0 0 0 0 0 0 0 0 0 0 0 0 0 0 0 0 0 0 0 0 0 0 0 0 0 0 0 0 0 0 0 0 0 0 0 0 0 0 0 0 0 0 0 0 0 0 0 0 0 0 0 0 0 0 0 0 0 0 0 0 0 0 0 0 0 0 0 0 0 0 0 0 0 0 0 0 0 0 0 0 0 0 0 0 0 0 0 0 0 0 0 0 0 0 0 0 0 0 0 0 0 0 0 0 0 0 0 0 0 0 0 0 0 0 0 0 0 0 0 0 0 0 0 0 0 0 0 0 0 0 0 0 0 0 0 0 0 0 0 0 0 0 0 0 0 0 0 0 0 0 0 0 0 0 0 0 0 0 0 0 0 0 0 0 0 0 0 0 0 0 0 0 0 0 0 0 0 0 0 0 0 0 0 0 0 0 31 85 255 31 85 255 38 92 255 38 92 255 38 92 255 61 109 255 38 92 255 38 92 255 38 92 255 38 92 255 31 85 255 61 109 255 61 109 255 31 85 255 31 85 255 31 85 255 31 85 255 
31 85 255 38 92 255 38 92 255 38 92 255 61 109 255 38 92 255 38 92 255 38 92 255 38 92 255 31 85 255 61 109 255 61 109 255 31 85 255 31 85 255 31 85 255 31 85 255 31 85 255 38 92 255 38 92 255 38 92 255 61 109 255 38 92 255 38 92 255 38 92 255 38 92 255 31 85 255 61 109 255 61 109 255 31 85 255 31 85 255 31 85 255 
201 194 142 242 236 194 229 221 181 237 228 181 202 196 127 241 234 196 242 233 186 242 233 186 232 224 187 228 220 182 189 181 111 242 233 186 228 220 182 231 223 180 242 233 186 242 233 186 127 60 184 121 56 176 133 64 192 137 70 194 123 58 178 122 57 177 126 59 183 137 70 194 117 55 169 123 58 178 137 70 194 137 70 194 127 60 184 121 56 176 145 82 198 137 70 194 181 80 190 177 68 186 185 90 194 189 97 197 178 72 188 178 70 188 181 78 190 189 97 197 172 67 181 178 72 188 189 97 197 189 97 197 181 80 190 177 68 186 194 110 202 188 96 196 0 0 0 0 0 0 164 164 164 104 104 104 0 0 0 0 0 0 0 0 0 0 0 0 0 0 0 0 0 0 0 0 0 0 0 0 104 104 104 164 164 164 0 0 0 0 0 0 127 127 127 159 159 159 114 114 114 169 169 169 159 159 159 0 0 0 138 138 138 169 169 169 133 133 133 159 159 159 0 0 0 159 159 159 102 102 102 169 139 34 159 159 159 159 159 159 127 127 127 159 159 159 114 114 114 169 169 169 159 159 159 75 75 75 138 138 138 169 169 169 133 133 133 159 159 159 75 75 75 159 159 159 102 102 102 169 139 34 159 159 159 159 159 159 68 51 33 68 51 33 68 51 33 73 56 36 73 56 36 73 56 36 73 56 36 73 56 36 73 56 36 73 56 36 68 51 33 68 51 33 68 51 33 68 51 33 73 56 36 73 56 36 104 70 47 104 70 47 104 70 47 114 80 53 114 80 53 114 80 53 114 80 53 114 80 53 114 80 53 114 80 53 104 70 47 104 70 47 104 70 47 104 70 47 114 80 53 114 80 53 0 0 0 0 0 0 0 0 0 0 0 0 0 0 0 0 0 0 0 0 0 0 0 0 0 0 0 0 0 0 0 0 0 0 0 0 0 0 0 0 0 0 0 0 0 0 0 0 0 0 0 0 0 0 0 0 0 0 0 0 0 0 0 0 0 0 0 0 0 0 0 0 0 0 0 0 0 0 0 0 0 0 0 0 0 0 0 0 0 0 0 0 0 0 0 0 0 0 0 0 0 0 0 0 0 0 0 0 0 0 0 0 0 0 0 0 0 0 0 0 0 0 0 0 0 0 0 0 0 0 0 0 0 0 0 0 0 0 0 0 0 0 0 0 0 0 0 0 0 0 0 0 0 0 0 0 0 0 0 0 0 0 0 0 0 0 0 0 0 0 0 0 0 0 0 0 0 0 0 0 0 0 0 0 0 0 0 0 0 0 0 0 0 0 0 0 0 0 0 0 0 0 0 0 0 0 0 0 0 0 0 0 0 0 0 0 0 0 0 0 0 0 0 0 0 0 0 0 0 0 0 0 0 0 0 0 0 0 0 0 31 85 255 61 109 255 61 109 255 38 92 255 38 92 255 61 109 255 61 109 255 61 109 255 61 109 255 31 85 255 31 85 255 31 85 255 31 85 255 31 85 255 38 92 255 38 92 255 31 85 255 61 109 255 61 109 255 38 92 255 38 92 255 61 109 255 
61 109 255 61 109 255 61 109 255 31 85 255 31 85 255 31 85 255 31 85 255 31 85 255 38 92 255 38 92 255 31 85 255 61 109 255 61 109 255 38 92 255 38 92 255 61 109 255 61 109 255 61 109 255 61 109 255 31 85 255 31 85 255 31 85 255 31 85 255 31 85 255 38 92 255 38 92 255 
202 196 128 216 210 163 216 209 156 214 207 153 202 196 127 223 216 160 229 221 168 224 216 165 216 207 155 193 186 113 226 217 174 214 207 155 220 212 160 228 221 179 214 206 157 221 213 160 130 62 188 125 59 181 117 55 169 127 60 184 133 64 192 133 64 192 108 51 157 104 49 151 120 56 174 129 60 188 119 55 173 113 53 163 133 64 192 133 64 192 115 54 166 108 51 157 184 85 193 180 75 189 172 67 181 181 80 190 185 90 194 185 90 194 160 61 169 154 59 163 177 68 186 182 80 192 175 68 184 166 63 175 185 90 194 185 90 194 170 65 179 160 61 169 0 0 0 0 0 0 164 164 164 104 104 104 0 0 0 0 0 0 0 0 0 0 0 0 0 0 0 0 0 0 0 0 0 0 0 0 104 104 104 164 164 164 0 0 0 0 0 0 159 159 159 0 0 0 159 159 159 169 169 169 159 159 159 0 0 0 169 169 169 152 152 152 128 128 128 159 159 159 0 0 0 169 139 34 222 194 95 222 194 95 102 102 102 159 159 159 159 159 159 75 75 75 159 159 159 169 169 169 159 159 159 75 75 75 169 169 169 152 152 152 128 128 128 159 159 159 75 75 75 169 139 34 222 194 95 222 194 95 102 102 102 159 159 159 128 94 54 102 79 47 102 79 47 102 79 47 102 79 47 128 94 54 128 94 54 102 79 47 128 94 54 102 79 47 102 79 47 83 64 40 120 88 54 120 88 54 120 88 54 128 94 54 184 135 100 159 113 74 159 113 74 159 113 74 159 113 74 184 135 100 184 135 100 142 100 66 184 135 100 159 113 74 159 113 74 114 80 53 177 128 92 177 128 92 177 128 92 184 135 100 0 0 0 0 0 0 0 0 0 0 0 0 0 0 0 0 0 0 0 0 0 0 0 0 0 0 0 0 0 0 0 0 0 0 0 0 0 0 0 0 0 0 0 0 0 0 0 0 0 0 0 0 0 0 0 0 0 0 0 0 0 0 0 0 0 0 0 0 0 0 0 0 0 0 0 0 0 0 0 0 0 0 0 0 0 0 0 0 0 0 0 0 0 0 0 0 0 0 0 0 0 0 0 0 0 0 0 0 0 0 0 0 0 0 0 0 0 0 0 0 0 0 0 0 0 0 0 0 0 0 0 0 0 0 0 0 0 0 0 0 0 0 0 0 8 196 0 0 0 0 0 0 0 0 0 0 0 0 0 0 137 0 0 0 0 0 0 0 0 0 0 0 0 0 0 0 0 0 0 0 0 0 0 0 0 0 0 0 0 0 0 0 0 0 0 0 0 0 0 0 0 0 0 0 0 0 0 0 0 0 0 0 0 0 0 0 0 0 0 0 0 0 0 0 0 0 0 0 0 0 0 0 0 0 0 0 0 0 0 0 61 109 255 61 109 255 61 109 255 31 85 255 31 85 255 31 85 255 31 85 255 31 85 255 31 85 255 61 109 255 38 92 255 38 92 255 38 92 255 31 85 255 38 92 255 31 85 255 61 109 255 61 109 255 61 109 255 31 85 255 
31 85 255 31 85 255 31 85 255 31 85 255 31 85 255 61 109 255 38 92 255 38 92 255 38 92 255 31 85 255 38 92 255 31 85 255 61 109 255 61 109 255 61 109 255 31 85 255 31 85 255 31 85 255 31 85 255 31 85 255 31 85 255 61 109 255 38 92 255 38 92 255 38 92 255 31 85 255 38 92 255 31 85 255 
215 208 164 214 207 153 214 207 153 219 212 159 202 196 127 224 217 173 221 213 165 233 224 179 223 215 164 196 189 116 226 217 173 216 208 157 218 209 158 221 212 165 220 212 172 192 186 120 111 52 162 106 50 154 118 55 171 137 70 194 117 55 169 104 49 151 117 55 169 121 56 176 117 55 169 104 49 151 121 56 176 123 58 178 109 51 159 119 55 173 116 54 168 122 57 177 166 63 175 157 60 166 172 67 181 189 97 197 172 67 181 154 59 163 172 66 182 177 68 186 172 67 181 154 59 163 177 68 186 178 72 188 161 62 170 175 68 184 171 66 180 178 70 188 0 0 0 129 103 64 164 164 164 104 104 104 108 89 60 140 0 1 136 0 1 49 0 0 82 0 0 49 0 0 89 0 0 108 89 60 104 104 104 164 164 164 129 103 64 0 0 0 0 0 0 0 0 0 159 159 159 169 169 169 159 159 159 0 0 0 201 201 201 152 152 152 127 127 127 159 159 159 0 0 0 169 139 34 222 194 95 222 194 95 102 102 102 102 102 102 75 75 75 75 75 75 159 159 159 169 169 169 159 159 159 75 75 75 201 201 201 152 152 152 127 127 127 159 159 159 75 75 75 169 139 34 222 194 95 222 194 95 102 102 102 102 102 102 102 79 47 102 79 47 83 64 40 120 88 54 120 88 54 120 88 54 128 94 54 102 79 47 120 88 54 120 88 54 120 88 54 120 88 54 102 79 47 102 79 47 102 79 47 102 79 47 159 113 74 159 113 74 114 80 53 177 128 92 177 128 92 177 128 92 184 135 100 142 100 66 177 128 92 177 128 92 177 128 92 177 128 92 159 113 74 159 113 74 159 113 74 159 113 74 0 0 0 0 0 0 0 0 0 0 0 0 0 0 0 0 0 0 0 0 0 0 0 0 0 0 0 0 0 0 0 0 0 0 0 0 0 0 0 0 0 0 0 0 0 0 0 0 0 0 0 0 0 0 0 0 0 0 0 0 0 0 0 0 0 0 0 0 0 0 0 0 0 0 0 0 0 0 0 0 0 0 0 0 0 0 0 0 0 0 0 0 0 0 0 0 0 0 0 0 0 0 0 0 0 0 0 0 0 0 0 0 0 0 0 0 0 0 0 0 0 0 0 0 0 0 0 0 0 0 0 0 0 0 0 0 0 0 0 0 0 0 0 0 8 196 0 0 0 0 8 196 0 0 0 0 8 196 0 8 196 0 0 0 0 0 0 0 0 0 0 0 124 0 8 196 0 0 139 0 0 0 0 0 156 0 0 0 0 0 100 0 0 0 0 0 0 0 0 0 0 0 0 0 0 0 0 0 0 0 0 0 0 0 0 0 0 0 0 0 0 0 0 0 0 0 0 0 0 0 0 0 0 0 0 0 0 0 0 0 61 109 255 38 92 255 38 92 255 31 85 255 38 92 255 38 92 255 38 92 255 38 92 255 61 109 255 31 85 255 31 85 255 31 85 255 31 85 255 61 109 255 31 85 255 31 85 255 61 109 255 
38 92 255 38 92 255 31 85 255 38 92 255 38 92 255 38 92 255 38 92 255 61 109 255 31 85 255 31 85 255 31 85 255 31 85 255 61 109 255 31 85 255 31 85 255 61 109 255 38 92 255 38 92 255 31 85 255 38 92 255 38 92 255 38 92 255 38 92 255 61 109 255 31 85 255 31 85 255 31 85 255 31 85 255 61 109 255 31 85 255 31 85 255 
218 210 166 206 200 140 206 200 140 202 197 136 202 196 127 203 197 137 223 216 180 226 220 179 191 183 113 196 189 116 198 192 134 225 219 174 221 216 171 214 208 159 221 214 172 192 186 120 144 80 198 145 82 198 135 67 193 133 64 192 126 59 183 126 59 183 125 59 181 129 60 188 136 69 193 145 82 198 130 62 188 123 58 178 145 82 198 145 82 198 132 63 191 129 60 188 193 107 201 193 109 201 187 93 195 185 90 194 181 78 190 181 78 190 180 75 189 182 80 192 188 94 196 193 109 201 184 85 193 178 72 188 194 110 202 194 110 202 185 88 194 182 80 192 0 0 0 82 67 40 164 164 164 104 104 104 65 54 37 49 0 0 200 178 178 178 166 166 200 189 189 143 120 120 136 0 1 65 54 37 104 104 104 164 164 164 82 67 40 0 0 0 0 0 0 0 0 0 127 127 127 127 127 127 0 0 0 0 0 0 159 159 159 130 130 130 151 151 151 159 159 159 0 0 0 159 159 159 102 102 102 0 0 0 0 0 0 0 0 0 75 75 75 75 75 75 127 127 127 127 127 127 75 75 75 75 75 75 159 159 159 130 130 130 151 151 151 159 159 159 75 75 75 159 159 159 102 102 102 75 75 75 75 75 75 75 75 75 128 94 54 128 94 54 128 94 54 120 88 54 128 94 54 128 94 54 128 94 54 102 79 47 102 79 47 102 79 47 83 64 40 128 94 54 128 94 54 128 94 54 128 94 54 128 94 54 184 135 100 184 135 100 184 135 100 177 128 92 184 135 100 184 135 100 184 135 100 142 100 66 159 113 74 159 113 74 114 80 53 184 135 100 184 135 100 184 135 100 184 135 100 184 135 100 0 0 0 0 0 0 0 0 0 0 0 0 0 0 0 0 0 0 0 0 0 0 0 0 0 0 0 0 0 0 0 0 0 0 0 0 0 0 0 0 0 0 0 0 0 0 0 0 0 0 0 0 0 0 0 0 0 0 0 0 0 0 0 0 0 0 0 0 0 0 0 0 0 0 0 0 0 0 0 0 0 0 0 0 0 0 0 0 0 0 0 0 0 0 0 0 0 0 0 0 0 0 0 0 0 0 0 0 0 0 0 0 226 16 0 0 0 0 0 0 0 0 0 0 0 0 0 0 0 0 0 0 0 0 0 0 0 0 0 0 0 0 0 0 0 0 0 0 144 0 0 117 0 20 180 0 20 180 0 0 0 0 2 139 0 8 196 0 0 0 0 0 0 0 0 124 0 8 196 0 8 196 0 0 124 0 0 100 0 0 0 0 0 0 0 0 0 0 0 0 0 0 0 0 0 0 0 0 0 0 0 0 0 0 0 0 0 0 0 0 0 0 0 0 0 0 0 0 0 0 0 0 0 0 0 0 0 0 0 0 38 92 255 38 92 255 31 85 255 31 85 255 31 85 255 31 85 255 31 85 255 61 109 255 31 85 255 31 85 255 31 85 255 38 92 255 38 92 255 61 109 255 61 109 255 61 109 255 
38 92 255 38 92 255 31 85 255 31 85 255 31 85 255 31 85 255 31 85 255 61 109 255 31 85 255 31 85 255 31 85 255 38 92 255 38 92 255 61 109 255 61 109 255 61 109 255 38 92 255 38 92 255 31 85 255 31 85 255 31 85 255 31 85 255 31 85 255 61 109 255 31 85 255 31 85 255 31 85 255 38 92 255 38 92 255 61 109 255 61 109 255 61 109 255 
194 186 114 240 233 193 235 226 182 232 223 178 241 234 196 236 229 190 201 196 140 197 192 134 236 227 180 236 227 180 243 234 187 197 192 131 204 199 148 201 195 130 192 186 120 237 230 191 121 56 176 121 56 176 144 80 198 145 82 198 132 63 191 130 62 188 137 70 194 137 70 194 116 54 168 119 55 173 133 64 192 137 70 194 130 62 188 130 62 188 138 72 194 137 70 194 177 68 186 177 68 186 193 107 201 194 110 202 185 88 194 184 85 193 189 97 197 188 96 196 171 66 180 175 68 184 185 90 194 189 97 197 184 85 193 184 85 193 189 97 197 188 96 196 0 0 0 0 0 0 164 164 164 104 104 104 0 0 0 82 0 0 200 189 189 168 168 168 168 168 168 139 127 127 82 0 0 0 0 0 104 104 104 164 164 164 0 0 0 0 0 0 114 114 114 159 159 159 0 0 0 0 0 0 169 139 34 192 158 39 135 135 135 159 159 159 151 151 151 135 135 135 0 0 0 159 159 159 159 159 159 0 0 0 102 102 102 102 102 102 114 114 114 159 159 159 75 75 75 75 75 75 169 139 34 192 158 39 135 135 135 159 159 159 151 151 151 135 135 135 75 75 75 159 159 159 159 159 159 75 75 75 102 102 102 102 102 102 73 56 36 73 56 36 68 51 33 68 51 33 68 51 33 68 51 33 68 51 33 73 56 36 73 56 36 73 56 36 68 51 33 68 51 33 68 51 33 68 51 33 73 56 36 73 56 36 114 80 53 114 80 53 104 70 47 104 70 47 104 70 47 104 70 47 104 70 47 114 80 53 114 80 53 114 80 53 104 70 47 104 70 47 104 70 47 104 70 47 114 80 53 114 80 53 0 0 0 0 0 0 0 0 0 0 0 0 0 0 0 0 0 0 0 0 0 0 0 0 0 0 0 0 0 0 0 0 0 0 0 0 0 0 0 0 0 0 0 0 0 0 0 0 0 0 0 0 0 0 0 0 0 0 0 0 0 0 0 0 0 0 0 0 0 0 0 0 0 0 0 0 0 0 0 0 0 0 0 0 0 0 0 0 0 0 0 0 0 0 0 0 0 0 0 0 226 16 0 226 16 0 0 0 0 226 16 0 0 0 0 0 0 0 0 0 0 0 0 0 0 0 0 0 0 0 0 0 0 0 0 0 0 0 0 0 0 0 0 0 0 0 0 0 144 0 8 196 0 20 180 0 13 170 0 2 139 0 0 129 0 8 196 0 0 129 0 0 0 0 0 137 0 11 153 0 0 142 0 0 0 0 0 100 0 0 0 0 0 0 0 0 0 0 0 0 0 0 0 0 0 0 0 0 0 0 0 0 0 0 0 0 0 0 0 0 0 0 0 168 28 0 0 0 0 0 0 0 0 0 0 0 0 0 0 0 31 85 255 38 92 255 61 109 255 61 109 255 61 109 255 38 92 255 38 92 255 38 92 255 31 85 255 38 92 255 38 92 255 61 109 255 61 109 255 38 92 255 38 92 255 31 85 255 31 85 255 38 92 255 
61 109 255 61 109 255 61 109 255 38 92 255 38 92 255 38 92 255 31 85 255 38 92 255 38 92 255 61 109 255 61 109 255 38 92 255 38 92 255 31 85 255 31 85 255 38 92 255 61 109 255 61 109 255 61 109 255 38 92 255 38 92 255 38 92 255 31 85 255 38 92 255 38 92 255 61 109 255 61 109 255 38 92 255 38 92 255 31 85 255 
237 230 191 217 211 165 227 218 174 219 209 161 220 212 161 198 191 124 236 227 180 232 225 187 218 210 171 217 210 156 226 219 170 208 202 139 242 233 186 234 225 181 197 190 125 237 230 191 132 63 191 132 63 191 111 52 162 120 56 174 137 70 194 130 62 188 117 55 169 122 57 177 120 56 174 123 58 178 119 55 173 109 51 159 126 59 183 123 58 178 114 53 165 113 53 163 185 88 194 185 88 194 166 63 175 177 68 186 188 96 196 184 85 193 172 67 181 178 70 188 177 68 186 178 72 188 175 68 184 161 62 170 181 78 190 178 72 188 168 65 177 166 63 175 0 0 0 0 0 0 164 164 164 104 104 104 0 0 0 49 0 0 178 166 166 168 168 168 168 168 168 125 113 113 49 0 0 0 0 0 104 104 104 164 164 164 0 0 0 0 0 0 114 114 114 159 159 159 127 127 127 189 155 38 236 220 165 225 200 112 102 102 102 159 159 159 135 135 135 102 102 102 0 0 0 159 159 159 0 0 0 0 0 0 127 127 127 159 159 159 114 114 114 159 159 159 127 127 127 189 155 38 236 220 165 225 200 112 102 102 102 159 159 159 135 135 135 102 102 102 75 75 75 159 159 159 75 75 75 75 75 75 127 127 127 159 159 159 128 94 54 128 94 54 128 94 54 128 94 54 128 94 54 83 64 40 102 79 47 128 94 54 128 94 54 120 88 54 120 88 54 120 88 54 128 94 54 128 94 54 128 94 54 102 79 47 184 135 100 184 135 100 184 135 100 184 135 100 184 135 100 114 80 53 159 113 74 184 135 100 184 135 100 177 128 92 177 128 92 177 128 92 184 135 100 184 135 100 184 135 100 142 100 66 0 0 0 0 0 0 0 0 0 0 0 0 0 0 0 0 0 0 0 0 0 0 0 0 0 0 0 0 0 0 0 0 0 0 0 0 0 0 0 0 0 0 0 0 0 0 0 0 0 0 0 0 0 0 0 0 0 0 0 0 0 0 0 0 0 0 0 0 0 0 0 0 0 0 0 0 0 0 0 0 0 0 0 0 0 0 0 0 0 0 0 0 0 0 0 0 0 0 0 0 0 0 0 188 22 0 198 23 0 0 0 0 0 0 0 0 0 0 0 0 0 226 16 0 226 16 0 0 0 0 226 16 0 0 0 0 0 0 0 226 16 0 0 0 0 0 0 0 0 0 0 124 0 8 196 0 0 149 0 0 0 0 8 196 0 0 137 0 4 171 0 2 139 0 0 134 0 8 196 0 0 0 0 0 100 0 0 0 0 0 0 0 0 224 26 0 168 28 0 0 0 0 0 0 0 224 26 0 168 28 0 0 0 0 0 0 0 0 0 0 224 26 0 138 23 0 0 0 0 0 0 0 0 0 0 224 26 0 168 28 38 92 255 38 92 255 61 109 255 38 92 255 38 92 255 38 92 255 38 92 255 38 92 255 38 92 255 31 85 255 31 85 255 
31 85 255 31 85 255 31 85 255 31 85 255 31 85 255 38 92 255 38 92 255 61 109 255 38 92 255 38 92 255 38 92 255 38 92 255 38 92 255 38 92 255 31 85 255 31 85 255 31 85 255 31 85 255 31 85 255 31 85 255 31 85 255 38 92 255 38 92 255 61 109 255 38 92 255 38 92 255 38 92 255 38 92 255 38 92 255 38 92 255 31 85 255 31 85 255 31 85 255 31 85 255 31 85 255 31 85 255 31 85 255 
213 207 153 224 218 168 224 217 168 224 217 168 218 209 159 196 188 115 233 223 179 220 213 168 225 219 174 221 215 168 213 206 158 192 184 111 229 221 176 223 218 170 194 187 121 222 216 171 120 56 174 123 58 178 122 57 177 136 69 193 105 49 153 108 51 157 123 58 178 129 61 187 117 55 169 130 62 188 145 82 198 145 82 198 125 59 181 132 63 191 145 82 198 143 79 197 177 68 186 178 72 188 178 70 188 188 94 196 156 60 164 160 61 169 178 72 188 184 83 193 172 67 181 184 85 193 194 110 202 194 110 202 180 75 189 185 88 194 194 110 202 192 106 200 0 0 0 129 103 64 164 164 164 104 104 104 108 89 60 136 0 1 143 120 120 125 113 113 139 127 127 134 101 100 49 0 0 104 85 56 104 104 104 164 164 164 129 103 64 0 0 0 0 0 0 159 159 159 127 127 127 169 139 34 225 200 112 222 194 95 0 0 0 0 0 0 102 102 102 0 0 0 102 102 102 102 102 102 0 0 0 159 159 159 127 127 127 159 159 159 75 75 75 159 159 159 127 127 127 169 139 34 225 200 112 222 194 95 75 75 75 75 75 75 102 102 102 75 75 75 102 102 102 102 102 102 75 75 75 159 159 159 127 127 127 159 159 159 102 79 47 102 79 47 102 79 47 102 79 47 102 79 47 128 94 54 120 88 54 120 88 54 102 79 47 102 79 47 102 79 47 83 64 40 128 94 54 102 79 47 102 79 47 102 79 47 159 113 74 159 113 74 159 113 74 159 113 74 159 113 74 184 135 100 177 128 92 177 128 92 159 113 74 159 113 74 159 113 74 114 80 53 184 135 100 159 113 74 159 113 74 142 100 66 0 0 0 0 0 0 0 0 0 0 0 0 0 0 0 0 0 0 0 0 0 0 0 0 0 0 0 0 0 0 0 0 0 0 0 0 0 0 0 0 0 0 0 0 0 0 0 0 0 0 0 0 0 0 0 0 0 0 0 0 0 0 0 0 0 0 0 0 0 0 0 0 0 0 0 0 0 0 0 0 0 0 0 0 0 0 0 0 0 0 0 0 0 0 0 0 0 0 0 0 198 23 0 226 16 0 226 16 0 0 0 0 0 0 0 226 16 0 0 0 0 226 16 0 0 0 0 0 0 0 226 16 0 0 0 0 226 16 0 226 16 0 0 0 0 0 0 0 0 0 0 124 0 20 180 0 2 139 0 0 0 0 2 139 0 2 161 0 0 156 0 0 0 0 0 138 0 8 196 0 0 100 0 2 139 0 0 0 0 0 0 0 0 192 27 0 138 23 0 224 26 0 174 25 0 192 27 0 168 28 0 138 23 0 0 0 0 224 26 58 166 73 0 118 19 0 0 0 0 168 28 0 224 26 0 192 27 0 138 23 31 85 255 31 85 255 31 85 255 31 85 255 31 85 255 31 85 255 61 109 255 61 109 255 61 109 255 
61 109 255 38 92 255 61 109 255 61 109 255 38 92 255 38 92 255 38 92 255 31 85 255 31 85 255 31 85 255 31 85 255 31 85 255 31 85 255 61 109 255 61 109 255 61 109 255 61 109 255 38 92 255 61 109 255 61 109 255 38 92 255 38 92 255 38 92 255 31 85 255 31 85 255 31 85 255 31 85 255 31 85 255 31 85 255 61 109 255 61 109 255 61 109 255 61 109 255 38 92 255 61 109 255 61 109 255 38 92 255 38 92 255 38 92 255 
194 186 115 197 190 124 197 190 124 197 190 124 213 206 154 204 198 133 217 210 156 217 210 156 229 222 179 217 210 154 219 214 161 201 194 133 221 216 175 198 190 116 198 190 116 192 183 112 137 70 194 138 72 194 132 63 191 132 63 191 145 82 198 137 70 194 132 63 191 130 62 188 138 72 194 136 69 193 123 58 178 129 60 188 130 62 188 126 59 183 115 54 166 127 60 184 188 96 196 189 97 197 185 88 194 185 88 194 193 109 201 189 97 197 185 88 194 184 85 193 189 97 197 188 94 196 178 72 188 182 80 192 184 85 193 181 78 190 170 65 179 181 80 190 0 0 0 82 67 40 164 164 164 104 104 104 65 54 37 89 0 0 49 0 0 82 0 0 49 0 0 49 0 0 96 0 0 69 59 39 104 104 104 164 164 164 82 67 40 0 0 0 0 0 0 159 159 159 127 127 127 169 139 34 222 194 95 222 194 95 102 102 102 114 114 114 114 114 114 123 123 123 169 169 169 159 159 159 102 102 102 169 169 169 127 127 127 159 159 159 75 75 75 159 159 159 127 127 127 169 139 34 222 194 95 222 194 95 102 102 102 114 114 114 114 114 114 123 123 123 169 169 169 159 159 159 102 102 102 169 169 169 127 127 127 159 159 159 128 94 54 120 88 54 120 88 54 120 88 54 128 94 54 128 94 54 102 79 47 102 79 47 102 79 47 102 79 47 120 88 54 120 88 54 120 88 54 120 88 54 120 88 54 102 79 47 184 135 100 177 128 92 177 128 92 177 128 92 184 135 100 184 135 100 159 113 74 159 113 74 159 113 74 159 113 74 177 128 92 177 128 92 177 128 92 177 128 92 177 128 92 142 100 66 0 0 0 0 0 0 0 0 0 0 0 0 0 0 0 0 0 0 0 0 0 0 0 0 0 0 0 0 0 0 0 0 0 0 0 0 0 0 0 0 0 0 0 0 0 0 0 0 0 0 0 0 0 0 0 0 0 0 0 0 0 0 0 0 0 0 0 0 0 0 0 0 0 0 0 0 0 0 0 0 0 0 0 0 0 0 0 0 0 0 0 0 0 0 0 0 0 0 0 0 226 16 0 198 23 0 0 0 0 0 0 0 0 0 0 0 0 0 226 16 0 198 23 0 0 0 0 0 0 0 0 0 0 226 16 0 198 23 0 0 0 0 0 0 0 0 0 0 0 0 2 139 0 20 180 0 0 117 0 0 78 0 0 0 0 8 196 0 0 124 0 0 0 0 0 0 0 0 124 0 0 78 0 0 0 0 0 0 0 0 0 0 0 168 28 0 138 23 0 224 26 0 138 23 0 168 28 58 166 73 0 168 28 0 0 0 58 166 73 0 168 28 58 166 73 0 224 26 0 168 28 0 192 27 0 174 25 0 0 0 31 85 255 38 92 255 61 109 255 61 109 255 61 109 255 38 92 255 38 92 255 61 109 255 61 109 255 
31 85 255 31 85 255 61 109 255 38 92 255 31 85 255 31 85 255 31 85 255 31 85 255 38 92 255 61 109 255 61 109 255 61 109 255 38 92 255 38 92 255 61 109 255 61 109 255 31 85 255 31 85 255 61 109 255 38 92 255 31 85 255 31 85 255 31 85 255 31 85 255 38 92 255 61 109 255 61 109 255 61 109 255 38 92 255 38 92 255 61 109 255 61 109 255 31 85 255 31 85 255 61 109 255 38 92 255 31 85 255 31 85 255 31 85 255 
239 230 184 239 230 184 239 230 184 225 218 172 200 193 133 188 181 110 197 189 117 197 189 117 217 210 154 194 187 119 194 187 119 234 227 185 198 190 116 226 218 167 237 229 189 237 229 189 115 54 166 117 55 169 129 61 187 129 61 187 121 56 176 122 57 177 133 64 192 132 63 191 116 54 168 117 55 169 120 56 174 130 62 188 106 50 154 106 50 154 122 57 177 130 62 188 170 65 179 172 67 181 184 83 193 184 83 193 177 68 186 178 70 188 185 90 194 185 88 194 171 66 180 172 67 181 177 68 186 184 85 193 157 60 166 157 60 166 178 70 188 184 85 193 0 0 0 0 0 0 164 164 164 104 104 104 0 0 0 0 0 0 0 0 0 0 0 0 0 0 0 0 0 0 0 0 0 0 0 0 104 104 104 164 164 164 0 0 0 0 0 0 0 0 0 159 159 159 127 127 127 159 159 159 102 102 102 102 102 102 114 114 114 201 201 201 169 169 169 114 114 114 169 169 169 127 127 127 102 102 102 159 159 159 159 159 159 127 127 127 75 75 75 159 159 159 127 127 127 159 159 159 102 102 102 102 102 102 114 114 114 201 201 201 169 169 169 114 114 114 169 169 169 127 127 127 102 102 102 159 159 159 159 159 159 127 127 127 73 56 36 68 51 33 73 56 36 73 56 36 68 51 33 68 51 33 68 51 33 73 56 36 73 56 36 73 56 36 73 56 36 73 56 36 68 51 33 68 51 33 68 51 33 73 56 36 114 80 53 104 70 47 114 80 53 114 80 53 104 70 47 104 70 47 104 70 47 114 80 53 114 80 53 114 80 53 114 80 53 114 80 53 104 70 47 104 70 47 104 70 47 114 80 53 0 0 0 0 0 0 0 0 0 0 0 0 0 0 0 0 0 0 0 0 0 0 0 0 0 0 0 0 0 0 0 0 0 0 0 0 0 0 0 0 0 0 0 0 0 0 0 0 0 0 0 0 0 0 0 0 0 0 0 0 0 0 0 0 0 0 0 0 0 0 226 16 0 0 0 0 0 0 0 0 0 0 0 0 0 0 0 0 0 0 0 0 0 0 0 0 0 0 0 0 0 0 2 149 14 0 0 0 0 0 0 0 0 0 0 0 0 0 198 23 0 0 0 0 0 0 0 0 0 0 0 0 0 198 23 0 0 0 0 0 0 0 0 0 0 0 0 0 0 0 0 0 0 8 196 0 0 117 0 0 78 0 0 0 0 0 134 0 0 100 0 2 139 0 0 0 0 0 100 0 0 78 0 0 0 0 0 0 0 0 0 0 0 0 0 0 192 27 0 192 27 0 138 23 58 166 73 0 186 18 0 118 19 0 174 25 0 138 23 58 166 73 0 168 28 0 192 27 58 166 73 0 192 27 0 138 23 0 138 23 31 85 255 31 85 255 31 85 255 31 85 255 31 85 255 31 85 255 31 85 255 31 85 255 31 85 255 31 85 255 31 85 255 31 85 255 31 85 255 31 85 255 
31 85 255 31 85 255 31 85 255 31 85 255 31 85 255 31 85 255 31 85 255 31 85 255 31 85 255 31 85 255 31 85 255 31 85 255 31 85 255 31 85 255 31 85 255 31 85 255 31 85 255 31 85 255 31 85 255 31 85 255 31 85 255 31 85 255 31 85 255 31 85 255 31 85 255 31 85 255 31 85 255 31 85 255 31 85 255 31 85 255 31 85 255 31 85 255 31 85 255 31 85 255 
233 225 178 231 223 185 225 218 172 204 198 137 235 227 179 239 230 184 236 227 180 236 227 180 194 187 119 236 230 196 232 223 178 218 211 168 201 196 136 230 223 178 229 224 187 224 217 176 122 57 177 121 56 176 105 49 153 108 51 157 137 70 194 140 75 195 113 53 163 104 49 151 126 59 183 133 64 192 129 60 188 132 63 191 145 82 198 145 82 198 130 62 188 109 51 159 178 70 188 177 68 186 156 60 164 160 61 169 188 96 196 191 101 199 166 63 175 154 59 163 181 78 190 185 90 194 182 80 192 185 88 194 194 110 202 194 110 202 184 85 193 161 62 170 0 0 0 0 0 0 164 164 164 104 104 104 0 0 0 0 0 0 0 0 0 0 0 0 0 0 0 0 0 0 0 0 0 0 0 0 104 104 104 164 164 164 0 0 0 0 0 0 0 0 0 102 102 102 159 159 159 102 102 102 0 0 0 0 0 0 114 114 114 169 169 169 159 159 159 114 114 114 159 159 159 127 127 127 102 102 102 0 0 0 159 159 159 159 159 159 75 75 75 102 102 102 159 159 159 102 102 102 75 75 75 75 75 75 114 114 114 169 169 169 159 159 159 114 114 114 159 159 159 127 127 127 102 102 102 75 75 75 159 159 159 159 159 159 128 94 54 128 94 54 128 94 54 128 94 54 128 94 54 102 79 47 128 94 54 102 79 47 102 79 47 73 56 36 102 79 47 102 79 47 120 88 54 128 94 54 128 94 54 128 94 54 184 135 100 184 135 100 184 135 100 184 135 100 184 135 100 159 113 74 184 135 100 142 100 66 159 113 74 114 80 53 159 113 74 159 113 74 177 128 92 184 135 100 184 135 100 184 135 100 0 0 0 0 0 0 0 0 0 0 0 0 0 0 0 0 0 0 0 0 0 0 0 0 0 0 0 0 0 0 0 0 0 0 0 0 0 0 0 0 0 0 0 0 0 0 0 0 0 0 0 0 0 0 0 226 16 0 0 0 0 0 0 0 0 0 0 0 0 0 226 16 0 0 0 0 226 16 0 0 0 0 0 0 0 0 0 0 0 0 0 0 0 0 0 0 0 0 0 0 0 0 2 139 13 0 0 0 0 0 0 0 0 0 0 184 23 2 149 14 0 0 0 0 226 16 0 0 0 0 0 0 0 226 16 0 0 0 0 0 0 0 0 0 0 0 0 0 0 0 0 0 0 0 93 0 0 78 0 0 78 0 2 139 0 0 100 0 0 78 0 2 139 0 0 0 0 0 124 0 0 78 0 0 0 0 0 0 0 0 0 0 0 0 0 0 0 0 0 168 28 0 224 26 0 192 27 0 118 19 58 166 73 0 192 27 0 224 26 0 168 28 58 166 73 0 224 26 0 138 23 0 192 27 0 192 27 0 138 23 61 109 255 61 109 255 61 109 255 61 109 255 61 109 255 61 109 255 61 109 255 61 109 255 38 92 255 38 92 255 38 92 255 
38 92 255 31 85 255 31 85 255 31 85 255 31 85 255 61 109 255 61 109 255 61 109 255 61 109 255 61 109 255 61 109 255 61 109 255 61 109 255 38 92 255 38 92 255 38 92 255 38 92 255 31 85 255 31 85 255 31 85 255 31 85 255 61 109 255 61 109 255 61 109 255 61 109 255 61 109 255 61 109 255 61 109 255 61 109 255 38 92 255 38 92 255 38 92 255 38 92 255 31 85 255 31 85 255 31 85 255 31 85 255 
230 222 179 231 223 185 213 205 156 197 190 124 214 206 161 216 208 165 218 209 158 221 215 168 194 187 119 215 209 167 214 207 154 213 205 156 192 184 114 228 222 178 223 216 171 217 209 163 132 63 191 130 62 188 141 76 196 145 82 198 137 70 194 132 63 191 129 60 188 123 58 178 105 49 153 125 59 181 132 63 191 137 70 194 125 59 181 125 59 181 137 70 194 144 80 198 185 88 194 184 85 193 191 103 199 194 110 202 188 96 196 185 88 194 182 80 192 178 72 188 156 60 164 180 75 189 185 88 194 189 97 197 180 75 189 180 75 189 189 97 197 193 107 201 0 0 0 129 103 64 164 164 164 104 104 104 92 77 48 135 109 69 172 136 82 142 115 60 172 136 82 172 136 82 142 115 60 104 85 56 104 104 104 164 164 164 129 103 64 0 0 0 0 0 0 0 0 0 0 0 0 159 159 159 127 127 127 159 159 159 114 114 114 159 159 159 159 159 159 114 114 114 159 159 159 159 159 159 102 102 102 0 0 0 102 102 102 102 102 102 75 75 75 75 75 75 75 75 75 159 159 159 127 127 127 159 159 159 114 114 114 159 159 159 159 159 159 114 114 114 159 159 159 159 159 159 102 102 102 75 75 75 102 102 102 102 102 102 120 88 54 102 79 47 83 64 40 128 94 54 128 94 54 128 94 54 128 94 54 102 79 47 128 94 54 120 88 54 120 88 54 102 79 47 102 79 47 102 79 47 102 79 47 120 88 54 177 128 92 159 113 74 114 80 53 184 135 100 184 135 100 184 135 100 184 135 100 142 100 66 184 135 100 177 128 92 177 128 92 159 113 74 159 113 74 159 113 74 159 113 74 177 128 92 0 0 0 0 0 0 0 0 0 0 0 0 0 0 0 0 0 0 0 0 0 0 184 23 0 0 0 0 0 0 0 0 0 0 0 0 0 0 0 0 0 0 0 0 0 0 0 0 0 0 0 2 149 14 0 226 16 0 0 0 0 0 0 0 0 0 0 0 0 0 184 23 0 0 0 0 226 16 0 0 0 0 0 0 0 198 23 0 0 0 0 0 0 0 0 0 0 0 0 2 149 14 0 188 22 0 0 0 0 0 0 0 0 0 2 149 14 0 184 23 0 0 0 0 226 16 0 0 0 0 0 0 0 198 23 2 149 14 0 0 0 0 0 0 0 0 0 0 0 0 0 120 0 0 117 0 0 78 0 0 78 0 0 100 0 0 78 0 0 100 0 0 78 0 0 124 0 0 78 0 0 100 0 0 0 0 0 0 0 0 0 0 0 0 0 0 224 26 0 168 28 0 186 18 0 138 23 0 118 19 58 166 73 0 192 27 0 192 27 0 138 23 0 174 25 58 166 73 0 118 19 0 192 27 0 138 23 0 0 0 31 85 255 31 85 255 31 85 255 31 85 255 31 85 255 38 92 255 
38 92 255 61 109 255 61 109 255 61 109 255 61 109 255 61 109 255 61 109 255 38 92 255 38 92 255 31 85 255 31 85 255 31 85 255 31 85 255 31 85 255 31 85 255 38 92 255 38 92 255 61 109 255 61 109 255 61 109 255 61 109 255 61 109 255 61 109 255 38 92 255 38 92 255 31 85 255 31 85 255 31 85 255 31 85 255 31 85 255 31 85 255 38 92 255 38 92 255 61 109 255 61 109 255 61 109 255 61 109 255 61 109 255 61 109 255 38 92 255 38 92 255 31 85 255 
205 199 145 198 193 134 228 219 174 202 197 137 219 211 163 231 224 179 222 216 176 190 183 119 230 222 179 201 194 127 223 216 170 226 218 168 197 192 131 187 179 109 223 215 162 190 182 110 140 75 195 140 75 195 127 60 184 123 58 178 137 70 194 129 60 188 130 62 188 133 64 192 145 82 198 136 69 193 119 55 173 120 56 174 129 60 188 132 63 191 122 57 177 116 54 168 191 101 199 190 100 198 181 80 190 178 72 188 189 97 197 182 80 192 184 85 193 185 90 194 194 110 202 188 94 196 175 68 184 177 68 186 182 80 192 185 88 194 178 70 188 171 66 180 0 0 0 82 67 40 164 164 164 104 104 104 65 54 37 76 61 37 109 83 47 91 70 37 100 79 42 100 79 42 100 79 42 65 54 37 104 104 104 164 164 164 82 67 40 0 0 0 102 102 102 102 102 102 159 159 159 159 159 159 127 127 127 159 159 159 114 114 114 159 159 159 102 102 102 159 159 159 102 102 102 102 102 102 169 169 169 159 159 159 0 0 0 0 0 0 102 102 102 102 102 102 159 159 159 159 159 159 127 127 127 159 159 159 114 114 114 159 159 159 102 102 102 159 159 159 102 102 102 102 102 102 169 169 169 159 159 159 75 75 75 75 75 75 128 94 54 128 94 54 102 79 47 102 79 47 102 79 47 128 94 54 128 94 54 102 79 47 128 94 54 128 94 54 102 79 47 120 88 54 128 94 54 128 94 54 128 94 54 128 94 54 184 135 100 184 135 100 159 113 74 159 113 74 159 113 74 184 135 100 184 135 100 142 100 66 184 135 100 184 135 100 159 113 74 177 128 92 184 135 100 184 135 100 184 135 100 184 135 100 0 0 0 0 0 0 0 226 16 0 0 0 0 0 0 0 0 0 0 0 0 0 173 23 0 0 0 0 0 0 0 0 0 0 0 0 0 198 23 0 0 0 0 0 0 0 0 0 0 0 0 0 0 0 2 149 14 0 226 16 0 0 0 0 0 0 0 226 16 0 173 23 0 226 16 0 0 0 0 0 0 0 0 0 0 226 16 0 0 0 0 0 0 0 0 0 0 0 0 0 0 0 5 107 5 2 154 12 0 0 0 0 0 0 0 226 16 0 173 23 2 139 13 0 0 0 0 0 0 0 0 0 0 198 23 5 107 5 0 0 0 0 0 0 0 0 0 0 0 0 0 0 0 65 77 12 65 95 14 5 107 5 2 139 0 42 59 16 42 59 16 0 0 0 0 78 0 35 89 19 36 67 15 5 107 5 0 0 0 0 0 0 0 0 0 0 0 0 0 118 19 163 178 59 163 178 59 0 118 19 0 142 21 163 178 59 163 178 59 0 118 19 0 118 19 163 178 59 149 134 34 0 138 23 0 0 0 0 0 0 38 92 255 38 92 255 61 109 255 
61 109 255 61 109 255 61 109 255 31 85 255 31 85 255 31 85 255 31 85 255 38 92 255 38 92 255 38 92 255 38 92 255 61 109 255 61 109 255 38 92 255 38 92 255 61 109 255 61 109 255 61 109 255 61 109 255 31 85 255 31 85 255 31 85 255 31 85 255 38 92 255 38 92 255 38 92 255 38 92 255 61 109 255 61 109 255 38 92 255 38 92 255 61 109 255 61 109 255 61 109 255 61 109 255 31 85 255 31 85 255 31 85 255 31 85 255 38 92 255 38 92 255 38 92 255 38 92 255 61 109 255 61 109 255 
230 224 187 235 227 183 205 199 137 223 215 160 199 193 132 199 193 132 193 186 120 228 219 175 224 216 163 218 209 159 192 184 113 204 197 135 232 222 178 237 228 182 196 188 113 239 230 185 110 52 160 117 55 169 137 70 194 129 60 188 116 54 168 122 57 177 137 70 194 141 76 196 125 59 181 121 56 176 130 62 188 137 70 194 116 54 168 117 55 169 136 69 193 137 70 194 164 63 173 172 67 181 188 96 196 182 80 192 171 66 180 178 70 188 189 97 197 191 103 199 180 75 189 177 68 186 184 85 193 188 96 196 171 66 180 172 67 181 188 94 196 189 97 197 0 0 0 0 0 0 164 164 164 104 104 104 0 0 0 0 0 0 0 0 0 0 0 0 0 0 0 0 0 0 0 0 0 0 0 0 104 104 104 164 164 164 0 0 0 0 0 0 169 169 169 159 159 159 0 0 0 159 159 159 159 159 159 159 159 159 114 114 114 0 0 0 102 102 102 159 159 159 102 102 102 0 0 0 169 169 169 159 159 159 102 102 102 159 159 159 169 169 169 159 159 159 75 75 75 159 159 159 159 159 159 159 159 159 114 114 114 75 75 75 102 102 102 159 159 159 102 102 102 75 75 75 169 169 169 159 159 159 102 102 102 159 159 159 73 56 36 73 56 36 73 56 36 79 60 39 68 51 33 68 51 33 79 60 39 68 51 33 73 56 36 73 56 36 73 56 36 68 51 33 56 43 29 68 51 33 68 51 33 73 56 36 114 80 53 114 80 53 114 80 53 123 84 58 104 70 47 104 70 47 123 84 58 104 70 47 114 80 53 114 80 53 114 80 53 104 70 47 75 50 33 104 70 47 104 70 47 114 80 53 0 0 0 0 0 0 0 188 22 5 107 5 0 0 0 0 0 0 5 107 5 0 226 16 0 0 0 0 0 0 0 0 0 0 198 23 5 107 5 0 0 0 0 0 0 0 0 0 0 0 0 2 149 14 0 188 22 5 107 5 0 0 0 0 0 0 2 149 14 5 107 5 0 226 16 0 0 0 0 0 0 0 198 23 5 107 5 2 149 14 0 0 0 0 0 0 0 0 0 2 149 14 0 188 22 5 107 5 0 0 0 0 0 0 2 149 14 5 107 5 0 226 16 0 0 0 0 0 0 0 198 23 2 139 13 2 149 14 0 0 0 0 0 0 0 0 0 0 0 0 107 62 16 226 160 16 210 146 8 65 33 24 107 62 16 226 160 16 193 133 0 65 33 24 107 62 16 226 160 16 194 127 0 65 33 24 0 0 0 0 0 0 0 0 0 0 184 43 149 134 34 193 207 88 193 207 88 149 134 34 163 178 59 193 207 88 193 207 88 149 134 34 163 178 59 193 207 88 193 207 88 149 134 34 0 118 19 0 0 0 31 85 255 31 85 255 31 85 255 31 85 255 31 85 255 31 85 255 
61 109 255 31 85 255 31 85 255 31 85 255 31 85 255 31 85 255 31 85 255 31 85 255 31 85 255 31 85 255 31 85 255 31 85 255 31 85 255 31 85 255 31 85 255 31 85 255 61 109 255 31 85 255 31 85 255 31 85 255 31 85 255 31 85 255 31 85 255 31 85 255 31 85 255 31 85 255 31 85 255 31 85 255 31 85 255 31 85 255 31 85 255 31 85 255 61 109 255 31 85 255 31 85 255 31 85 255 31 85 255 31 85 255 31 85 255 31 85 255 31 85 255 31 85 255 
235 226 174 220 211 163 202 197 137 193 186 113 228 219 169 220 210 161 236 227 180 193 186 113 213 207 155 225 217 165 221 213 161 222 214 162 193 186 113 219 212 161 222 215 164 222 214 165 42 101 126 44 105 130 42 100 124 42 100 124 46 110 136 49 117 145 42 101 126 44 103 128 48 114 142 49 116 143 40 95 118 42 100 124 47 112 139 47 112 139 42 100 124 41 98 121 217 117 51 218 121 56 217 115 47 217 117 51 219 125 63 221 131 71 217 119 53 218 120 54 221 129 67 220 130 70 212 109 40 217 115 47 219 125 63 219 125 63 217 115 47 216 113 44 19 13 11 19 13 11 26 20 16 19 13 11 19 13 11 19 13 11 19 13 11 19 13 11 19 13 11 19 13 11 19 13 11 19 13 11 19 13 11 26 20 16 19 13 11 19 13 11 34 26 19 34 26 19 46 37 28 34 26 19 34 26 19 34 26 19 34 26 19 34 26 19 34 26 19 34 26 19 34 26 19 34 26 19 34 26 19 46 37 28 34 26 19 34 26 19 159 159 159 152 152 152 160 160 160 156 156 156 144 144 144 156 156 156 151 151 151 148 148 148 148 148 148 148 148 148 148 148 148 154 154 154 141 141 141 143 143 143 142 142 142 96 96 96 215 203 141 200 183 122 200 183 122 200 183 122 200 183 122 215 203 141 215 203 141 215 193 133 200 183 122 215 203 141 215 203 141 215 203 141 215 203 141 215 203 141 215 203 141 186 169 115 66 66 66 66 66 66 67 67 67 67 67 67 69 69 69 72 72 72 77 77 77 78 78 78 69 69 69 78 78 78 71 71 71 69 69 69 68 68 68 66 66 66 64 64 64 63 63 63 0 0 0 0 0 0 0 0 0 64 60 60 63 59 59 68 64 64 74 70 70 75 71 71 58 55 55 74 70 70 67 63 63 63 59 59 62 58 58 0 0 0 0 0 0 0 0 0 107 63 127 107 63 127 107 63 127 107 63 127 107 63 127 107 63 127 107 63 127 107 63 127 107 63 127 107 63 127 107 63 127 107 63 127 107 63 127 107 63 127 107 63 127 107 63 127 107 63 127 107 63 127 107 63 127 107 63 127 107 63 127 107 63 127 107 63 127 107 63 127 107 63 127 107 63 127 107 63 127 107 63 127 107 63 127 107 63 127 107 63 127 107 63 127 107 63 127 107 63 127 107 63 127 107 63 127 107 63 127 107 63 127 107 63 127 107 63 127 107 63 127 107 63 127 107 63 127 107 63 127 107 63 127 107 63 127 107 63 127 107 63 127 107 63 127 107 63 127 107 63 127 
107 63 127 107 63 127 107 63 127 107 63 127 107 63 127 107 63 127 107 63 127 107 63 127 107 63 127 107 63 127 107 63 127 107 63 127 107 63 127 107 63 127 107 63 127 107 63 127 107 63 127 107 63 127 107 63 127 107 63 127 107 63 127 107 63 127 107 63 127 107 63 127 107 63 127 107 63 127 107 63 127 107 63 127 107 63 127 61 109 255 38 92 255 38 92 255 31 85 255 31 85 255 31 85 255 38 92 255 38 92 255 38 92 255 38 92 255 38 92 255 38 92 255 61 109 255 61 109 255 61 109 255 61 109 255 61 109 255 38 92 255 38 92 255 31 85 255 31 85 255 31 85 255 38 92 255 38 92 255 38 92 255 38 92 255 38 92 255 38 92 255 61 109 255 61 109 255 61 109 255 61 109 255 
230 220 174 193 186 113 220 210 162 224 214 165 193 186 113 213 202 156 214 205 155 193 186 113 220 214 158 221 214 161 210 203 152 213 205 155 212 206 154 193 186 113 193 186 113 231 224 176 46 111 138 48 114 142 54 126 156 54 128 158 50 119 148 49 116 143 45 107 133 45 107 133 42 100 124 41 98 121 44 103 128 45 107 133 37 89 111 41 98 121 44 105 130 45 108 135 219 125 63 221 129 67 223 139 83 224 140 84 221 132 73 220 130 70 219 123 59 219 123 59 217 117 51 216 113 44 218 120 54 219 123 59 207 105 37 217 115 47 218 121 56 219 123 59 19 13 11 40 32 28 19 13 11 46 22 4 142 82 46 72 38 16 80 51 32 26 20 16 19 13 11 81 67 57 156 94 56 61 32 11 139 83 45 19 13 11 40 32 28 19 13 11 34 26 19 68 58 48 34 26 19 79 47 7 237 161 78 235 188 139 136 99 55 46 37 28 34 26 19 138 120 96 245 179 109 103 67 20 232 161 77 34 26 19 68 58 48 34 26 19 156 156 156 136 136 136 136 136 136 136 136 136 121 121 121 106 106 106 114 114 114 114 114 114 114 114 114 106 106 106 106 106 106 127 127 127 127 127 127 127 127 127 123 123 123 97 97 97 215 203 141 215 203 141 215 193 133 184 168 117 215 193 133 215 193 133 200 183 122 200 183 122 200 183 122 200 183 122 200 183 122 215 193 133 200 183 122 215 193 133 215 203 141 186 169 115 64 64 64 67 67 67 73 73 73 74 74 74 76 76 76 77 77 77 71 71 71 72 72 72 71 71 71 77 77 77 76 76 76 74 74 74 65 65 65 68 68 68 66 66 66 60 60 60 0 0 0 0 0 0 0 0 0 73 69 69 74 70 70 74 70 70 64 60 60 64 60 60 64 60 60 74 70 70 74 70 70 73 69 69 56 53 53 0 0 0 0 0 0 0 0 0 107 63 127 214 127 255 214 127 255 214 127 255 214 127 255 214 127 255 214 127 255 214 127 255 214 127 255 214 127 255 214 127 255 214 127 255 214 127 255 214 127 255 214 127 255 214 127 255 107 63 127 214 127 255 214 127 255 214 127 255 214 127 255 214 127 255 214 127 255 214 127 255 214 127 255 214 127 255 214 127 255 214 127 255 214 127 255 214 127 255 214 127 255 214 127 255 107 63 127 214 127 255 214 127 255 214 127 255 214 127 255 214 127 255 214 127 255 214 127 255 214 127 255 214 127 255 214 127 255 214 127 255 214 127 255 214 127 255 
214 127 255 214 127 255 107 63 127 214 127 255 214 127 255 214 127 255 214 127 255 214 127 255 214 127 255 214 127 255 214 127 255 214 127 255 214 127 255 214 127 255 214 127 255 214 127 255 214 127 255 214 127 255 107 63 127 214 127 255 214 127 255 214 127 255 214 127 255 214 127 255 214 127 255 214 127 255 214 127 255 214 127 255 214 127 255 214 127 255 214 127 255 214 127 255 214 127 255 214 127 255 31 85 255 38 92 255 61 109 255 61 109 255 61 109 255 61 109 255 61 109 255 61 109 255 61 109 255 61 109 255 61 109 255 38 92 255 38 92 255 38 92 255 31 85 255 31 85 255 31 85 255 38 92 255 61 109 255 61 109 255 61 109 255 61 109 255 61 109 255 61 109 255 61 109 255 61 109 255 61 109 255 38 92 255 38 92 255 38 92 255 31 85 255 31 85 255 
202 197 137 224 215 164 219 211 159 193 186 113 193 186 113 211 202 156 206 197 147 209 202 146 193 186 113 208 200 148 206 199 145 228 223 165 193 186 113 236 230 175 224 217 163 193 186 113 50 119 148 51 120 149 45 107 133 45 108 135 51 123 153 51 120 149 47 112 139 45 107 133 49 116 143 51 120 149 49 116 143 49 116 143 52 124 154 54 126 156 49 116 143 48 114 142 221 132 73 221 133 75 219 123 59 219 123 59 222 136 78 221 133 75 219 125 63 219 123 59 220 130 70 221 133 75 220 130 70 220 130 70 222 136 78 223 139 83 220 130 70 221 129 67 26 20 16 19 13 11 79 42 17 113 63 33 119 67 35 146 86 50 72 38 16 40 32 28 19 13 11 81 67 57 139 80 45 114 64 34 78 43 20 50 22 6 19 13 11 26 20 16 46 37 28 34 26 19 134 86 31 192 126 56 229 193 154 247 229 210 124 81 30 68 58 48 34 26 19 138 120 96 232 158 77 193 127 57 134 89 35 86 49 10 34 26 19 46 37 28 144 144 144 121 121 121 93 93 93 93 93 93 93 93 93 93 93 93 93 93 93 93 93 93 93 93 93 93 93 93 93 93 93 93 93 93 106 106 106 115 115 115 116 116 116 93 93 93 215 203 141 215 203 141 200 183 122 200 183 122 200 183 122 200 183 122 215 193 133 215 193 133 184 168 117 215 203 141 215 203 141 215 193 133 215 203 141 215 203 141 215 203 141 186 169 115 64 64 64 61 61 61 67 67 67 68 68 68 66 66 66 70 70 70 71 71 71 71 71 71 77 77 77 70 70 70 72 72 72 71 71 71 69 69 69 71 71 71 64 64 64 61 61 61 0 0 0 0 0 0 0 0 0 63 59 59 58 54 54 63 59 59 63 59 59 63 59 59 60 57 57 63 59 59 68 63 64 67 63 63 66 62 62 0 0 0 0 0 0 0 0 0 107 63 127 214 127 255 214 127 255 214 127 255 214 127 255 214 127 255 214 127 255 214 127 255 214 127 255 214 127 255 214 127 255 214 127 255 214 127 255 214 127 255 214 127 255 214 127 255 107 63 127 214 127 255 214 127 255 214 127 255 214 127 255 214 127 255 214 127 255 214 127 255 214 127 255 214 127 255 214 127 255 214 127 255 214 127 255 214 127 255 214 127 255 214 127 255 107 63 127 214 127 255 214 127 255 214 127 255 214 127 255 214 127 255 214 127 255 214 127 255 214 127 255 214 127 255 214 127 255 214 127 255 214 127 255 214 127 255 214 127 255 
214 127 255 107 63 127 214 127 255 214 127 255 214 127 255 214 127 255 214 127 255 214 127 255 214 127 255 214 127 255 214 127 255 214 127 255 214 127 255 214 127 255 214 127 255 214 127 255 214 127 255 107 63 127 214 127 255 214 127 255 214 127 255 214 127 255 214 127 255 214 127 255 214 127 255 214 127 255 214 127 255 214 127 255 214 127 255 214 127 255 214 127 255 214 127 255 214 127 255 31 85 255 31 85 255 38 92 255 38 92 255 38 92 255 61 109 255 38 92 255 38 92 255 38 92 255 38 92 255 31 85 255 61 109 255 61 109 255 31 85 255 31 85 255 31 85 255 31 85 255 31 85 255 38 92 255 38 92 255 38 92 255 61 109 255 38 92 255 38 92 255 38 92 255 38 92 255 31 85 255 61 109 255 61 109 255 31 85 255 31 85 255 31 85 255 
202 197 137 221 213 159 193 186 113 232 223 178 232 223 178 193 186 113 217 209 157 222 213 164 208 202 139 212 205 150 215 208 154 193 186 113 232 223 178 229 223 166 216 208 158 211 202 151 46 111 138 44 105 130 49 117 145 51 120 149 45 107 133 45 106 131 46 110 136 51 120 149 42 101 126 45 107 133 51 120 149 51 120 149 46 111 138 44 105 130 54 128 158 51 120 149 219 125 63 218 121 56 221 131 71 221 133 75 219 123 59 218 121 56 219 125 63 221 133 75 217 119 53 219 123 59 221 133 75 221 133 75 219 125 63 218 121 56 224 140 84 221 133 75 19 13 11 46 22 4 119 67 35 127 74 39 146 86 50 121 67 35 48 24 6 26 20 16 19 13 11 41 19 3 132 75 40 107 58 29 110 63 34 78 41 18 75 40 17 19 13 11 34 26 19 80 48 8 198 130 58 186 120 50 247 229 210 201 132 59 83 50 11 46 37 28 34 26 19 72 43 4 221 148 70 179 117 50 255 255 255 131 83 31 126 82 30 34 26 19 151 151 151 114 114 114 93 93 93 159 159 159 151 151 151 151 151 151 151 151 151 156 156 156 151 151 151 136 136 136 156 156 156 156 156 156 96 96 96 143 143 143 118 118 118 95 95 95 158 139 97 158 139 97 158 139 97 165 148 103 165 148 103 165 148 103 165 148 103 165 148 103 165 148 103 165 148 103 158 139 97 158 139 97 158 139 97 158 139 97 165 148 103 165 148 103 63 63 63 67 67 67 67 67 67 70 70 70 69 69 69 67 67 67 71 71 71 75 75 75 72 72 72 71 71 71 69 69 69 68 68 68 65 65 65 64 64 64 62 62 62 61 61 61 0 0 0 0 0 0 0 0 0 67 63 63 68 64 64 58 55 55 67 63 63 59 56 56 81 77 77 67 63 63 63 59 59 62 58 58 62 58 58 0 0 0 0 0 0 0 0 0 107 63 127 214 127 255 214 127 255 214 127 255 214 127 255 214 127 255 214 127 255 214 127 255 214 127 255 214 127 255 214 127 255 214 127 255 214 127 255 214 127 255 214 127 255 214 127 255 107 63 127 214 127 255 214 127 255 214 127 255 214 127 255 214 127 255 214 127 255 214 127 255 214 127 255 214 127 255 214 127 255 214 127 255 214 127 255 214 127 255 214 127 255 214 127 255 107 63 127 214 127 255 214 127 255 214 127 255 214 127 255 214 127 255 214 127 255 214 127 255 214 127 255 214 127 255 214 127 255 214 127 255 214 127 255 214 127 255 
214 127 255 214 127 255 107 63 127 214 127 255 214 127 255 214 127 255 214 127 255 214 127 255 214 127 255 214 127 255 214 127 255 214 127 255 214 127 255 214 127 255 214 127 255 214 127 255 214 127 255 214 127 255 107 63 127 214 127 255 214 127 255 214 127 255 214 127 255 214 127 255 214 127 255 214 127 255 214 127 255 214 127 255 214 127 255 214 127 255 214 127 255 214 127 255 214 127 255 214 127 255 31 85 255 61 109 255 61 109 255 38 92 255 38 92 255 61 109 255 61 109 255 61 109 255 61 109 255 31 85 255 31 85 255 31 85 255 31 85 255 31 85 255 38 92 255 38 92 255 31 85 255 61 109 255 61 109 255 38 92 255 38 92 255 61 109 255 61 109 255 61 109 255 61 109 255 31 85 255 31 85 255 31 85 255 31 85 255 31 85 255 38 92 255 38 92 255 
217 209 157 193 186 113 232 223 178 216 208 165 215 207 153 208 202 139 236 227 180 236 227 180 193 186 113 202 197 137 202 197 137 232 223 178 226 218 165 225 217 164 217 209 159 220 211 160 48 114 142 45 108 135 42 101 126 46 111 138 49 117 145 49 117 145 40 95 118 38 92 114 44 103 128 47 112 139 44 103 128 42 99 122 49 117 145 49 117 145 42 100 124 40 95 118 221 129 67 219 123 59 217 119 53 219 125 63 221 131 71 221 131 71 212 109 40 210 107 38 218 120 54 219 125 63 218 120 54 217 115 47 221 131 71 221 131 71 217 115 47 212 109 40 19 13 11 158 93 54 141 82 47 139 80 45 121 67 35 60 34 16 26 20 16 50 24 6 77 51 33 19 13 11 73 39 17 115 65 35 140 80 44 142 82 46 141 84 49 19 13 11 34 26 19 247 181 109 235 160 78 223 149 70 241 166 88 103 68 26 46 37 28 86 51 10 132 97 56 34 26 19 125 84 31 195 128 57 250 210 169 255 236 210 234 161 83 34 26 19 148 148 148 105 105 105 93 93 93 159 159 159 115 115 115 127 127 127 127 127 127 121 121 121 121 121 121 115 115 115 115 115 115 106 106 106 96 96 96 143 143 143 121 121 121 93 93 93 215 203 141 200 183 122 200 183 122 200 183 122 200 183 122 215 203 141 215 203 141 186 169 115 215 203 141 200 183 122 200 183 122 184 168 117 215 193 133 215 193 133 215 193 133 215 203 141 63 63 63 69 69 69 71 71 71 67 67 67 69 69 69 69 69 69 67 67 67 67 67 67 68 68 68 68 68 68 76 76 76 73 73 73 70 70 70 71 71 71 68 68 68 56 56 56 0 0 0 0 0 0 0 0 0 63 59 58 63 59 59 63 59 59 51 48 47 76 73 73 62 58 58 51 48 48 74 69 69 73 69 69 72 68 68 0 0 0 0 0 0 0 0 0 107 63 127 214 127 255 214 127 255 214 127 255 214 127 255 214 127 255 214 127 255 214 127 255 214 127 255 214 127 255 214 127 255 214 127 255 214 127 255 214 127 255 214 127 255 214 127 255 107 63 127 214 127 255 214 127 255 214 127 255 214 127 255 214 127 255 214 127 255 214 127 255 214 127 255 214 127 255 214 127 255 214 127 255 214 127 255 214 127 255 214 127 255 214 127 255 107 63 127 214 127 255 214 127 255 214 127 255 214 127 255 214 127 255 214 127 255 214 127 255 214 127 255 214 127 255 214 127 255 214 127 255 214 127 255 
214 127 255 214 127 255 214 127 255 107 63 127 214 127 255 214 127 255 214 127 255 214 127 255 214 127 255 214 127 255 214 127 255 214 127 255 214 127 255 214 127 255 214 127 255 214 127 255 214 127 255 214 127 255 214 127 255 107 63 127 214 127 255 214 127 255 214 127 255 214 127 255 214 127 255 214 127 255 214 127 255 214 127 255 214 127 255 214 127 255 214 127 255 214 127 255 214 127 255 214 127 255 214 127 255 61 109 255 61 109 255 61 109 255 31 85 255 31 85 255 31 85 255 31 85 255 31 85 255 31 85 255 61 109 255 38 92 255 38 92 255 38 92 255 31 85 255 38 92 255 31 85 255 61 109 255 61 109 255 61 109 255 31 85 255 31 85 255 31 85 255 31 85 255 31 85 255 31 85 255 61 109 255 38 92 255 38 92 255 38 92 255 31 85 255 38 92 255 31 85 255 
215 207 153 193 186 113 214 206 154 216 208 165 216 208 165 208 202 139 193 186 113 193 186 113 228 221 166 220 211 164 217 208 159 193 186 113 213 203 155 216 208 157 207 198 150 210 202 152 41 98 121 39 93 115 43 102 127 51 120 149 42 101 126 38 92 114 42 101 126 44 105 130 42 101 126 38 92 114 44 105 130 45 107 133 40 96 120 44 103 128 42 100 124 45 106 131 217 115 47 210 107 38 218 120 54 221 133 75 217 119 53 210 107 38 217 117 51 218 121 56 217 119 53 210 107 38 218 121 56 219 123 59 215 109 39 218 120 54 217 117 51 218 121 56 19 13 11 141 82 47 144 85 50 112 64 32 71 39 17 26 20 16 79 52 33 127 70 35 142 76 36 81 67 57 19 13 11 50 25 6 140 80 44 140 80 44 169 115 79 19 13 11 34 26 19 247 229 210 240 165 86 190 125 55 121 77 30 46 37 28 135 101 56 188 129 59 237 153 62 138 120 96 34 26 19 88 53 11 234 158 74 255 233 207 255 211 155 34 26 19 147 147 147 114 114 114 93 93 93 144 144 144 110 110 110 112 112 112 108 108 108 107 107 107 116 116 116 116 116 116 127 127 127 114 114 114 91 91 91 156 156 156 115 115 115 97 97 97 200 183 122 200 183 122 184 168 117 215 193 133 215 193 133 215 193 133 215 203 141 186 169 115 215 193 133 215 193 133 215 193 133 215 193 133 200 183 122 200 183 122 200 183 122 200 183 122 59 59 59 62 62 62 66 66 66 69 69 69 71 71 71 66 66 66 66 66 66 68 68 68 71 71 71 65 65 65 71 71 71 68 68 68 62 62 62 64 64 64 58 58 58 61 61 61 0 0 0 0 0 0 0 0 0 67 63 63 67 63 63 63 59 59 50 47 47 63 59 59 67 63 63 46 43 43 67 63 63 67 63 63 49 46 46 0 0 0 0 0 0 0 0 0 107 63 127 214 127 255 214 127 255 214 127 255 214 127 255 214 127 255 214 127 255 214 127 255 214 127 255 214 127 255 214 127 255 214 127 255 214 127 255 214 127 255 214 127 255 214 127 255 107 63 127 214 127 255 214 127 255 214 127 255 214 127 255 214 127 255 214 127 255 214 127 255 214 127 255 214 127 255 214 127 255 214 127 255 214 127 255 214 127 255 214 127 255 214 127 255 107 63 127 214 127 255 214 127 255 214 127 255 214 127 255 214 127 255 214 127 255 214 127 255 214 127 255 214 127 255 214 127 255 214 127 255 214 127 255 
214 127 255 214 127 255 214 127 255 107 63 127 214 127 255 214 127 255 214 127 255 214 127 255 214 127 255 214 127 255 214 127 255 214 127 255 214 127 255 214 127 255 214 127 255 214 127 255 214 127 255 214 127 255 214 127 255 107 63 127 214 127 255 214 127 255 214 127 255 214 127 255 214 127 255 214 127 255 214 127 255 214 127 255 214 127 255 214 127 255 214 127 255 214 127 255 214 127 255 214 127 255 214 127 255 61 109 255 38 92 255 38 92 255 31 85 255 38 92 255 38 92 255 38 92 255 38 92 255 61 109 255 31 85 255 31 85 255 31 85 255 31 85 255 61 109 255 31 85 255 31 85 255 61 109 255 38 92 255 38 92 255 31 85 255 38 92 255 38 92 255 38 92 255 38 92 255 61 109 255 31 85 255 31 85 255 31 85 255 31 85 255 61 109 255 31 85 255 31 85 255 
193 186 113 221 213 159 216 209 158 232 223 178 214 207 153 208 202 139 193 186 113 226 219 172 193 186 113 217 209 157 225 217 164 209 203 150 202 197 137 202 197 137 232 223 178 193 186 113 54 126 156 54 128 158 50 119 148 49 117 145 46 110 136 46 110 136 45 108 135 47 112 139 50 119 148 54 128 158 48 114 142 45 107 133 54 128 158 54 128 158 49 116 143 47 112 139 223 139 83 223 139 83 221 132 73 221 131 71 219 125 63 219 125 63 219 123 59 219 125 63 221 132 73 223 139 83 221 129 67 219 123 59 224 140 84 224 140 84 220 130 70 219 125 63 19 13 11 81 67 57 117 66 35 40 18 2 26 20 16 80 65 58 132 78 46 167 108 73 151 103 71 137 82 49 74 38 16 19 13 11 50 22 6 81 67 57 73 39 17 19 13 11 34 26 19 136 119 96 196 129 58 69 41 3 46 37 28 135 116 97 222 144 60 241 209 175 218 201 183 247 229 210 126 79 27 34 26 19 86 49 10 138 120 96 125 81 28 34 26 19 141 141 141 105 105 105 93 93 93 152 152 152 127 127 127 108 108 108 93 93 93 93 93 93 93 93 93 144 144 144 127 127 127 106 106 106 91 91 91 156 156 156 120 120 120 97 97 97 215 203 141 215 203 141 215 203 141 215 193 133 215 203 141 215 203 141 215 203 141 186 169 115 200 183 122 200 183 122 184 168 117 215 203 141 215 203 141 215 203 141 215 203 141 215 203 141 64 64 64 67 67 67 65 65 65 66 66 66 67 67 67 65 65 65 72 72 72 72 72 72 70 70 70 69 69 69 70 70 70 68 68 68 68 68 68 68 68 68 66 66 66 54 54 54 0 0 0 0 0 0 0 0 0 67 63 63 53 50 50 50 47 47 59 56 56 72 69 69 67 63 63 80 77 77 53 50 50 53 50 50 85 82 82 0 0 0 0 0 0 0 0 0 107 63 127 214 127 255 214 127 255 214 127 255 214 127 255 214 127 255 214 127 255 214 127 255 214 127 255 214 127 255 214 127 255 214 127 255 214 127 255 214 127 255 214 127 255 214 127 255 107 63 127 214 127 255 214 127 255 214 127 255 214 127 255 214 127 255 214 127 255 214 127 255 214 127 255 214 127 255 214 127 255 214 127 255 214 127 255 214 127 255 214 127 255 214 127 255 107 63 127 214 127 255 214 127 255 214 127 255 214 127 255 214 127 255 214 127 255 214 127 255 214 127 255 214 127 255 214 127 255 214 127 255 214 127 255 214 127 255 
214 127 255 214 127 255 107 63 127 214 127 255 214 127 255 214 127 255 214 127 255 214 127 255 214 127 255 214 127 255 214 127 255 214 127 255 214 127 255 214 127 255 214 127 255 214 127 255 214 127 255 214 127 255 107 63 127 214 127 255 214 127 255 214 127 255 214 127 255 214 127 255 214 127 255 214 127 255 214 127 255 214 127 255 214 127 255 214 127 255 214 127 255 214 127 255 214 127 255 214 127 255 38 92 255 38 92 255 31 85 255 31 85 255 31 85 255 31 85 255 31 85 255 61 109 255 31 85 255 31 85 255 31 85 255 38 92 255 38 92 255 61 109 255 61 109 255 61 109 255 38 92 255 38 92 255 31 85 255 31 85 255 31 85 255 31 85 255 31 85 255 61 109 255 31 85 255 31 85 255 31 85 255 38 92 255 38 92 255 61 109 255 61 109 255 61 109 255 
228 220 166 193 186 113 232 223 178 208 202 139 193 186 113 193 186 113 208 200 148 208 200 147 193 186 113 224 216 164 223 215 163 222 213 162 222 213 163 231 223 168 193 186 113 230 222 168 44 105 130 44 105 130 54 126 156 54 128 158 49 116 143 48 114 142 51 120 149 51 120 149 42 100 124 44 103 128 49 117 145 51 120 149 48 114 142 48 114 142 51 122 151 51 120 149 218 121 56 218 121 56 223 139 83 224 140 84 220 130 70 221 129 67 221 133 75 221 133 75 217 117 51 218 120 54 221 131 71 221 133 75 221 129 67 221 129 67 222 134 76 221 133 75 19 13 11 26 20 16 40 32 28 26 20 16 46 23 4 115 67 35 146 93 58 151 103 71 151 103 71 153 100 65 116 68 36 38 17 2 26 20 16 40 32 28 26 20 16 19 13 11 34 26 19 46 37 28 68 58 48 46 37 28 79 47 7 193 131 59 241 209 175 241 207 162 205 140 65 195 132 59 194 134 62 66 38 2 46 37 28 68 58 48 46 37 28 34 26 19 151 151 151 114 114 114 93 93 93 144 144 144 110 110 110 108 108 108 93 93 93 95 95 95 93 93 93 153 153 153 115 115 115 106 106 106 91 91 91 156 156 156 120 120 120 93 93 93 165 148 103 165 148 103 158 139 97 158 139 97 158 139 97 158 139 97 158 139 97 165 148 103 165 148 103 165 148 103 158 139 97 158 139 97 158 139 97 158 139 97 165 148 103 165 148 103 59 59 59 62 62 62 64 64 64 63 63 63 64 64 64 64 64 64 66 66 66 65 65 65 66 66 66 64 64 64 65 65 65 65 65 65 63 63 63 62 62 62 62 62 62 59 59 59 0 0 0 0 0 0 0 0 0 49 46 46 75 72 72 76 73 72 76 73 73 50 47 47 62 58 58 46 43 43 75 71 72 74 71 71 62 58 58 0 0 0 0 0 0 0 0 0 107 63 127 214 127 255 214 127 255 214 127 255 214 127 255 214 127 255 214 127 255 214 127 255 214 127 255 214 127 255 214 127 255 214 127 255 214 127 255 214 127 255 214 127 255 214 127 255 107 63 127 214 127 255 214 127 255 214 127 255 214 127 255 214 127 255 214 127 255 214 127 255 214 127 255 214 127 255 214 127 255 214 127 255 214 127 255 214 127 255 214 127 255 214 127 255 107 63 127 214 127 255 214 127 255 214 127 255 214 127 255 214 127 255 214 127 255 214 127 255 214 127 255 214 127 255 214 127 255 214 127 255 214 127 255 214 127 255 214 127 255 
214 127 255 107 63 127 214 127 255 214 127 255 214 127 255 214 127 255 214 127 255 214 127 255 214 127 255 214 127 255 214 127 255 214 127 255 214 127 255 214 127 255 214 127 255 214 127 255 214 127 255 107 63 127 214 127 255 214 127 255 214 127 255 214 127 255 214 127 255 214 127 255 214 127 255 214 127 255 214 127 255 214 127 255 214 127 255 214 127 255 214 127 255 214 127 255 214 127 255 31 85 255 38 92 255 61 109 255 61 109 255 61 109 255 38 92 255 38 92 255 38 92 255 31 85 255 38 92 255 38 92 255 61 109 255 61 109 255 38 92 255 38 92 255 31 85 255 31 85 255 38 92 255 61 109 255 61 109 255 61 109 255 38 92 255 38 92 255 38 92 255 31 85 255 38 92 255 38 92 255 61 109 255 61 109 255 38 92 255 38 92 255 31 85 255 
210 204 150 209 201 147 193 186 113 219 210 161 225 216 165 226 217 167 202 197 137 215 207 157 219 209 161 193 186 113 193 186 113 217 208 157 234 228 177 193 186 113 220 211 160 212 206 150 49 116 143 49 116 143 41 98 121 44 103 128 51 120 149 48 114 142 42 101 126 45 106 131 44 103 128 45 107 133 44 103 128 40 96 120 46 110 136 45 107 133 42 100 124 42 99 122 220 130 70 220 130 70 217 115 47 218 120 54 221 133 75 221 129 67 217 119 53 218 121 56 218 120 54 219 123 59 218 120 54 215 109 39 219 125 63 219 123 59 217 115 47 217 115 47 19 13 11 19 13 11 19 13 11 19 13 11 79 51 31 176 120 78 155 96 61 147 92 59 176 116 80 176 116 76 141 85 47 69 34 13 19 13 11 19 13 11 19 13 11 19 13 11 34 26 19 34 26 19 34 26 19 34 26 19 134 100 55 255 220 161 225 154 70 198 137 65 255 217 164 255 216 156 234 164 81 118 72 22 34 26 19 34 26 19 34 26 19 34 26 19 141 141 141 105 105 105 93 93 93 144 144 144 121 121 121 121 121 121 93 93 93 93 93 93 93 93 93 144 144 144 127 127 127 106 106 106 91 91 91 143 143 143 120 120 120 95 95 95 215 203 141 215 203 141 215 203 141 215 203 141 215 203 141 184 168 117 200 183 122 215 203 141 215 203 141 215 193 133 215 193 133 215 193 133 215 203 141 215 203 141 215 203 141 186 169 115 58 58 58 64 64 64 67 67 67 59 59 59 70 70 70 63 63 63 67 67 67 67 67 67 67 67 67 71 71 71 71 71 71 70 70 70 69 69 69 67 67 67 65 65 65 62 62 62 0 0 0 0 0 0 0 0 0 70 67 67 71 67 67 61 57 57 66 62 62 80 76 76 53 50 50 86 82 82 71 67 67 71 67 67 72 68 68 0 0 0 0 0 0 0 0 0 107 63 127 214 127 255 214 127 255 214 127 255 214 127 255 214 127 255 214 127 255 214 127 255 214 127 255 214 127 255 214 127 255 214 127 255 214 127 255 214 127 255 214 127 255 214 127 255 107 63 127 214 127 255 214 127 255 214 127 255 214 127 255 214 127 255 214 127 255 214 127 255 214 127 255 214 127 255 214 127 255 214 127 255 214 127 255 214 127 255 214 127 255 214 127 255 107 63 127 214 127 255 214 127 255 214 127 255 214 127 255 214 127 255 214 127 255 214 127 255 214 127 255 214 127 255 214 127 255 214 127 255 214 127 255 214 127 255 
214 127 255 214 127 255 107 63 127 214 127 255 214 127 255 214 127 255 214 127 255 214 127 255 214 127 255 214 127 255 214 127 255 214 127 255 214 127 255 214 127 255 214 127 255 214 127 255 214 127 255 214 127 255 107 63 127 214 127 255 214 127 255 214 127 255 214 127 255 214 127 255 214 127 255 214 127 255 214 127 255 214 127 255 214 127 255 214 127 255 214 127 255 214 127 255 214 127 255 214 127 255 38 92 255 38 92 255 61 109 255 38 92 255 38 92 255 38 92 255 38 92 255 38 92 255 38 92 255 31 85 255 31 85 255 31 85 255 31 85 255 31 85 255 31 85 255 31 85 255 38 92 255 38 92 255 61 109 255 38 92 255 38 92 255 38 92 255 38 92 255 38 92 255 38 92 255 31 85 255 31 85 255 31 85 255 31 85 255 31 85 255 31 85 255 31 85 255 
214 207 153 218 212 154 202 197 137 208 201 148 219 210 160 221 212 163 192 186 120 208 200 149 226 218 165 212 205 151 207 199 145 193 186 113 197 189 117 202 197 137 224 217 166 214 207 154 44 103 128 45 107 133 45 106 131 50 119 148 39 93 115 40 95 118 45 107 133 48 113 140 42 101 126 48 114 142 54 128 158 54 128 158 45 108 135 49 116 143 54 128 158 54 126 156 218 120 54 219 123 59 218 121 56 221 132 73 210 107 38 212 109 40 219 123 59 219 127 65 217 119 53 221 129 67 224 140 84 224 140 84 219 123 59 220 130 70 224 140 84 223 139 83 19 13 11 77 66 55 78 53 34 46 23 6 19 13 11 81 67 57 170 117 82 143 89 57 168 102 62 176 116 76 69 34 13 19 13 11 71 39 17 81 67 57 79 51 31 19 13 11 34 26 19 134 118 92 134 101 57 79 48 9 34 26 19 138 120 96 255 217 163 189 129 58 233 163 80 247 229 210 254 205 147 34 26 19 120 78 28 138 120 96 134 99 53 34 26 19 148 148 148 105 105 105 93 93 93 144 144 144 110 110 110 121 121 121 150 150 150 153 153 153 150 150 150 144 144 144 115 115 115 106 106 106 91 91 91 151 151 151 118 118 118 93 93 93 200 183 122 200 183 122 200 183 122 200 183 122 200 183 122 215 203 141 215 193 133 215 193 133 200 183 122 200 183 122 200 183 122 184 168 117 215 203 141 200 183 122 200 183 122 186 169 115 57 57 57 57 57 57 60 60 60 61 61 61 63 63 63 62 62 62 62 62 62 66 66 66 62 62 62 66 66 66 66 66 66 62 62 62 62 62 62 60 60 60 64 64 64 57 57 57 0 0 0 0 0 0 0 0 0 60 56 56 60 56 56 61 57 57 61 57 57 66 62 62 44 42 42 65 61 61 65 61 61 60 56 56 61 57 57 0 0 0 0 0 0 0 0 0 107 63 127 214 127 255 214 127 255 214 127 255 214 127 255 214 127 255 214 127 255 214 127 255 214 127 255 214 127 255 214 127 255 214 127 255 214 127 255 214 127 255 214 127 255 214 127 255 107 63 127 214 127 255 214 127 255 214 127 255 214 127 255 214 127 255 214 127 255 214 127 255 214 127 255 214 127 255 214 127 255 214 127 255 214 127 255 214 127 255 214 127 255 214 127 255 107 63 127 214 127 255 214 127 255 214 127 255 214 127 255 214 127 255 214 127 255 214 127 255 214 127 255 214 127 255 214 127 255 214 127 255 214 127 255 
214 127 255 214 127 255 214 127 255 107 63 127 214 127 255 214 127 255 214 127 255 214 127 255 214 127 255 214 127 255 214 127 255 214 127 255 214 127 255 214 127 255 214 127 255 214 127 255 214 127 255 214 127 255 214 127 255 107 63 127 214 127 255 214 127 255 214 127 255 214 127 255 214 127 255 214 127 255 214 127 255 214 127 255 214 127 255 214 127 255 214 127 255 214 127 255 214 127 255 214 127 255 214 127 255 31 85 255 31 85 255 31 85 255 31 85 255 31 85 255 31 85 255 61 109 255 61 109 255 61 109 255 61 109 255 38 92 255 61 109 255 61 109 255 38 92 255 38 92 255 38 92 255 31 85 255 31 85 255 31 85 255 31 85 255 31 85 255 31 85 255 61 109 255 61 109 255 61 109 255 61 109 255 38 92 255 61 109 255 61 109 255 38 92 255 38 92 255 38 92 255 
210 203 148 193 186 113 212 205 150 211 204 152 223 214 164 225 216 165 193 186 113 218 211 160 221 213 160 215 207 153 193 186 113 236 227 180 221 214 165 202 197 137 225 218 166 221 214 157 51 120 149 51 122 151 49 116 143 49 116 143 54 128 158 51 120 149 49 116 143 48 114 142 51 122 151 50 119 148 45 107 133 47 112 139 48 114 142 46 110 136 42 100 124 46 111 138 221 133 75 222 134 76 220 130 70 220 130 70 223 139 83 221 133 75 220 130 70 221 129 67 222 134 76 221 132 73 219 123 59 219 125 63 221 129 67 219 125 63 217 115 47 219 125 63 19 13 11 61 39 23 137 76 43 112 60 32 48 23 6 19 13 11 72 39 14 69 34 13 115 67 35 63 39 25 19 13 11 102 56 28 110 60 30 129 73 39 139 81 43 19 13 11 34 26 19 103 77 39 231 151 73 188 119 53 84 50 10 34 26 19 121 80 25 158 104 42 195 129 59 109 77 42 34 26 19 172 112 47 185 120 51 247 229 210 234 158 74 34 26 19 151 151 151 114 114 114 93 93 93 156 156 156 115 115 115 121 121 121 136 136 136 115 115 115 136 136 136 115 115 115 115 115 115 106 106 106 91 91 91 151 151 151 122 122 122 96 96 96 215 203 141 215 193 133 215 193 133 215 193 133 215 203 141 215 203 141 200 183 122 200 183 122 200 183 122 200 183 122 215 193 133 215 193 133 215 193 133 215 193 133 215 193 133 186 169 115 57 57 57 59 59 59 65 65 65 61 61 61 62 62 62 68 68 68 67 67 67 61 61 61 59 59 59 62 62 62 69 69 69 68 68 68 67 67 67 62 62 62 59 59 59 57 57 57 0 0 0 0 0 0 0 0 0 60 56 56 60 56 56 71 67 67 71 67 67 61 57 57 44 42 42 60 56 56 71 67 67 71 67 67 71 67 67 0 0 0 0 0 0 0 0 0 107 63 127 214 127 255 214 127 255 214 127 255 214 127 255 214 127 255 214 127 255 214 127 255 214 127 255 214 127 255 214 127 255 214 127 255 214 127 255 214 127 255 214 127 255 214 127 255 107 63 127 214 127 255 214 127 255 214 127 255 214 127 255 214 127 255 214 127 255 214 127 255 214 127 255 214 127 255 214 127 255 214 127 255 214 127 255 214 127 255 214 127 255 214 127 255 107 63 127 214 127 255 214 127 255 214 127 255 214 127 255 214 127 255 214 127 255 214 127 255 214 127 255 214 127 255 214 127 255 214 127 255 214 127 255 
214 127 255 214 127 255 214 127 255 107 63 127 214 127 255 214 127 255 214 127 255 214 127 255 214 127 255 214 127 255 214 127 255 214 127 255 214 127 255 214 127 255 214 127 255 214 127 255 214 127 255 214 127 255 214 127 255 107 63 127 214 127 255 214 127 255 214 127 255 214 127 255 214 127 255 214 127 255 214 127 255 214 127 255 214 127 255 214 127 255 214 127 255 214 127 255 214 127 255 214 127 255 214 127 255 31 85 255 38 92 255 61 109 255 61 109 255 61 109 255 38 92 255 38 92 255 61 109 255 61 109 255 31 85 255 31 85 255 61 109 255 38 92 255 31 85 255 31 85 255 31 85 255 31 85 255 38 92 255 61 109 255 61 109 255 61 109 255 38 92 255 38 92 255 61 109 255 61 109 255 31 85 255 31 85 255 61 109 255 38 92 255 31 85 255 31 85 255 31 85 255 
193 186 113 236 227 180 236 227 180 225 217 162 216 208 159 225 216 165 227 218 166 193 186 113 212 204 152 236 227 180 193 186 113 236 227 180 220 211 163 193 186 113 220 213 160 219 212 160 42 100 124 42 101 126 48 113 140 48 113 140 44 105 130 45 106 131 49 117 145 49 116 143 42 100 124 42 101 126 44 103 128 48 114 142 39 93 115 39 93 115 45 106 131 48 114 142 217 115 47 217 119 53 219 127 65 219 127 65 218 121 56 218 121 56 221 131 71 220 130 70 217 117 51 217 119 53 218 120 54 221 129 67 210 107 38 210 107 38 218 121 56 221 129 67 19 13 11 77 38 15 82 41 16 137 88 55 141 89 57 50 25 6 19 13 11 37 17 1 65 34 11 19 13 11 50 25 8 133 76 41 176 117 78 129 73 39 107 58 31 19 13 11 34 26 19 131 83 26 139 86 30 178 119 49 188 119 53 88 53 11 34 26 19 66 39 2 108 69 19 34 26 19 88 54 13 222 148 69 216 142 65 216 143 67 183 119 51 34 26 19 156 156 156 115 115 115 93 93 93 156 156 156 105 105 105 114 114 114 114 114 114 105 105 105 105 105 105 106 106 106 106 106 106 106 106 106 91 91 91 143 143 143 118 118 118 95 95 95 165 148 103 158 139 97 165 148 103 165 148 103 158 139 97 158 139 97 158 139 97 165 148 103 165 148 103 165 148 103 165 148 103 165 148 103 158 139 97 158 139 97 158 139 97 165 148 103 51 51 51 59 59 59 61 61 61 63 63 63 61 61 61 63 63 63 62 62 62 61 61 61 65 65 65 65 65 65 63 63 63 63 63 63 63 63 63 65 65 65 63 63 63 52 52 52 0 0 0 0 0 0 0 0 0 65 61 61 60 56 56 52 48 48 52 48 48 52 48 48 84 81 81 71 67 67 64 60 60 64 60 60 64 60 60 0 0 0 0 0 0 0 0 0 107 63 127 214 127 255 214 127 255 214 127 255 214 127 255 214 127 255 214 127 255 214 127 255 214 127 255 214 127 255 214 127 255 214 127 255 214 127 255 214 127 255 214 127 255 214 127 255 107 63 127 214 127 255 214 127 255 214 127 255 214 127 255 214 127 255 214 127 255 214 127 255 214 127 255 214 127 255 214 127 255 214 127 255 214 127 255 214 127 255 214 127 255 214 127 255 107 63 127 214 127 255 214 127 255 214 127 255 214 127 255 214 127 255 214 127 255 214 127 255 214 127 255 214 127 255 214 127 255 214 127 255 214 127 255 214 127 255 
214 127 255 214 127 255 107 63 127 214 127 255 214 127 255 214 127 255 214 127 255 214 127 255 214 127 255 214 127 255 214 127 255 214 127 255 214 127 255 214 127 255 214 127 255 214 127 255 214 127 255 214 127 255 107 63 127 214 127 255 214 127 255 214 127 255 214 127 255 214 127 255 214 127 255 214 127 255 214 127 255 214 127 255 214 127 255 214 127 255 214 127 255 214 127 255 214 127 255 214 127 255 31 85 255 31 85 255 31 85 255 31 85 255 31 85 255 31 85 255 31 85 255 31 85 255 31 85 255 31 85 255 31 85 255 31 85 255 31 85 255 31 85 255 31 85 255 31 85 255 31 85 255 31 85 255 31 85 255 31 85 255 31 85 255 31 85 255 31 85 255 31 85 255 31 85 255 31 85 255 31 85 255 31 85 255 31 85 255 31 85 255 31 85 255 31 85 255 
223 214 164 202 197 137 193 186 113 225 218 171 202 197 137 202 197 137 193 186 113 211 205 151 210 203 145 193 186 113 236 227 180 219 212 155 213 205 150 223 216 161 193 186 113 202 197 137 45 106 131 44 105 130 39 93 115 40 95 118 51 120 149 51 123 153 42 99 122 38 92 114 46 110 136 49 117 145 47 112 139 49 116 143 54 128 158 54 128 158 48 114 142 40 96 120 218 121 56 218 121 56 210 107 38 212 109 40 221 133 75 222 136 78 217 115 47 210 107 38 219 125 63 221 131 71 219 125 63 220 130 70 224 140 84 224 140 84 221 129 67 215 109 39 19 13 11 65 34 11 139 84 47 115 64 33 170 117 82 135 78 47 50 25 6 26 20 16 19 13 11 52 29 12 132 76 42 111 61 31 176 117 78 173 117 83 133 78 45 19 13 11 34 26 19 255 209 151 233 163 80 194 130 56 255 217 163 247 214 174 88 53 11 46 37 28 34 26 19 91 60 21 221 149 72 187 123 54 247 201 138 255 237 210 223 152 77 34 26 19 148 148 148 121 121 121 106 106 106 93 93 93 91 91 91 91 91 91 91 91 91 91 91 91 91 91 91 91 91 91 91 91 91 91 91 91 91 91 91 151 151 151 115 115 115 93 93 93 215 203 141 215 203 141 215 203 141 215 203 141 215 203 141 200 183 122 215 203 141 186 169 115 200 183 122 184 168 117 200 183 122 200 183 122 215 193 133 215 203 141 215 203 141 215 203 141 57 57 57 57 57 57 59 59 59 60 60 60 61 61 61 59 59 59 58 58 58 58 58 58 64 64 64 65 65 65 60 60 60 60 60 60 61 61 61 59 59 59 58 58 58 58 58 58 0 0 0 0 0 0 0 0 0 60 56 56 60 56 56 74 71 71 74 70 70 74 70 70 57 53 53 70 66 66 60 56 56 60 56 56 60 56 56 0 0 0 0 0 0 0 0 0 107 63 127 214 127 255 214 127 255 214 127 255 214 127 255 214 127 255 214 127 255 214 127 255 214 127 255 214 127 255 214 127 255 214 127 255 214 127 255 214 127 255 214 127 255 214 127 255 107 63 127 214 127 255 214 127 255 214 127 255 214 127 255 214 127 255 214 127 255 214 127 255 214 127 255 214 127 255 214 127 255 214 127 255 214 127 255 214 127 255 214 127 255 214 127 255 107 63 127 214 127 255 214 127 255 214 127 255 214 127 255 214 127 255 214 127 255 214 127 255 214 127 255 214 127 255 214 127 255 214 127 255 214 127 255 214 127 255 214 127 255 
214 127 255 107 63 127 214 127 255 214 127 255 214 127 255 214 127 255 214 127 255 214 127 255 214 127 255 214 127 255 214 127 255 214 127 255 214 127 255 214 127 255 214 127 255 214 127 255 214 127 255 107 63 127 214 127 255 214 127 255 214 127 255 214 127 255 214 127 255 214 127 255 214 127 255 214 127 255 214 127 255 214 127 255 214 127 255 214 127 255 214 127 255 214 127 255 214 127 255 61 109 255 61 109 255 61 109 255 61 109 255 61 109 255 61 109 255 61 109 255 61 109 255 38 92 255 38 92 255 38 92 255 38 92 255 31 85 255 31 85 255 31 85 255 31 85 255 61 109 255 61 109 255 61 109 255 61 109 255 61 109 255 61 109 255 61 109 255 61 109 255 38 92 255 38 92 255 38 92 255 38 92 255 31 85 255 31 85 255 31 85 255 31 85 255 
226 217 166 225 215 165 236 227 180 193 186 113 193 186 113 217 210 164 219 210 158 193 186 113 213 206 151 202 197 137 217 210 157 218 210 161 224 216 163 193 186 113 232 223 178 220 211 160 49 116 143 48 114 142 52 124 154 54 128 158 51 120 149 49 116 143 47 112 139 45 107 133 39 93 115 45 108 135 49 116 143 51 120 149 45 108 135 45 108 135 51 120 149 54 126 156 220 130 70 221 129 67 222 136 78 224 140 84 221 133 75 220 130 70 219 125 63 219 123 59 210 107 38 219 123 59 220 130 70 221 133 75 219 123 59 219 123 59 221 133 75 223 139 83 26 20 16 19 13 11 65 34 11 111 63 31 135 78 47 135 78 47 79 51 33 40 32 28 19 13 11 81 66 57 176 118 80 107 60 31 137 77 45 65 34 11 19 13 11 26 20 16 46 37 28 34 26 19 255 216 163 186 125 53 224 149 82 247 229 210 135 99 56 68 58 48 34 26 19 136 117 96 255 220 165 183 119 51 230 152 77 247 229 210 34 26 19 46 37 28 147 147 147 136 136 136 136 136 136 151 151 151 151 151 151 136 136 136 156 156 156 156 156 156 143 143 143 151 151 151 136 136 136 151 151 151 151 151 151 131 131 131 115 115 115 97 97 97 215 193 133 200 183 122 184 168 117 215 203 141 215 203 141 215 203 141 215 203 141 186 169 115 215 203 141 215 193 133 215 193 133 200 183 122 200 183 122 200 183 122 200 183 122 215 193 133 57 57 57 62 62 62 65 65 65 66 66 66 67 67 67 65 65 65 61 61 61 59 59 59 59 59 59 59 59 59 56 56 56 60 60 60 63 63 63 62 62 62 63 63 63 61 61 61 0 0 0 0 0 0 0 0 0 71 67 67 70 66 66 70 66 66 64 60 60 59 55 55 74 69 70 59 55 55 54 51 51 59 55 55 64 60 60 0 0 0 0 0 0 0 0 0 107 63 127 214 127 255 214 127 255 214 127 255 214 127 255 214 127 255 214 127 255 214 127 255 214 127 255 214 127 255 214 127 255 214 127 255 214 127 255 214 127 255 214 127 255 214 127 255 107 63 127 214 127 255 214 127 255 214 127 255 214 127 255 214 127 255 214 127 255 214 127 255 214 127 255 214 127 255 214 127 255 214 127 255 214 127 255 214 127 255 214 127 255 214 127 255 107 63 127 214 127 255 214 127 255 214 127 255 214 127 255 214 127 255 214 127 255 214 127 255 214 127 255 214 127 255 214 127 255 214 127 255 
214 127 255 214 127 255 214 127 255 214 127 255 107 63 127 214 127 255 214 127 255 214 127 255 214 127 255 214 127 255 214 127 255 214 127 255 214 127 255 214 127 255 214 127 255 214 127 255 214 127 255 214 127 255 214 127 255 214 127 255 107 63 127 214 127 255 214 127 255 214 127 255 214 127 255 214 127 255 214 127 255 214 127 255 214 127 255 214 127 255 214 127 255 214 127 255 214 127 255 214 127 255 214 127 255 214 127 255 31 85 255 31 85 255 31 85 255 31 85 255 31 85 255 38 92 255 38 92 255 61 109 255 61 109 255 61 109 255 61 109 255 61 109 255 61 109 255 38 92 255 38 92 255 31 85 255 31 85 255 31 85 255 31 85 255 31 85 255 31 85 255 38 92 255 38 92 255 61 109 255 61 109 255 61 109 255 61 109 255 61 109 255 61 109 255 38 92 255 38 92 255 31 85 255 
226 219 164 224 217 163 215 207 154 236 227 180 193 186 113 221 214 166 212 204 155 193 186 113 202 197 137 193 186 113 202 197 137 220 212 162 193 186 113 232 223 178 217 209 158 222 214 162 51 123 153 51 123 153 46 111 138 45 107 133 51 120 149 47 112 139 48 114 142 49 117 145 54 128 158 50 119 148 44 103 128 44 103 128 47 112 139 49 116 143 45 106 131 42 100 124 222 136 78 222 136 78 219 125 63 219 123 59 221 133 75 219 125 63 221 129 67 221 131 71 224 140 84 221 132 73 218 120 54 218 120 54 219 125 63 220 130 70 218 121 56 217 117 51 19 13 11 40 32 28 19 13 11 65 34 11 75 43 19 85 55 35 75 39 17 26 20 16 19 13 11 81 67 57 133 83 47 64 33 12 71 37 17 19 13 11 40 32 28 19 13 11 34 26 19 68 58 48 34 26 19 109 70 20 128 86 32 144 103 59 126 82 30 46 37 28 34 26 19 138 120 96 223 160 79 109 69 22 121 76 30 34 26 19 68 58 48 34 26 19 138 138 138 116 116 116 122 122 122 120 120 120 118 118 118 118 118 118 115 115 115 115 115 115 115 115 115 115 115 115 115 115 115 118 118 118 115 115 115 121 121 121 120 120 120 98 98 98 215 203 141 215 203 141 200 183 122 200 183 122 200 183 122 215 203 141 215 203 141 186 169 115 215 203 141 215 203 141 200 183 122 215 193 133 215 203 141 215 203 141 215 203 141 215 203 141 57 57 57 59 59 59 61 61 61 60 60 60 61 61 61 59 59 59 59 59 59 59 59 59 62 62 62 62 62 62 66 66 66 66 66 66 63 63 63 59 59 59 57 57 57 58 58 58 0 0 0 0 0 0 0 0 0 60 56 56 60 56 56 60 56 56 59 55 55 59 55 55 63 59 59 63 59 59 69 65 65 70 66 66 64 60 60 0 0 0 0 0 0 0 0 0 107 63 127 214 127 255 214 127 255 214 127 255 214 127 255 214 127 255 214 127 255 214 127 255 214 127 255 214 127 255 214 127 255 214 127 255 214 127 255 214 127 255 214 127 255 214 127 255 107 63 127 214 127 255 214 127 255 214 127 255 214 127 255 214 127 255 214 127 255 214 127 255 214 127 255 214 127 255 214 127 255 214 127 255 214 127 255 214 127 255 214 127 255 214 127 255 107 63 127 214 127 255 214 127 255 214 127 255 214 127 255 214 127 255 214 127 255 214 127 255 214 127 255 214 127 255 214 127 255 214 127 255 214 127 255 214 127 255 
214 127 255 214 127 255 107 63 127 214 127 255 214 127 255 214 127 255 214 127 255 214 127 255 214 127 255 214 127 255 214 127 255 214 127 255 214 127 255 214 127 255 214 127 255 214 127 255 214 127 255 214 127 255 107 63 127 214 127 255 214 127 255 214 127 255 214 127 255 214 127 255 214 127 255 214 127 255 214 127 255 214 127 255 214 127 255 214 127 255 214 127 255 214 127 255 214 127 255 214 127 255 38 92 255 38 92 255 61 109 255 61 109 255 61 109 255 61 109 255 31 85 255 31 85 255 31 85 255 31 85 255 38 92 255 38 92 255 38 92 255 38 92 255 61 109 255 61 109 255 38 92 255 38 92 255 61 109 255 61 109 255 61 109 255 61 109 255 31 85 255 31 85 255 31 85 255 31 85 255 38 92 255 38 92 255 38 92 255 38 92 255 61 109 255 61 109 255 
226 218 168 220 212 162 221 213 159 193 186 113 219 209 161 227 217 168 218 208 158 193 186 113 223 215 163 219 210 161 216 207 156 193 186 113 216 209 157 221 214 165 220 214 163 228 221 169 41 98 121 42 101 126 51 120 149 47 112 139 42 100 124 45 106 131 51 120 149 52 124 154 45 108 135 44 105 130 48 114 142 51 120 149 42 100 124 42 101 126 50 119 148 51 120 149 216 113 44 217 119 53 221 133 75 219 125 63 217 117 51 218 121 56 221 133 75 222 136 78 219 123 59 218 121 56 221 129 67 221 133 75 217 117 51 217 119 53 221 132 73 221 133 75 19 13 11 19 13 11 26 20 16 19 13 11 19 13 11 19 13 11 19 13 11 19 13 11 19 13 11 19 13 11 19 13 11 19 13 11 19 13 11 26 20 16 19 13 11 19 13 11 34 26 19 34 26 19 46 37 28 34 26 19 34 26 19 34 26 19 34 26 19 34 26 19 34 26 19 34 26 19 34 26 19 34 26 19 34 26 19 46 37 28 34 26 19 34 26 19 93 93 93 94 94 94 98 98 98 96 96 96 95 95 95 93 93 93 93 93 93 93 93 93 96 96 96 96 96 96 95 95 95 95 95 95 95 95 95 95 95 95 93 93 93 93 93 93 165 148 103 165 148 103 165 148 103 174 152 105 158 139 97 158 139 97 174 152 105 158 139 97 165 148 103 165 148 103 165 148 103 158 139 97 142 129 94 158 139 97 158 139 97 165 148 103 55 55 55 57 57 57 59 59 59 61 61 61 58 58 58 66 66 66 65 65 65 61 61 61 61 61 61 61 61 61 62 62 62 60 60 60 61 61 61 60 60 60 60 60 60 58 58 58 0 0 0 0 0 0 0 0 0 60 56 56 55 52 52 70 66 66 70 66 66 63 59 59 63 59 59 64 60 60 64 60 59 59 55 55 59 55 55 0 0 0 0 0 0 0 0 0 107 63 127 214 127 255 214 127 255 214 127 255 214 127 255 214 127 255 214 127 255 214 127 255 214 127 255 214 127 255 214 127 255 214 127 255 214 127 255 214 127 255 214 127 255 214 127 255 107 63 127 214 127 255 214 127 255 214 127 255 214 127 255 214 127 255 214 127 255 214 127 255 214 127 255 214 127 255 214 127 255 214 127 255 214 127 255 214 127 255 214 127 255 214 127 255 107 63 127 214 127 255 214 127 255 214 127 255 214 127 255 214 127 255 214 127 255 214 127 255 214 127 255 214 127 255 214 127 255 214 127 255 214 127 255 214 127 255 214 127 255 214 127 255 107 63 127 214 127 255 214 127 255 
214 127 255 214 127 255 214 127 255 214 127 255 214 127 255 214 127 255 214 127 255 214 127 255 214 127 255 214 127 255 214 127 255 214 127 255 214 127 255 107 63 127 214 127 255 214 127 255 214 127 255 214 127 255 214 127 255 214 127 255 214 127 255 214 127 255 214 127 255 214 127 255 214 127 255 214 127 255 214 127 255 214 127 255 214 127 255 31 85 255 31 85 255 31 85 255 31 85 255 31 85 255 31 85 255 61 109 255 31 85 255 31 85 255 31 85 255 31 85 255 31 85 255 31 85 255 31 85 255 31 85 255 31 85 255 31 85 255 31 85 255 31 85 255 31 85 255 31 85 255 31 85 255 61 109 255 31 85 255 31 85 255 31 85 255 31 85 255 31 85 255 31 85 255 31 85 255 31 85 255 31 85 255 
36 20 23 31 15 19 25 13 15 25 13 15 36 20 23 36 20 23 25 13 15 25 13 15 25 13 15 25 13 15 25 13 15 25 13 15 31 15 19 36 20 23 36 20 23 36 20 23 141 149 149 146 154 154 137 144 145 139 147 147 154 160 160 164 170 170 141 149 149 144 152 152 160 166 166 162 168 168 130 138 138 139 147 147 157 163 163 157 163 163 139 147 147 133 141 141 0 0 0 0 0 0 0 0 0 0 0 0 0 0 0 0 0 0 0 0 0 0 0 0 0 0 0 0 0 0 0 0 0 0 0 0 0 0 0 0 0 0 0 0 0 0 0 0 0 0 0 0 0 0 0 0 0 0 0 0 0 0 0 0 0 0 0 0 0 0 0 0 0 0 0 0 0 0 0 0 0 0 0 0 0 0 0 0 0 0 0 0 0 0 0 0 0 0 0 0 0 0 0 0 0 0 0 0 0 0 0 0 0 0 0 0 0 0 0 0 0 0 0 0 0 0 0 0 0 0 0 0 0 0 0 0 0 0 0 0 0 0 0 0 232 223 177 235 226 182 235 226 182 230 221 178 224 215 172 224 216 172 242 233 186 233 224 181 233 224 181 242 233 186 233 224 176 233 224 181 234 225 182 242 233 186 242 233 186 234 225 180 232 223 177 235 226 182 235 226 182 230 221 178 224 215 172 224 216 172 242 233 186 233 224 181 233 224 181 242 233 186 233 224 176 233 224 181 234 225 182 242 233 186 242 233 186 234 225 180 0 0 0 0 0 0 0 0 0 64 60 60 63 59 59 68 64 64 74 70 70 75 71 71 58 55 55 74 70 70 67 63 63 63 59 59 62 58 58 0 0 0 0 0 0 0 0 0 0 0 0 0 0 0 0 0 0 64 60 60 63 59 59 68 64 64 74 70 70 75 71 71 58 55 55 74 70 70 67 63 63 63 59 59 62 58 58 0 0 0 0 0 0 0 0 0 107 63 127 107 63 127 107 63 127 107 63 127 107 63 127 107 63 127 107 63 127 107 63 127 107 63 127 107 63 127 107 63 127 107 63 127 107 63 127 107 63 127 107 63 127 107 63 127 107 63 127 107 63 127 107 63 127 107 63 127 107 63 127 107 63 127 107 63 127 107 63 127 107 63 127 107 63 127 107 63 127 107 63 127 107 63 127 107 63 127 107 63 127 107 63 127 107 63 127 107 63 127 107 63 127 107 63 127 107 63 127 107 63 127 107 63 127 107 63 127 107 63 127 107 63 127 107 63 127 107 63 127 107 63 127 107 63 127 107 63 127 107 63 127 107 63 127 107 63 127 107 63 127 107 63 127 107 63 127 107 63 127 107 63 127 107 63 127 107 63 127 107 63 127 107 63 127 107 63 127 107 63 127 107 63 127 107 63 127 107 63 127 205 0 0 252 161 0 252 161 0 252 87 0 252 0 0 205 0 0 205 0 0 205 0 0 252 0 0 
252 0 0 252 87 0 252 0 0 252 0 0 205 0 0 205 0 0 205 0 0 205 0 0 252 161 0 252 161 0 252 87 0 252 0 0 205 0 0 205 0 0 205 0 0 252 0 0 252 0 0 252 87 0 252 0 0 252 0 0 205 0 0 205 0 0 205 0 0 205 0 0 252 161 0 252 161 0 252 87 0 252 0 0 205 0 0 205 0 0 205 0 0 252 0 0 252 0 0 252 87 0 252 0 0 252 0 0 205 0 0 205 0 0 205 0 0 
36 20 23 62 30 36 70 38 44 70 38 44 70 38 44 62 30 36 62 30 36 56 26 31 36 20 23 56 26 31 62 30 36 70 38 44 70 38 44 68 36 42 56 26 31 56 26 31 156 162 162 160 166 166 177 181 181 180 184 184 167 173 173 162 168 168 151 157 157 150 156 156 139 147 147 133 141 141 144 152 152 150 156 156 123 131 131 135 143 143 146 154 154 152 158 158 0 0 0 0 0 0 0 0 0 0 0 0 0 0 0 0 0 0 0 0 0 0 0 0 0 0 0 0 0 0 0 0 0 0 0 0 0 0 0 0 0 0 0 0 0 0 0 0 0 0 0 0 0 0 0 0 0 0 0 0 0 0 0 0 0 0 0 0 0 0 0 0 0 0 0 0 0 0 0 0 0 0 0 0 0 0 0 0 0 0 0 0 0 0 0 0 0 0 0 0 0 0 133 19 22 133 19 22 133 19 22 120 11 13 120 11 13 0 0 0 0 0 0 0 0 0 133 19 22 133 19 22 133 19 22 120 11 13 120 11 13 0 0 0 229 219 169 215 204 162 217 208 162 219 210 161 217 208 162 214 205 163 210 202 157 204 197 144 213 207 155 212 205 155 216 209 159 219 210 161 211 206 155 228 223 176 228 222 182 227 220 174 229 219 169 215 204 162 217 208 162 219 210 161 217 208 162 214 205 163 210 202 157 204 197 144 213 207 155 212 205 155 216 209 159 219 210 161 211 206 155 228 223 176 228 222 182 227 220 174 0 0 0 0 0 0 0 0 0 73 69 69 74 70 70 74 70 70 64 60 60 64 60 60 64 60 60 74 70 70 74 70 70 73 69 69 56 53 53 0 0 0 0 0 0 0 0 0 0 0 0 0 0 0 0 0 0 73 69 69 56 53 53 56 53 53 64 60 60 64 60 60 64 60 60 74 70 70 74 70 70 73 69 69 56 53 53 0 0 0 0 0 0 0 0 0 107 63 127 214 127 255 214 127 255 214 127 255 214 127 255 214 127 255 214 127 255 214 127 255 214 127 255 214 127 255 214 127 255 214 127 255 214 127 255 214 127 255 214 127 255 214 127 255 107 63 127 214 127 255 214 127 255 214 127 255 214 127 255 214 127 255 214 127 255 214 127 255 214 127 255 214 127 255 214 127 255 214 127 255 214 127 255 214 127 255 214 127 255 214 127 255 107 63 127 214 127 255 214 127 255 214 127 255 214 127 255 214 127 255 214 127 255 214 127 255 214 127 255 214 127 255 214 127 255 214 127 255 214 127 255 214 127 255 214 127 255 214 127 255 107 63 127 214 127 255 214 127 255 214 127 255 214 127 255 214 127 255 214 127 255 214 127 255 214 127 255 214 127 255 214 127 255 214 127 255 214 127 255 214 127 255 
214 127 255 214 127 255 252 87 0 252 252 0 252 252 0 252 87 0 252 0 0 252 0 0 205 0 0 252 0 0 252 0 0 252 87 0 252 252 0 252 87 0 252 0 0 252 0 0 205 0 0 205 0 0 252 87 0 252 252 0 252 252 0 252 87 0 252 0 0 252 0 0 205 0 0 252 0 0 252 0 0 252 87 0 252 252 0 252 87 0 252 0 0 252 0 0 205 0 0 205 0 0 252 87 0 252 252 0 252 252 0 252 87 0 252 0 0 252 0 0 205 0 0 252 0 0 252 0 0 252 87 0 252 252 0 252 87 0 252 0 0 252 0 0 205 0 0 205 0 0 
36 20 23 56 26 31 48 24 28 48 24 28 52 24 29 52 24 29 48 24 28 48 24 28 30 16 19 56 26 31 48 24 28 52 24 29 52 24 29 52 24 29 48 24 28 48 24 28 167 173 173 169 175 175 150 156 156 153 159 159 172 178 178 169 175 175 157 163 163 150 156 156 162 168 168 169 175 175 162 168 168 162 168 168 174 178 178 178 182 182 162 168 168 160 166 166 0 0 0 0 0 0 0 0 0 0 0 0 0 0 0 0 0 0 0 0 0 0 0 0 0 0 0 0 0 0 0 0 0 0 0 0 0 0 0 0 0 0 0 0 0 0 0 0 0 0 0 0 0 0 0 0 0 0 0 0 0 0 0 0 0 0 0 0 0 0 0 0 0 0 0 0 0 0 0 0 0 0 0 0 0 0 0 0 0 0 0 0 0 0 0 0 0 0 0 120 11 13 161 37 41 161 37 41 161 37 41 217 67 71 161 37 41 101 0 0 0 0 0 120 11 13 161 37 41 161 37 41 217 67 71 161 37 41 161 37 41 101 0 0 197 192 134 212 207 155 210 203 143 198 191 129 201 195 130 198 193 133 202 197 137 196 191 131 197 192 131 199 192 126 195 186 122 194 186 114 205 199 135 205 201 150 194 189 139 193 186 125 197 192 134 212 207 155 210 203 143 198 191 129 201 195 130 198 193 133 202 197 137 196 191 131 197 192 131 199 192 126 195 186 122 194 186 114 205 199 135 205 201 150 194 189 139 193 186 125 0 0 0 0 0 0 0 0 0 63 59 59 58 54 54 63 59 59 63 59 59 63 59 59 74 70 70 63 59 59 68 63 64 67 63 63 66 62 62 0 0 0 0 0 0 0 0 0 0 0 0 0 0 0 0 0 0 63 59 59 77 73 73 81 78 78 48 45 45 63 59 59 56 53 53 48 45 45 68 63 64 67 63 63 66 62 62 0 0 0 0 0 0 0 0 0 107 63 127 214 127 255 214 127 255 214 127 255 214 127 255 214 127 255 214 127 255 214 127 255 214 127 255 214 127 255 214 127 255 214 127 255 214 127 255 214 127 255 214 127 255 214 127 255 107 63 127 214 127 255 214 127 255 214 127 255 214 127 255 214 127 255 214 127 255 214 127 255 214 127 255 214 127 255 214 127 255 214 127 255 214 127 255 214 127 255 214 127 255 214 127 255 107 63 127 214 127 255 214 127 255 214 127 255 214 127 255 214 127 255 214 127 255 214 127 255 214 127 255 214 127 255 214 127 255 214 127 255 214 127 255 214 127 255 214 127 255 214 127 255 107 63 127 214 127 255 214 127 255 214 127 255 214 127 255 214 127 255 214 127 255 214 127 255 214 127 255 214 127 255 214 127 255 214 127 255 214 127 255 
214 127 255 214 127 255 214 127 255 252 87 0 252 161 0 252 252 0 252 87 0 205 0 0 252 0 0 252 0 0 252 87 0 252 0 0 252 87 0 252 252 0 252 161 0 205 0 0 252 0 0 252 0 0 252 0 0 252 87 0 252 161 0 252 252 0 252 87 0 205 0 0 252 0 0 252 0 0 252 87 0 252 0 0 252 87 0 252 252 0 252 161 0 205 0 0 252 0 0 252 0 0 252 0 0 252 87 0 252 161 0 252 252 0 252 87 0 205 0 0 252 0 0 252 0 0 252 87 0 252 0 0 252 87 0 252 252 0 252 161 0 205 0 0 252 0 0 252 0 0 252 0 0 
36 20 23 56 26 31 48 24 28 36 20 23 48 24 28 48 24 28 36 20 23 28 14 16 30 16 19 56 26 31 48 24 28 36 20 23 48 24 28 48 24 28 48 24 28 36 20 23 156 162 162 146 154 154 163 169 169 169 175 175 150 156 156 147 155 155 154 160 160 169 175 175 141 149 149 151 157 157 169 175 175 169 175 175 156 162 162 146 154 154 180 184 184 168 174 174 0 0 0 0 0 0 0 0 0 0 0 0 0 0 0 0 0 0 0 0 0 0 0 0 0 0 0 0 0 0 0 0 0 0 0 0 0 0 0 0 0 0 0 0 0 0 0 0 0 0 0 0 0 0 0 0 0 0 0 0 0 0 0 0 0 0 0 0 0 0 0 0 0 0 0 0 0 0 0 0 0 0 0 0 0 0 0 0 0 0 0 0 0 0 0 0 120 11 13 161 37 41 194 49 53 143 23 25 129 8 10 129 8 10 129 8 10 101 0 0 108 11 13 161 37 41 143 23 25 129 8 10 114 26 23 142 24 27 118 0 0 101 0 0 242 236 194 242 236 194 229 221 181 237 228 181 237 228 181 241 234 196 241 234 196 242 233 186 232 224 187 242 233 186 242 233 186 242 233 186 228 220 182 231 223 180 242 233 186 192 186 120 242 236 194 242 236 194 229 221 181 237 228 181 237 228 181 241 234 196 241 234 196 242 233 186 232 224 187 242 233 186 242 233 186 242 233 186 228 220 182 231 223 180 242 233 186 192 186 120 0 0 0 0 0 0 0 0 0 67 63 63 68 64 64 58 55 55 67 63 63 73 69 69 67 63 63 67 63 63 63 59 59 62 58 58 62 58 58 0 0 0 0 0 0 0 0 0 0 0 0 0 0 0 0 0 0 50 48 48 68 64 64 58 55 55 85 81 81 55 52 52 85 81 81 85 81 81 63 59 59 62 58 58 62 58 58 0 0 0 0 0 0 0 0 0 107 63 127 214 127 255 214 127 255 214 127 255 214 127 255 214 127 255 214 127 255 214 127 255 214 127 255 214 127 255 214 127 255 214 127 255 214 127 255 214 127 255 214 127 255 214 127 255 107 63 127 214 127 255 214 127 255 214 127 255 214 127 255 214 127 255 214 127 255 214 127 255 214 127 255 214 127 255 214 127 255 214 127 255 214 127 255 214 127 255 214 127 255 214 127 255 107 63 127 214 127 255 214 127 255 214 127 255 214 127 255 214 127 255 214 127 255 214 127 255 214 127 255 214 127 255 214 127 255 214 127 255 214 127 255 214 127 255 214 127 255 214 127 255 107 63 127 214 127 255 214 127 255 214 127 255 214 127 255 214 127 255 214 127 255 214 127 255 214 127 255 214 127 255 214 127 255 214 127 255 214 127 255 
214 127 255 214 127 255 214 127 255 252 0 0 252 0 0 252 87 0 252 0 0 252 87 0 252 87 0 252 161 0 252 252 0 252 87 0 252 87 0 252 87 0 252 87 0 252 87 0 252 87 0 252 0 0 252 0 0 252 0 0 252 0 0 252 87 0 252 0 0 252 87 0 252 87 0 252 161 0 252 252 0 252 87 0 252 87 0 252 87 0 252 87 0 252 87 0 252 87 0 252 0 0 252 0 0 252 0 0 252 0 0 252 87 0 252 0 0 252 87 0 252 87 0 252 161 0 252 252 0 252 87 0 252 87 0 252 87 0 252 87 0 252 87 0 252 87 0 252 0 0 252 0 0 
36 20 23 30 16 19 30 16 19 30 16 19 28 14 16 25 13 15 25 13 16 28 14 16 25 13 16 28 14 17 31 15 19 31 15 19 25 13 15 25 13 15 25 13 15 31 15 19 160 166 166 152 158 158 141 149 149 156 162 162 164 170 170 163 169 169 130 138 138 126 132 132 145 153 153 157 163 163 144 152 152 136 144 144 164 170 170 164 170 170 139 147 147 130 138 138 0 0 0 0 0 0 0 0 0 0 0 0 0 0 0 0 0 0 0 0 0 0 0 0 0 0 0 0 0 0 0 0 0 0 0 0 0 0 0 0 0 0 0 0 0 0 0 0 0 0 0 0 0 0 0 0 0 0 0 0 0 0 0 0 0 0 0 0 0 0 0 0 0 0 0 0 0 0 0 0 0 0 0 0 0 0 0 0 0 0 0 0 0 0 0 0 120 11 13 161 37 41 143 23 25 129 8 10 129 8 10 129 8 10 118 0 0 101 0 0 108 11 13 161 37 41 129 8 10 129 8 10 116 26 22 133 0 1 137 10 14 101 0 0 242 236 194 216 210 163 233 224 179 214 207 153 214 207 153 201 192 130 200 192 126 224 216 165 216 207 155 196 188 123 202 194 134 214 207 155 220 212 160 228 221 179 214 206 157 192 186 120 242 236 194 222 215 165 233 224 179 214 207 153 214 207 153 233 224 179 229 221 168 224 216 165 216 207 155 216 208 157 214 207 155 214 207 155 220 212 160 228 221 179 214 206 157 192 186 120 0 0 0 0 0 0 0 0 0 63 59 58 63 59 59 63 59 59 63 59 58 62 58 58 62 58 58 63 59 59 74 69 69 73 69 69 72 68 68 0 0 0 0 0 0 0 0 0 0 0 0 0 0 0 0 0 0 81 78 77 48 45 45 63 59 59 48 45 44 80 77 77 62 58 58 48 45 45 56 52 52 73 69 69 72 68 68 0 0 0 0 0 0 0 0 0 107 63 127 214 127 255 214 127 255 214 127 255 214 127 255 214 127 255 214 127 255 214 127 255 214 127 255 214 127 255 214 127 255 214 127 255 214 127 255 214 127 255 214 127 255 214 127 255 107 63 127 214 127 255 214 127 255 214 127 255 214 127 255 214 127 255 214 127 255 214 127 255 214 127 255 214 127 255 214 127 255 214 127 255 214 127 255 214 127 255 214 127 255 214 127 255 107 63 127 214 127 255 214 127 255 214 127 255 214 127 255 214 127 255 214 127 255 214 127 255 214 127 255 214 127 255 214 127 255 214 127 255 214 127 255 214 127 255 214 127 255 214 127 255 107 63 127 0 0 0 0 0 0 0 0 0 0 0 0 0 0 0 0 0 0 0 0 0 0 0 0 0 0 0 0 0 0 0 0 0 0 0 0 0 0 0 0 0 0 214 127 255 252 0 0 205 0 0 252 0 0 252 87 0 252 252 0 252 87 0 
252 87 0 252 87 0 252 161 0 252 252 0 252 87 0 252 252 0 252 252 0 252 161 0 252 87 0 252 0 0 252 0 0 205 0 0 252 0 0 252 87 0 252 252 0 252 87 0 252 87 0 252 87 0 252 161 0 252 252 0 252 87 0 252 252 0 252 252 0 252 161 0 252 87 0 252 0 0 252 0 0 205 0 0 252 0 0 252 87 0 252 252 0 252 87 0 252 87 0 252 87 0 252 161 0 252 252 0 252 87 0 252 252 0 252 252 0 252 161 0 252 87 0 252 0 0 
56 26 31 56 26 31 36 20 23 62 30 36 70 38 44 70 38 44 74 42 48 70 38 44 62 30 36 62 30 36 36 20 23 62 30 36 62 30 36 56 26 31 56 26 31 56 26 31 135 143 143 128 136 136 142 150 150 169 175 175 141 149 149 126 132 132 141 149 149 146 154 154 141 149 149 126 132 132 146 154 154 150 156 156 132 140 140 144 152 152 139 147 147 148 156 156 0 0 0 0 0 0 0 0 0 0 0 0 0 0 0 0 0 0 0 0 0 0 0 0 0 0 0 0 0 0 0 0 0 0 0 0 0 0 0 0 0 0 0 0 0 0 0 0 0 0 0 0 0 0 0 0 0 0 0 0 0 0 0 0 0 0 0 0 0 0 0 0 0 0 0 0 0 0 0 0 0 116 15 26 116 15 26 116 15 26 116 15 26 0 0 0 120 11 13 201 53 57 129 8 10 129 8 10 189 47 51 133 0 1 118 0 0 101 0 0 83 0 0 161 37 41 129 8 10 177 66 60 129 8 10 118 19 15 118 0 0 101 0 0 242 236 194 214 207 153 233 224 179 219 212 159 233 224 179 201 192 130 205 197 139 233 224 179 223 215 164 196 188 123 196 188 123 233 224 179 218 209 158 221 212 165 220 212 172 192 186 120 242 233 186 221 213 160 233 224 179 219 212 159 233 224 179 233 224 179 221 213 165 233 224 179 223 215 164 230 223 178 216 208 157 233 224 179 218 209 158 221 212 165 220 212 172 192 186 120 0 0 0 0 0 0 0 0 0 67 63 63 67 63 63 63 59 59 62 58 58 63 59 59 67 63 63 57 54 54 67 63 63 67 63 63 61 57 57 0 0 0 0 0 0 0 0 0 0 0 0 0 0 0 0 0 0 67 63 63 50 48 48 63 59 59 47 44 44 63 59 59 67 63 63 43 40 40 85 81 81 67 63 63 46 43 43 0 0 0 0 0 0 0 0 0 107 63 127 214 127 255 214 127 255 214 127 255 214 127 255 214 127 255 214 127 255 214 127 255 214 127 255 214 127 255 214 127 255 214 127 255 214 127 255 214 127 255 214 127 255 214 127 255 107 63 127 214 127 255 214 127 255 214 127 255 214 127 255 214 127 255 214 127 255 214 127 255 214 127 255 214 127 255 214 127 255 214 127 255 214 127 255 214 127 255 214 127 255 214 127 255 107 63 127 214 127 255 214 127 255 214 127 255 214 127 255 214 127 255 214 127 255 214 127 255 214 127 255 214 127 255 214 127 255 214 127 255 214 127 255 214 127 255 214 127 255 214 127 255 107 63 127 0 0 0 255 255 255 0 0 0 0 0 0 0 0 0 255 255 255 0 0 0 255 255 255 0 0 0 255 255 255 255 255 255 255 255 255 0 0 0 0 0 0 214 127 255 
252 0 0 252 0 0 252 161 0 252 252 0 252 87 0 252 87 0 205 0 0 252 0 0 252 0 0 252 0 0 205 0 0 252 161 0 252 161 0 252 87 0 252 87 0 252 0 0 252 0 0 252 0 0 252 161 0 252 252 0 252 87 0 252 87 0 205 0 0 252 0 0 252 0 0 252 0 0 205 0 0 252 161 0 252 161 0 252 87 0 252 87 0 252 0 0 252 0 0 252 0 0 252 161 0 252 252 0 252 87 0 252 87 0 205 0 0 252 0 0 252 0 0 252 0 0 205 0 0 252 161 0 252 161 0 252 87 0 252 87 0 252 0 0 
46 22 27 41 21 25 30 16 19 56 26 31 48 24 28 56 24 30 48 24 28 48 24 28 48 24 28 48 24 28 51 27 31 64 32 38 36 20 23 48 24 28 48 24 28 48 24 28 178 182 182 179 183 183 166 172 172 163 169 169 154 160 160 154 160 160 152 158 158 157 163 163 167 173 173 179 183 183 160 166 166 151 157 157 180 184 184 180 184 184 162 168 168 157 163 163 0 0 0 0 0 0 0 0 0 0 0 0 0 0 0 0 0 0 0 0 0 0 0 0 0 0 0 0 0 0 0 0 0 0 0 0 0 0 0 0 0 0 0 0 0 0 0 0 0 0 0 0 0 0 116 15 26 116 15 26 116 15 26 116 15 26 0 0 0 0 0 0 0 0 0 0 0 0 116 15 26 154 39 52 189 49 65 154 39 52 154 39 52 99 4 15 120 11 13 161 37 41 129 8 10 129 8 10 116 26 22 133 0 1 118 0 0 101 0 0 118 0 0 83 0 0 129 8 10 114 26 23 133 0 1 105 17 12 101 0 0 0 0 0 242 233 186 206 200 140 206 200 140 216 207 155 216 207 155 233 224 179 223 216 180 199 191 130 203 194 134 216 208 157 225 219 174 225 219 174 221 216 171 214 208 159 221 214 172 192 186 120 242 233 186 230 223 178 216 209 153 216 207 155 224 215 166 233 224 179 223 216 180 226 220 179 216 207 155 216 208 157 225 219 174 225 219 174 221 216 171 214 208 159 221 214 172 192 186 120 0 0 0 0 0 0 0 0 0 67 63 63 66 62 62 62 58 58 73 69 69 72 69 69 67 63 63 66 63 63 66 62 62 66 62 62 72 68 68 0 0 0 0 0 0 0 0 0 0 0 0 0 0 0 0 0 0 67 63 63 50 47 47 47 44 44 55 52 52 72 69 69 67 63 63 84 81 81 50 47 47 50 47 47 90 86 86 0 0 0 0 0 0 0 0 0 107 63 127 214 127 255 214 127 255 214 127 255 214 127 255 214 127 255 214 127 255 214 127 255 214 127 255 214 127 255 214 127 255 214 127 255 214 127 255 214 127 255 214 127 255 214 127 255 107 63 127 214 127 255 214 127 255 214 127 255 214 127 255 214 127 255 214 127 255 214 127 255 214 127 255 214 127 255 214 127 255 214 127 255 214 127 255 214 127 255 214 127 255 214 127 255 107 63 127 214 127 255 214 127 255 214 127 255 214 127 255 214 127 255 214 127 255 214 127 255 214 127 255 214 127 255 214 127 255 214 127 255 214 127 255 214 127 255 214 127 255 214 127 255 107 63 127 0 0 0 255 255 255 0 0 0 0 0 0 0 0 0 255 255 255 0 0 0 255 255 255 0 0 0 255 255 255 0 0 0 0 0 0 255 255 255 0 0 0 
214 127 255 205 0 0 252 0 0 252 87 0 252 0 0 252 0 0 252 0 0 205 0 0 205 0 0 252 0 0 252 0 0 252 0 0 252 87 0 252 0 0 252 0 0 252 161 0 252 0 0 205 0 0 252 0 0 252 87 0 252 0 0 252 0 0 252 0 0 205 0 0 205 0 0 252 0 0 252 0 0 252 0 0 252 87 0 252 0 0 252 0 0 252 161 0 252 0 0 205 0 0 252 0 0 252 87 0 252 0 0 252 0 0 252 0 0 205 0 0 205 0 0 252 0 0 252 0 0 252 0 0 252 87 0 252 0 0 252 0 0 252 161 0 252 0 0 
41 21 25 36 20 23 30 16 19 56 26 31 48 24 28 48 24 28 54 24 30 48 24 28 41 21 25 36 20 23 36 20 23 56 26 31 48 24 28 36 20 23 48 24 28 36 20 23 146 154 154 146 154 154 178 182 182 180 184 184 162 168 168 160 166 166 169 175 175 168 174 174 139 147 147 144 152 152 163 169 169 169 175 175 160 166 166 160 166 166 170 176 176 168 174 174 0 0 0 0 0 0 0 0 0 0 0 0 0 0 0 0 0 0 0 0 0 0 0 0 0 0 0 0 0 0 0 0 0 0 0 0 0 0 0 0 0 0 0 0 0 0 0 0 0 0 0 116 15 26 154 39 52 154 39 52 154 39 52 154 39 52 99 4 15 0 0 0 0 0 0 0 0 0 116 15 26 189 49 65 154 39 52 119 6 20 125 0 13 99 4 15 0 0 0 101 0 0 129 8 10 114 26 23 133 0 1 118 0 0 101 0 0 118 0 0 137 10 14 118 0 0 83 0 0 129 8 10 102 18 15 91 15 9 0 0 0 0 0 0 242 233 186 230 223 178 218 209 159 218 209 159 218 209 159 233 224 179 205 197 139 197 189 125 213 205 147 203 195 135 221 212 165 221 212 165 221 212 165 221 212 165 221 212 165 196 188 115 242 233 186 230 223 178 225 216 168 225 216 168 218 209 159 233 224 179 221 212 165 221 212 165 230 223 178 216 208 157 221 212 165 221 212 165 221 212 165 221 212 165 221 212 165 196 188 115 0 0 0 0 0 0 0 0 0 61 57 57 61 57 57 62 58 57 62 58 58 62 58 58 62 58 58 57 53 53 61 56 57 60 56 56 62 58 58 0 0 0 0 0 0 0 0 0 0 0 0 0 0 0 0 0 0 46 43 43 79 76 76 80 77 76 80 77 77 47 44 44 62 58 58 43 40 40 79 75 76 45 42 42 62 58 58 0 0 0 0 0 0 0 0 0 107 63 127 214 127 255 214 127 255 214 127 255 214 127 255 214 127 255 214 127 255 214 127 255 214 127 255 214 127 255 214 127 255 214 127 255 214 127 255 214 127 255 214 127 255 214 127 255 107 63 127 214 127 255 214 127 255 214 127 255 214 127 255 214 127 255 214 127 255 214 127 255 214 127 255 214 127 255 214 127 255 214 127 255 214 127 255 214 127 255 214 127 255 214 127 255 107 63 127 214 127 255 214 127 255 214 127 255 214 127 255 214 127 255 214 127 255 214 127 255 214 127 255 214 127 255 214 127 255 214 127 255 214 127 255 214 127 255 214 127 255 214 127 255 107 63 127 0 0 0 255 255 255 0 0 0 0 0 0 0 0 0 255 255 255 0 0 0 255 255 255 0 0 0 255 255 255 0 0 0 0 0 0 255 255 255 0 0 0 0 0 0 
205 0 0 205 0 0 252 0 0 252 87 0 252 161 0 252 87 0 205 0 0 205 0 0 252 87 0 252 87 0 252 0 0 205 0 0 252 0 0 252 161 0 252 252 0 252 161 0 205 0 0 205 0 0 252 0 0 252 87 0 252 161 0 252 87 0 205 0 0 205 0 0 252 87 0 252 87 0 252 0 0 205 0 0 252 0 0 252 161 0 252 252 0 252 161 0 205 0 0 205 0 0 252 0 0 252 87 0 252 161 0 252 87 0 205 0 0 205 0 0 252 87 0 252 87 0 252 0 0 205 0 0 252 0 0 252 161 0 252 252 0 252 161 0 
36 20 23 36 20 23 25 13 15 25 13 15 25 13 15 31 15 19 30 16 19 30 16 19 30 16 19 30 16 19 36 20 23 36 20 23 36 20 23 36 20 23 36 20 23 36 20 23 162 168 168 162 168 168 135 143 143 145 153 153 168 174 174 160 166 166 141 149 149 147 155 155 145 153 153 150 156 156 144 152 152 132 140 140 154 160 160 151 157 157 137 144 145 136 144 144 0 0 0 0 0 0 0 0 0 0 0 0 0 0 0 0 0 0 0 0 0 0 0 0 0 0 0 0 0 0 0 0 0 0 0 0 0 0 0 0 0 0 0 0 0 0 0 0 0 0 0 116 15 26 189 49 65 154 39 52 119 6 20 125 0 13 99 4 15 0 0 0 0 0 0 0 0 0 116 15 26 154 39 52 119 6 20 125 0 13 106 0 1 99 4 15 0 0 0 0 0 0 101 0 0 129 8 10 103 18 14 101 0 0 118 0 0 83 0 0 118 0 0 118 0 0 83 0 0 142 24 27 95 28 21 101 0 0 0 0 0 0 0 0 242 233 186 230 223 178 218 209 159 218 209 159 218 209 159 233 224 179 197 189 125 221 212 165 236 227 180 203 195 135 221 212 165 221 212 165 221 212 165 221 212 165 221 212 165 196 188 115 242 233 186 230 223 178 218 209 159 218 209 159 218 209 159 233 224 179 221 212 165 221 212 165 236 227 180 216 208 157 221 212 165 221 212 165 221 212 165 216 208 157 221 212 165 196 188 115 0 0 0 0 0 0 0 0 0 55 52 52 71 67 67 61 57 57 66 62 62 66 62 62 66 62 62 73 69 69 71 67 67 71 67 67 72 68 68 0 0 0 0 0 0 0 0 0 0 0 0 0 0 0 0 0 0 74 71 71 71 67 67 46 43 43 66 62 62 84 80 80 50 47 47 91 87 87 71 67 67 53 50 50 72 68 68 0 0 0 0 0 0 0 0 0 107 63 127 214 127 255 214 127 255 214 127 255 214 127 255 214 127 255 214 127 255 214 127 255 214 127 255 214 127 255 214 127 255 214 127 255 214 127 255 214 127 255 214 127 255 214 127 255 107 63 127 214 127 255 214 127 255 214 127 255 214 127 255 214 127 255 214 127 255 214 127 255 214 127 255 214 127 255 214 127 255 214 127 255 214 127 255 214 127 255 214 127 255 214 127 255 107 63 127 214 127 255 214 127 255 214 127 255 214 127 255 214 127 255 214 127 255 214 127 255 214 127 255 214 127 255 214 127 255 214 127 255 214 127 255 214 127 255 214 127 255 214 127 255 107 63 127 0 0 0 255 255 255 0 0 0 0 0 0 0 0 0 255 255 255 0 0 0 255 255 255 0 0 0 255 255 255 255 255 255 255 255 255 0 0 0 0 0 0 0 0 0 205 0 0 
205 0 0 252 87 0 252 161 0 252 252 0 252 161 0 252 0 0 252 0 0 252 161 0 252 252 0 252 87 0 205 0 0 252 0 0 252 87 0 252 87 0 252 87 0 205 0 0 205 0 0 252 87 0 252 161 0 252 252 0 252 161 0 252 0 0 252 0 0 252 161 0 252 252 0 252 87 0 205 0 0 252 0 0 252 87 0 252 87 0 252 87 0 205 0 0 205 0 0 252 87 0 252 161 0 252 252 0 252 161 0 252 0 0 252 0 0 252 161 0 252 252 0 252 87 0 205 0 0 252 0 0 252 87 0 252 87 0 252 87 0 
36 20 23 56 26 31 56 26 31 56 26 31 36 20 23 62 30 36 62 30 36 62 30 36 36 20 23 62 30 36 56 26 31 56 26 31 30 16 19 56 26 31 56 26 31 56 26 31 145 153 153 151 157 157 148 156 156 167 173 173 128 134 134 130 138 138 151 157 157 159 165 165 141 149 149 160 166 166 180 184 184 180 184 184 153 159 159 162 168 168 180 184 184 177 181 181 0 0 0 0 0 0 0 0 0 0 0 0 0 0 0 0 0 0 0 0 0 0 0 0 0 0 0 0 0 0 0 0 0 0 0 0 0 0 0 0 0 0 0 0 0 0 0 0 0 0 0 116 15 26 154 39 52 119 6 20 125 0 13 106 0 1 99 4 15 0 0 0 0 0 0 0 0 0 0 0 0 99 4 15 119 6 20 106 0 1 99 4 15 0 0 0 0 0 0 83 0 0 101 0 0 142 24 27 104 17 13 101 0 0 133 0 1 118 0 0 83 0 0 118 0 0 83 0 0 116 25 21 113 42 35 101 0 0 0 0 0 0 0 0 192 186 120 202 196 127 191 183 113 192 186 120 191 183 113 191 183 113 203 197 137 191 183 113 202 196 127 189 181 111 191 183 113 203 197 137 203 197 137 202 196 127 203 197 137 196 188 115 242 233 186 221 212 165 221 212 165 216 208 157 221 212 165 221 212 165 221 212 165 236 227 180 221 212 165 221 212 165 221 212 165 216 208 157 216 208 157 221 212 165 221 212 165 196 188 115 0 0 0 0 0 0 0 0 0 60 56 56 60 56 56 61 57 57 61 57 57 66 62 62 55 52 52 65 61 61 65 61 61 60 56 56 61 57 57 0 0 0 0 0 0 0 0 0 0 0 0 0 0 0 0 0 0 60 56 56 45 42 42 79 76 76 61 57 57 66 62 62 41 39 39 65 61 61 65 61 61 78 75 75 46 43 43 0 0 0 0 0 0 0 0 0 107 63 127 214 127 255 214 127 255 214 127 255 214 127 255 214 127 255 214 127 255 214 127 255 214 127 255 214 127 255 214 127 255 214 127 255 214 127 255 214 127 255 214 127 255 214 127 255 107 63 127 214 127 255 214 127 255 214 127 255 214 127 255 214 127 255 214 127 255 214 127 255 214 127 255 214 127 255 214 127 255 214 127 255 214 127 255 214 127 255 214 127 255 214 127 255 107 63 127 214 127 255 214 127 255 214 127 255 214 127 255 214 127 255 214 127 255 214 127 255 214 127 255 214 127 255 214 127 255 214 127 255 214 127 255 214 127 255 214 127 255 214 127 255 107 63 127 0 0 0 255 255 255 0 0 0 255 255 255 0 0 0 255 255 255 0 0 0 255 255 255 0 0 0 255 255 255 0 0 0 0 0 0 0 0 0 0 0 0 0 0 0 252 0 0 252 0 0 
252 0 0 252 87 0 252 87 0 252 87 0 252 0 0 252 0 0 252 87 0 252 252 0 252 87 0 205 0 0 205 0 0 252 0 0 252 87 0 252 0 0 252 0 0 252 0 0 252 0 0 252 87 0 252 87 0 252 87 0 252 0 0 252 0 0 252 87 0 252 252 0 252 87 0 205 0 0 205 0 0 252 0 0 252 87 0 252 0 0 252 0 0 252 0 0 252 0 0 252 87 0 252 87 0 252 87 0 252 0 0 252 0 0 252 87 0 252 252 0 252 87 0 205 0 0 205 0 0 252 0 0 252 87 0 252 0 0 
36 20 23 56 26 31 48 24 28 48 24 28 36 20 23 56 26 31 48 24 28 48 24 28 36 20 23 62 30 36 48 24 28 48 24 28 30 16 19 56 26 31 48 24 28 48 24 28 168 174 174 170 176 176 162 168 168 162 168 168 179 183 183 169 175 175 162 168 168 160 166 166 170 176 176 167 173 173 150 156 156 157 163 163 160 166 166 154 160 160 139 147 147 156 162 162 0 0 0 0 0 0 0 0 0 0 0 0 0 0 0 0 0 0 0 0 0 0 0 0 0 0 0 0 0 0 109 16 33 109 16 33 109 16 33 0 0 0 0 0 0 0 0 0 0 0 0 0 0 0 99 4 15 125 0 13 106 0 1 99 4 15 0 0 0 0 0 0 0 0 0 0 0 0 0 0 0 99 4 15 119 6 20 106 0 1 99 4 15 0 0 0 101 0 0 161 37 41 101 0 0 129 8 10 102 18 15 89 15 11 133 0 1 118 0 0 83 0 0 118 0 0 83 0 0 115 26 23 87 36 28 101 0 0 0 0 0 0 0 0 241 234 196 239 230 184 239 230 184 239 230 184 239 230 184 241 234 196 241 234 196 239 230 184 239 230 184 231 223 180 239 230 184 241 234 196 241 234 196 239 230 184 239 230 184 196 188 115 241 234 196 221 212 165 230 223 178 216 208 157 221 212 165 221 212 165 230 223 178 221 212 165 221 212 165 221 212 165 230 223 178 230 223 178 230 223 178 221 212 165 221 212 165 196 188 115 0 0 0 0 0 0 0 0 0 60 56 56 60 56 56 71 67 67 71 67 67 61 57 57 55 52 52 60 56 56 71 67 67 71 67 67 71 67 67 0 0 0 0 0 0 0 0 0 0 0 0 0 0 0 0 0 0 60 56 56 78 75 75 53 50 50 71 67 67 61 57 57 41 39 39 45 42 42 71 67 67 71 67 67 89 85 85 0 0 0 0 0 0 0 0 0 107 63 127 214 127 255 214 127 255 214 127 255 214 127 255 214 127 255 214 127 255 214 127 255 214 127 255 214 127 255 214 127 255 214 127 255 214 127 255 214 127 255 214 127 255 214 127 255 107 63 127 214 127 255 214 127 255 214 127 255 214 127 255 214 127 255 214 127 255 214 127 255 214 127 255 214 127 255 214 127 255 214 127 255 214 127 255 214 127 255 214 127 255 214 127 255 107 63 127 214 127 255 214 127 255 214 127 255 214 127 255 214 127 255 214 127 255 214 127 255 214 127 255 214 127 255 214 127 255 214 127 255 214 127 255 214 127 255 214 127 255 214 127 255 107 63 127 0 0 0 0 0 0 255 255 255 0 0 0 255 255 255 0 0 0 0 0 0 255 255 255 0 0 0 255 255 255 0 0 0 0 0 0 0 0 0 0 0 0 0 0 0 252 0 0 252 87 0 
252 87 0 252 0 0 252 0 0 252 0 0 205 0 0 252 0 0 252 87 0 252 87 0 252 87 0 252 0 0 252 0 0 252 161 0 252 87 0 252 0 0 252 0 0 252 87 0 252 87 0 252 0 0 252 0 0 252 0 0 205 0 0 252 0 0 252 87 0 252 87 0 252 87 0 252 0 0 252 0 0 252 161 0 252 87 0 252 0 0 252 0 0 252 87 0 252 87 0 252 0 0 252 0 0 252 0 0 205 0 0 252 0 0 252 87 0 252 87 0 252 87 0 252 0 0 252 0 0 252 161 0 252 87 0 252 0 0 
36 20 23 56 26 31 36 20 23 48 24 28 36 20 23 56 26 31 48 24 28 48 24 28 30 16 19 56 26 31 48 24 28 36 20 23 30 16 19 56 26 31 48 24 28 48 24 28 139 147 147 141 149 149 159 165 165 159 165 165 146 154 154 147 155 155 164 170 170 162 168 168 139 147 147 141 149 149 145 153 153 160 166 166 128 136 136 128 136 136 148 156 156 160 166 166 0 0 0 0 0 0 0 0 0 109 16 33 109 16 33 109 16 33 0 0 0 0 0 0 0 0 0 109 16 33 147 40 60 185 48 74 147 40 60 109 16 33 0 0 0 0 0 0 0 0 0 0 0 0 99 4 15 119 6 20 106 0 1 99 4 15 0 0 0 99 4 15 99 4 15 99 4 15 0 0 0 99 4 15 119 6 20 106 0 1 99 4 15 0 0 0 101 0 0 116 25 21 90 15 10 116 25 21 103 34 27 82 24 17 145 18 21 118 0 0 83 0 0 124 28 25 74 12 9 115 26 23 83 42 31 101 0 0 0 0 0 0 0 0 242 233 186 218 209 159 218 209 159 197 189 125 213 206 154 230 223 178 205 197 139 205 197 139 217 210 154 221 212 165 212 205 150 201 193 131 197 189 125 199 191 126 237 229 189 196 188 115 242 233 186 218 209 159 218 209 159 216 208 157 213 206 154 230 223 178 221 212 165 221 212 165 217 210 154 221 212 165 234 227 185 234 227 185 221 212 165 226 218 167 237 229 189 196 188 115 0 0 0 0 0 0 0 0 0 65 61 61 60 56 56 64 60 60 64 60 60 64 60 60 71 67 67 71 67 67 64 60 60 64 60 60 64 60 60 0 0 0 0 0 0 0 0 0 0 0 0 0 0 0 0 0 0 65 61 61 60 56 56 48 45 45 48 45 45 48 45 45 89 85 85 89 85 85 48 45 45 48 45 45 64 60 60 0 0 0 0 0 0 0 0 0 107 63 127 214 127 255 214 127 255 214 127 255 214 127 255 214 127 255 214 127 255 214 127 255 214 127 255 214 127 255 214 127 255 214 127 255 214 127 255 214 127 255 214 127 255 214 127 255 107 63 127 214 127 255 214 127 255 214 127 255 214 127 255 214 127 255 214 127 255 214 127 255 214 127 255 214 127 255 214 127 255 214 127 255 214 127 255 214 127 255 214 127 255 214 127 255 107 63 127 214 127 255 214 127 255 214 127 255 214 127 255 214 127 255 214 127 255 214 127 255 214 127 255 214 127 255 214 127 255 214 127 255 214 127 255 214 127 255 214 127 255 214 127 255 107 63 127 0 0 0 0 0 0 0 0 0 0 0 0 0 0 0 0 0 0 0 0 0 0 0 0 0 0 0 0 0 0 0 0 0 0 0 0 0 0 0 0 0 0 0 0 0 252 0 0 
252 161 0 252 252 0 252 87 0 252 87 0 252 161 0 252 87 0 252 0 0 252 0 0 252 0 0 252 0 0 252 87 0 252 161 0 252 252 0 252 161 0 252 0 0 252 0 0 252 161 0 252 252 0 252 87 0 252 87 0 252 161 0 252 87 0 252 0 0 252 0 0 252 0 0 252 0 0 252 87 0 252 161 0 252 252 0 252 161 0 252 0 0 252 0 0 252 161 0 252 252 0 252 87 0 252 87 0 252 161 0 252 87 0 252 0 0 252 0 0 252 0 0 252 0 0 252 87 0 252 161 0 252 252 0 252 161 0 252 0 0 
31 15 19 31 15 19 25 13 15 25 13 15 25 13 15 25 13 15 36 20 23 30 16 19 27 13 16 29 15 18 33 17 20 27 13 16 34 18 22 31 15 19 36 20 23 36 20 23 147 155 155 146 154 154 128 134 134 130 138 138 168 174 174 172 178 178 136 144 144 126 132 132 154 160 160 164 170 170 157 163 163 162 168 168 180 184 184 180 184 184 160 166 166 132 140 140 0 0 0 0 0 0 109 16 33 147 40 60 147 40 60 147 40 60 92 6 21 0 0 0 0 0 0 109 16 33 147 40 60 112 8 28 115 0 21 92 6 21 0 0 0 0 0 0 0 0 0 78 3 10 99 4 15 106 23 28 106 0 1 88 18 22 78 3 10 154 39 52 154 39 52 154 39 52 78 3 10 88 18 22 106 23 28 106 0 1 88 18 22 0 0 0 0 0 0 73 12 9 89 15 12 115 26 23 86 38 29 80 25 20 117 20 16 104 18 13 73 12 9 104 18 13 67 20 14 96 53 41 82 42 33 75 34 26 0 0 0 0 0 0 242 233 186 218 209 159 205 197 139 213 206 154 193 185 118 210 203 146 236 227 180 195 187 121 205 197 139 205 197 139 192 184 118 218 211 168 221 212 165 210 203 146 229 224 187 196 188 115 242 233 186 218 209 159 221 212 165 213 206 154 221 212 165 230 223 178 236 227 180 236 227 180 221 212 165 221 212 165 218 211 168 218 211 168 221 212 165 230 223 178 229 224 187 196 188 115 0 0 0 0 0 0 0 0 0 60 56 56 60 56 56 60 56 56 59 55 55 59 55 55 70 66 66 70 66 66 60 56 56 60 56 56 60 56 56 0 0 0 0 0 0 0 0 0 0 0 0 0 0 0 0 0 0 60 56 56 45 42 42 78 75 75 78 74 74 78 74 74 53 50 50 70 66 66 78 75 75 78 75 75 60 56 56 0 0 0 0 0 0 0 0 0 107 63 127 214 127 255 214 127 255 214 127 255 214 127 255 214 127 255 214 127 255 214 127 255 214 127 255 214 127 255 214 127 255 214 127 255 214 127 255 214 127 255 214 127 255 214 127 255 107 63 127 214 127 255 214 127 255 214 127 255 214 127 255 214 127 255 214 127 255 214 127 255 214 127 255 214 127 255 214 127 255 214 127 255 214 127 255 214 127 255 214 127 255 214 127 255 107 63 127 214 127 255 214 127 255 214 127 255 214 127 255 214 127 255 214 127 255 214 127 255 214 127 255 214 127 255 214 127 255 214 127 255 214 127 255 214 127 255 214 127 255 214 127 255 107 63 127 214 127 255 214 127 255 214 127 255 214 127 255 214 127 255 214 127 255 214 127 255 
214 127 255 214 127 255 214 127 255 214 127 255 214 127 255 214 127 255 214 127 255 214 127 255 252 0 0 252 252 0 252 252 0 252 87 0 252 252 0 252 252 0 252 161 0 252 0 0 205 0 0 252 0 0 252 0 0 252 87 0 252 252 0 252 252 0 252 87 0 252 0 0 252 0 0 252 252 0 252 252 0 252 87 0 252 252 0 252 252 0 252 161 0 252 0 0 205 0 0 252 0 0 252 0 0 252 87 0 252 252 0 252 252 0 252 87 0 252 0 0 252 0 0 252 252 0 252 252 0 252 87 0 252 252 0 252 252 0 252 161 0 252 0 0 205 0 0 252 0 0 252 0 0 252 87 0 252 252 0 252 252 0 252 87 0 252 0 0 
51 27 31 62 30 36 62 30 36 70 38 44 62 30 36 56 26 31 56 26 31 56 26 31 30 16 19 56 26 31 62 30 36 70 38 44 70 38 44 68 36 42 68 36 42 56 26 31 162 168 168 160 166 166 174 178 178 180 184 184 168 174 174 162 168 168 157 163 163 150 156 156 128 134 134 153 159 159 162 168 168 169 175 175 152 158 158 153 159 159 169 175 175 178 182 182 0 0 0 0 0 0 109 16 33 147 40 60 112 8 28 112 8 28 92 6 21 0 0 0 0 0 0 0 0 0 92 6 21 112 8 28 92 6 21 0 0 0 0 0 0 0 0 0 99 4 15 154 39 52 87 18 23 96 35 35 93 16 13 87 18 23 78 3 10 154 39 52 119 6 20 125 0 13 78 3 10 80 28 28 105 23 29 93 16 13 87 18 23 0 0 0 0 0 0 66 21 17 79 25 20 114 59 49 86 38 29 73 32 25 116 20 17 86 38 29 66 21 17 93 30 23 60 27 22 93 50 40 82 43 32 63 47 38 0 0 0 0 0 0 242 233 186 192 184 117 221 212 165 196 188 124 221 212 165 221 212 165 218 209 158 205 199 141 221 212 165 218 211 168 201 193 134 213 205 156 221 212 165 194 186 120 223 216 171 196 188 115 242 233 186 218 209 159 221 212 165 218 209 159 221 212 165 221 212 165 218 209 158 221 215 168 221 212 165 218 211 168 213 205 156 213 205 156 221 212 165 228 222 178 223 216 171 196 188 115 0 0 0 0 0 0 0 0 0 71 67 67 70 66 66 70 66 66 64 60 60 59 55 55 59 54 55 59 55 55 54 51 51 59 55 55 64 60 60 0 0 0 0 0 0 0 0 0 0 0 0 0 0 0 0 0 0 53 50 50 88 84 84 70 66 66 64 60 60 59 55 55 78 73 74 45 41 41 40 38 38 45 41 41 64 60 60 0 0 0 0 0 0 0 0 0 107 63 127 214 127 255 214 127 255 214 127 255 214 127 255 214 127 255 214 127 255 214 127 255 214 127 255 214 127 255 214 127 255 214 127 255 214 127 255 214 127 255 214 127 255 214 127 255 107 63 127 214 127 255 214 127 255 214 127 255 214 127 255 214 127 255 214 127 255 214 127 255 214 127 255 214 127 255 214 127 255 214 127 255 214 127 255 214 127 255 214 127 255 214 127 255 107 63 127 214 127 255 214 127 255 214 127 255 214 127 255 214 127 255 214 127 255 214 127 255 214 127 255 214 127 255 214 127 255 214 127 255 214 127 255 214 127 255 214 127 255 214 127 255 107 63 127 214 127 255 214 127 255 214 127 255 214 127 255 214 127 255 214 127 255 214 127 255 
214 127 255 214 127 255 214 127 255 214 127 255 214 127 255 214 127 255 214 127 255 214 127 255 252 0 0 252 87 0 252 161 0 252 87 0 252 87 0 252 87 0 252 87 0 252 0 0 252 87 0 252 87 0 252 0 0 252 87 0 252 161 0 252 87 0 252 0 0 252 0 0 252 0 0 252 87 0 252 161 0 252 87 0 252 87 0 252 87 0 252 87 0 252 0 0 252 87 0 252 87 0 252 0 0 252 87 0 252 161 0 252 87 0 252 0 0 252 0 0 252 0 0 252 87 0 252 161 0 252 87 0 252 87 0 252 87 0 252 87 0 252 0 0 252 87 0 252 87 0 252 0 0 252 87 0 252 161 0 252 87 0 252 0 0 252 0 0 
36 20 23 56 26 31 52 24 29 48 24 28 48 24 28 48 24 28 48 24 28 48 24 28 36 20 23 56 26 31 48 24 28 48 24 28 48 24 28 48 24 28 48 24 28 36 20 23 172 178 178 172 178 178 156 162 162 151 157 157 169 175 175 157 163 163 160 166 166 163 169 169 180 184 184 167 173 173 144 152 152 145 153 153 157 163 163 162 168 168 147 155 155 139 147 147 0 0 0 0 0 0 0 0 0 70 4 14 112 8 28 70 4 14 0 0 0 0 0 0 0 0 0 0 0 0 70 4 14 112 8 28 70 4 14 0 0 0 0 0 0 0 0 0 78 3 10 119 6 20 64 22 20 99 34 32 85 25 20 69 14 16 0 0 0 69 14 16 119 6 20 69 14 16 0 0 0 64 22 20 107 22 27 85 25 20 69 14 16 0 0 0 0 0 0 66 20 15 66 20 15 101 41 32 89 37 28 61 25 19 95 29 22 108 49 39 66 20 15 95 29 22 61 25 19 110 70 53 78 48 37 57 35 26 0 0 0 0 0 0 232 224 187 213 206 154 213 206 154 213 206 154 213 206 154 202 196 127 213 206 154 213 206 154 213 206 154 218 211 168 213 206 154 213 206 154 213 206 154 213 206 154 213 206 154 202 196 127 232 224 187 213 206 154 213 206 154 213 206 154 213 206 154 202 196 127 213 206 154 213 206 154 213 206 154 218 211 168 230 223 178 213 206 154 213 206 154 213 206 154 213 206 154 202 196 127 0 0 0 0 0 0 0 0 0 60 56 56 60 56 56 60 56 56 59 55 55 59 55 55 63 59 59 63 59 59 69 65 65 70 66 66 64 60 60 0 0 0 0 0 0 0 0 0 0 0 0 0 0 0 0 0 0 78 75 75 45 42 42 60 56 56 59 55 55 59 55 55 48 45 45 81 78 78 87 83 83 88 84 84 48 45 45 0 0 0 0 0 0 0 0 0 107 63 127 214 127 255 214 127 255 214 127 255 214 127 255 214 127 255 214 127 255 214 127 255 214 127 255 214 127 255 214 127 255 214 127 255 214 127 255 214 127 255 214 127 255 214 127 255 107 63 127 214 127 255 214 127 255 214 127 255 214 127 255 214 127 255 214 127 255 214 127 255 214 127 255 214 127 255 214 127 255 214 127 255 214 127 255 214 127 255 214 127 255 214 127 255 107 63 127 214 127 255 214 127 255 214 127 255 214 127 255 214 127 255 214 127 255 214 127 255 214 127 255 214 127 255 214 127 255 214 127 255 214 127 255 214 127 255 214 127 255 214 127 255 107 63 127 214 127 255 214 127 255 214 127 255 214 127 255 214 127 255 214 127 255 214 127 255 214 127 255 
214 127 255 214 127 255 214 127 255 214 127 255 214 127 255 214 127 255 214 127 255 205 0 0 252 0 0 252 87 0 252 0 0 205 0 0 252 0 0 252 0 0 252 87 0 252 161 0 252 161 0 252 87 0 252 0 0 252 87 0 252 0 0 252 0 0 205 0 0 205 0 0 252 0 0 252 87 0 252 0 0 205 0 0 252 0 0 252 0 0 252 87 0 252 161 0 252 161 0 252 87 0 252 0 0 252 87 0 252 0 0 252 0 0 205 0 0 205 0 0 252 0 0 252 87 0 252 0 0 205 0 0 252 0 0 252 0 0 252 87 0 252 161 0 252 161 0 252 87 0 252 0 0 252 87 0 252 0 0 252 0 0 205 0 0 
36 20 23 56 26 31 48 24 28 48 24 28 48 24 28 48 24 28 30 16 19 30 16 19 30 16 19 56 26 31 48 24 28 36 20 23 36 20 23 30 16 19 36 20 23 36 20 23 133 141 141 141 149 149 168 174 174 157 163 163 139 147 147 147 155 155 169 175 175 174 178 178 152 158 158 146 154 154 160 166 166 168 174 174 139 147 147 141 149 149 167 173 173 169 175 175 0 0 0 0 0 0 0 0 0 64 0 0 112 8 28 64 0 0 0 0 0 110 23 38 70 4 14 0 0 0 64 0 0 112 8 28 64 0 0 0 0 0 0 0 0 0 0 0 0 0 0 69 0 0 54 17 13 96 35 35 83 27 22 60 10 8 0 0 0 60 10 8 105 23 29 60 10 8 0 0 0 54 17 13 105 23 29 83 27 22 60 10 8 0 0 0 0 0 0 58 18 15 58 18 15 97 43 34 86 38 29 54 23 19 93 30 23 86 38 29 58 18 15 86 38 29 58 18 15 87 57 46 78 47 37 48 31 25 0 0 0 0 0 0 202 196 127 195 186 122 202 196 127 192 186 120 202 196 127 202 196 127 202 196 127 195 186 122 202 196 127 192 186 120 191 183 113 192 186 120 202 196 127 192 186 120 196 188 115 191 183 113 202 196 127 195 186 122 202 196 127 192 186 120 202 196 127 202 196 127 202 196 127 195 186 122 202 196 127 192 186 120 191 183 113 192 186 120 202 196 127 192 186 120 196 188 115 191 183 113 0 0 0 0 0 0 0 0 0 60 56 56 55 52 52 70 66 66 70 66 66 63 59 59 63 59 59 64 60 60 64 60 59 59 55 55 59 55 55 0 0 0 0 0 0 0 0 0 0 0 0 0 0 0 0 0 0 60 56 56 74 71 71 70 66 66 70 66 66 63 59 59 81 78 78 64 60 60 64 60 59 59 55 55 78 74 74 0 0 0 0 0 0 0 0 0 107 63 127 214 127 255 214 127 255 214 127 255 214 127 255 214 127 255 214 127 255 214 127 255 214 127 255 214 127 255 214 127 255 214 127 255 214 127 255 214 127 255 214 127 255 214 127 255 107 63 127 214 127 255 214 127 255 214 127 255 214 127 255 214 127 255 214 127 255 214 127 255 214 127 255 214 127 255 214 127 255 214 127 255 214 127 255 214 127 255 214 127 255 214 127 255 107 63 127 214 127 255 214 127 255 214 127 255 214 127 255 214 127 255 214 127 255 214 127 255 214 127 255 214 127 255 214 127 255 214 127 255 214 127 255 214 127 255 214 127 255 214 127 255 107 63 127 214 127 255 214 127 255 214 127 255 214 127 255 214 127 255 214 127 255 214 127 255 214 127 255 214 127 255 
214 127 255 214 127 255 214 127 255 214 127 255 214 127 255 214 127 255 205 0 0 252 0 0 252 87 0 252 0 0 252 0 0 252 0 0 205 0 0 205 0 0 252 161 0 252 87 0 252 0 0 252 0 0 252 0 0 252 0 0 205 0 0 205 0 0 205 0 0 252 0 0 252 87 0 252 0 0 252 0 0 252 0 0 205 0 0 205 0 0 252 161 0 252 87 0 252 0 0 252 0 0 252 0 0 252 0 0 205 0 0 205 0 0 205 0 0 252 0 0 252 87 0 252 0 0 252 0 0 252 0 0 205 0 0 205 0 0 252 161 0 252 87 0 252 0 0 252 0 0 252 0 0 252 0 0 205 0 0 205 0 0 
255 255 255 255 255 255 255 255 255 255 255 255 255 255 255 255 255 255 255 255 255 255 255 255 255 255 255 255 255 255 255 255 255 255 255 255 255 255 255 255 255 255 255 255 255 255 255 255 255 255 255 255 255 255 255 255 255 255 255 255 255 255 255 255 255 255 255 255 255 255 255 255 255 255 255 255 255 255 255 255 255 255 255 255 255 255 255 255 255 255 255 255 255 255 255 255 255 255 255 255 255 255 255 255 255 255 255 255 255 255 255 255 255 255 255 255 255 255 255 255 255 255 255 255 255 255 255 255 255 255 255 255 255 255 255 255 255 255 255 255 255 255 255 255 255 255 255 255 255 255 255 255 255 255 255 255 255 255 255 255 255 255 255 255 255 255 255 255 255 255 255 255 255 255 255 255 255 255 255 255 255 255 255 255 255 255 255 255 255 255 255 255 255 255 255 255 255 255 255 255 255 255 255 255 255 255 255 255 255 255 255 255 255 255 255 255 255 255 255 255 255 255 255 255 255 255 255 255 255 255 255 255 255 255 255 255 255 255 255 255 255 255 255 255 255 255 255 255 255 255 255 255 255 255 255 255 255 255 255 255 255 255 255 255 255 255 255 255 255 255 255 255 255 255 255 255 255 255 255 255 255 255 255 255 255 255 255 255 255 255 255 255 255 255 255 255 255 255 255 255 255 255 255 255 255 255 255 255 255 255 255 255 255 255 255 255 255 255 255 255 255 255 255 255 255 255 255 255 255 255 255 255 255 255 255 255 255 255 255 255 255 255 255 255 255 255 255 255 255 255 255 255 255 255 255 255 255 255 255 255 255 255 255 255 255 255 255 255 255 255 255 255 255 255 255 255 255 255 255 255 255 255 255 255 255 255 255 255 255 255 255 255 255 255 255 255 255 255 255 255 255 255 61 61 61 255 255 255 155 155 155 255 255 255 255 255 255 255 255 255 255 255 255 255 255 255 155 155 155 255 255 255 255 255 255 255 255 255 61 61 61 255 255 255 255 255 255 255 255 255 61 61 61 255 255 255 155 155 155 255 255 255 61 61 61 255 255 255 61 61 61 255 255 255 155 155 155 255 255 255 0 0 0 0 0 0 0 0 0 0 0 0 0 0 0 0 0 0 0 0 0 0 0 0 0 0 0 0 0 0 0 0 0 0 0 0 0 0 0 0 0 0 0 0 0 0 0 0 0 0 0 0 0 0 0 0 0 0 0 0 0 0 0 0 0 0 0 0 0 
0 0 0 0 0 0 0 0 0 0 0 0 0 0 0 0 0 0 0 0 0 0 0 0 0 0 0 0 0 0 0 0 0 0 0 0 0 0 0 0 0 0 0 0 0 0 0 0 0 0 0 130 130 130 0 0 0 168 168 168 248 248 248 99 99 99 0 0 0 0 0 0 0 0 0 0 0 0 0 0 0 0 0 0 0 0 0 0 0 0 0 0 0 0 0 0 0 0 0 0 0 0 0 0 0 0 0 0 0 0 0 0 0 0 0 0 0 0 0 0 0 0 0 205 0 0 252 161 0 252 161 0 252 87 0 252 0 0 205 0 0 205 0 0 205 0 0 252 0 0 252 0 0 252 87 0 252 0 0 252 0 0 205 0 0 205 0 0 205 0 0 205 0 0 252 161 0 252 161 0 252 87 0 252 0 0 205 0 0 205 0 0 205 0 0 252 0 0 252 0 0 252 87 0 252 0 0 252 0 0 205 0 0 205 0 0 205 0 0 
255 255 255 255 255 255 255 255 255 255 255 255 255 255 255 255 255 255 255 255 255 255 255 255 255 255 255 255 255 255 255 255 255 255 255 255 255 255 255 255 255 255 255 255 255 255 255 255 255 255 255 255 255 255 255 255 255 255 255 255 255 255 255 255 255 255 255 255 255 255 255 255 255 255 255 255 255 255 255 255 255 255 255 255 255 255 255 255 255 255 255 255 255 255 255 255 255 255 255 255 255 255 255 255 255 255 255 255 255 255 255 255 255 255 255 255 255 255 255 255 255 255 255 255 255 255 255 255 255 255 255 255 255 255 255 255 255 255 255 255 255 255 255 255 255 255 255 255 255 255 255 255 255 255 255 255 255 255 255 255 255 255 255 255 255 255 255 255 255 255 255 255 255 255 255 255 255 255 255 255 255 255 255 255 255 255 255 255 255 255 255 255 255 255 255 255 255 255 255 255 255 255 255 255 255 255 255 255 255 255 255 255 255 255 255 255 255 255 255 255 255 255 255 255 255 255 255 255 255 255 255 255 255 255 255 255 255 255 255 255 255 255 255 255 255 255 255 255 255 255 255 255 255 255 255 255 255 255 255 255 255 255 255 255 255 255 255 255 255 255 255 255 255 255 255 255 255 255 255 255 255 255 255 255 255 255 255 255 255 255 255 255 255 255 255 255 255 255 255 255 255 255 255 61 61 61 255 255 255 255 255 255 255 255 255 255 255 255 255 255 255 255 255 255 255 255 255 255 255 255 255 255 255 255 255 255 255 255 255 255 255 255 255 255 255 255 255 255 61 61 61 61 61 61 255 255 255 255 255 255 255 255 255 255 255 255 255 255 255 255 255 255 255 255 255 255 255 255 255 255 255 255 255 255 255 255 255 255 255 255 255 255 255 61 61 61 61 61 61 61 61 61 155 155 155 255 255 255 255 255 255 255 255 255 61 61 61 255 255 255 61 61 61 255 255 255 255 255 255 255 255 255 255 255 255 255 255 255 155 155 155 61 61 61 61 61 61 61 61 61 155 155 155 255 255 255 255 255 255 255 255 255 61 61 61 255 255 255 61 61 61 255 255 255 255 255 255 255 255 255 0 0 0 0 0 0 0 0 0 0 0 0 0 0 0 0 0 0 0 0 0 0 0 0 0 0 0 0 0 0 0 0 0 0 0 0 0 0 0 0 0 0 0 0 0 0 0 0 0 0 0 0 0 0 0 0 0 0 0 0 0 0 0 0 0 0 0 0 0 0 0 0 0 0 0 0 0 0 0 0 0 
0 0 0 0 0 0 0 0 0 0 0 0 0 0 0 0 0 0 0 0 0 0 0 0 0 0 0 0 0 0 0 0 0 0 0 0 0 0 0 0 0 0 154 154 154 0 0 0 249 249 249 101 101 101 0 0 0 0 0 0 0 0 0 0 0 0 0 0 0 0 0 0 0 0 0 0 0 0 0 0 0 0 0 0 0 0 0 0 0 0 0 0 0 0 0 0 0 0 0 0 0 0 0 0 0 0 0 0 0 0 0 252 87 0 252 252 0 252 252 0 252 87 0 252 0 0 252 0 0 205 0 0 252 0 0 252 0 0 252 87 0 252 252 0 252 87 0 252 0 0 252 0 0 205 0 0 205 0 0 252 87 0 252 252 0 252 252 0 252 87 0 252 0 0 252 0 0 205 0 0 252 0 0 252 0 0 252 87 0 252 252 0 252 87 0 252 0 0 252 0 0 205 0 0 205 0 0 
255 255 255 255 255 255 255 255 255 255 255 255 255 255 255 255 255 255 255 255 255 255 255 255 255 255 255 255 255 255 255 255 255 255 255 255 255 255 255 255 255 255 255 255 255 255 255 255 255 255 255 255 255 255 255 255 255 255 255 255 255 255 255 255 255 255 255 255 255 255 255 255 255 255 255 255 255 255 255 255 255 255 255 255 255 255 255 255 255 255 255 255 255 255 255 255 255 255 255 255 255 255 255 255 255 255 255 255 255 255 255 255 255 255 255 255 255 255 255 255 255 255 255 255 255 255 255 255 255 255 255 255 255 255 255 255 255 255 255 255 255 255 255 255 255 255 255 255 255 255 255 255 255 255 255 255 255 255 255 255 255 255 255 255 255 255 255 255 255 255 255 255 255 255 255 255 255 255 255 255 255 255 255 255 255 255 255 255 255 255 255 255 255 255 255 255 255 255 255 255 255 255 255 255 255 255 255 255 255 255 255 255 255 255 255 255 61 61 61 255 255 255 255 255 255 255 255 255 255 255 255 255 255 255 255 255 255 255 255 255 255 255 255 255 255 255 255 255 255 255 255 255 255 255 255 255 255 255 61 61 61 255 255 255 61 61 61 61 61 61 255 255 255 255 255 255 255 255 255 255 255 255 255 255 255 255 255 255 255 255 255 255 255 255 255 255 255 255 255 255 255 255 255 155 155 155 61 61 61 255 255 255 61 61 61 61 61 61 255 255 255 255 255 255 255 255 255 255 255 255 255 255 255 255 255 255 255 255 255 255 255 255 255 255 255 255 255 255 155 155 155 155 155 155 61 61 61 255 255 255 61 61 61 61 61 61 255 255 255 255 255 255 255 255 255 255 255 255 255 255 255 255 255 255 255 255 255 61 61 61 255 255 255 155 155 155 155 155 155 155 155 155 61 61 61 255 255 255 61 61 61 61 61 61 155 155 155 255 255 255 155 155 155 61 61 61 255 255 255 255 255 255 255 255 255 61 61 61 255 255 255 155 155 155 155 155 155 155 155 155 61 61 61 255 255 255 61 61 61 61 61 61 155 155 155 255 255 255 155 155 155 61 61 61 255 255 255 255 255 255 0 0 0 0 0 0 0 0 0 0 0 0 0 0 0 0 0 0 0 0 0 0 0 0 0 0 0 0 0 0 0 0 0 0 0 0 0 0 0 0 0 0 0 0 0 0 0 0 0 0 0 0 0 0 0 0 0 0 0 0 0 0 0 0 0 0 0 0 0 0 0 0 0 0 0 0 0 0 0 0 0 0 0 0 0 0 0 0 0 0 
0 0 0 0 0 0 0 0 0 0 0 0 0 0 0 0 0 0 0 0 0 0 0 0 0 0 0 0 0 0 142 142 142 0 0 0 175 175 175 249 249 249 101 101 101 0 0 0 0 0 0 0 0 0 0 0 0 0 0 0 0 0 0 0 0 0 0 0 0 0 0 0 0 0 0 0 0 0 0 0 0 0 0 0 255 255 255 0 0 0 0 0 0 0 0 0 0 0 0 0 0 0 252 87 0 252 161 0 252 252 0 252 87 0 205 0 0 252 0 0 252 0 0 252 87 0 252 0 0 252 87 0 252 252 0 252 161 0 205 0 0 252 0 0 252 0 0 252 0 0 252 87 0 252 161 0 252 252 0 252 87 0 205 0 0 252 0 0 252 0 0 252 87 0 252 0 0 252 87 0 252 252 0 252 161 0 205 0 0 252 0 0 252 0 0 252 0 0 
255 255 255 255 255 255 255 255 255 255 255 255 255 255 255 255 255 255 255 255 255 255 255 255 255 255 255 255 255 255 255 255 255 255 255 255 255 255 255 255 255 255 255 255 255 255 255 255 255 255 255 255 255 255 255 255 255 255 255 255 255 255 255 255 255 255 255 255 255 255 255 255 255 255 255 255 255 255 255 255 255 255 255 255 255 255 255 255 255 255 255 255 255 255 255 255 255 255 255 255 255 255 255 255 255 255 255 255 255 255 255 255 255 255 255 255 255 255 255 255 255 255 255 255 255 255 255 255 255 255 255 255 255 255 255 255 255 255 255 255 255 255 255 255 255 255 255 255 255 255 255 255 255 255 255 255 255 255 255 255 255 255 255 255 255 61 61 61 255 255 255 255 255 255 255 255 255 255 255 255 255 255 255 255 255 255 255 255 255 255 255 255 255 255 255 255 255 255 255 255 255 255 255 255 255 255 255 255 255 255 255 255 255 61 61 61 155 155 155 255 255 255 255 255 255 255 255 255 255 255 255 255 255 255 255 255 255 255 255 255 255 255 255 255 255 255 255 255 255 255 255 255 255 255 255 255 255 255 155 155 155 61 61 61 155 155 155 155 155 155 255 255 255 255 255 255 255 255 255 255 255 255 255 255 255 255 255 255 255 255 255 255 255 255 255 255 255 255 255 255 255 255 255 255 255 255 155 155 155 61 61 61 155 155 155 155 155 155 255 255 255 255 255 255 255 255 255 255 255 255 255 255 255 255 255 255 255 255 255 255 255 255 61 61 61 61 61 61 255 255 255 255 255 255 155 155 155 61 61 61 155 155 155 155 155 155 255 255 255 255 255 255 255 255 255 61 61 61 255 255 255 255 255 255 255 255 255 155 155 155 61 61 61 61 61 61 255 255 255 255 255 255 155 155 155 61 61 61 155 155 155 155 155 155 255 255 255 255 255 255 255 255 255 61 61 61 255 255 255 255 255 255 255 255 255 155 155 155 61 61 61 61 61 61 255 255 255 255 255 255 155 155 155 61 61 61 155 155 155 155 155 155 255 255 255 255 255 255 255 255 255 61 61 61 255 255 255 255 255 255 0 0 0 0 0 0 0 0 0 0 0 0 0 0 0 0 0 0 0 0 0 0 0 0 0 0 0 0 0 0 0 0 0 0 0 0 0 0 0 0 0 0 0 0 0 0 0 0 0 0 0 0 0 0 0 0 0 0 0 0 0 0 0 0 0 0 0 0 0 0 0 0 0 0 0 0 0 0 0 0 0 0 0 0 
0 0 0 0 0 0 0 0 0 0 0 0 0 0 0 0 0 0 0 0 0 0 0 0 0 0 0 0 0 0 0 0 0 132 132 132 0 0 0 166 166 166 0 0 0 250 250 250 101 101 101 0 0 0 0 0 0 0 0 0 0 0 0 0 0 0 0 0 0 0 0 0 0 0 0 0 0 0 0 0 0 0 0 0 0 0 0 0 0 0 0 0 0 0 0 0 0 0 0 0 0 0 0 0 0 0 0 0 252 0 0 252 0 0 252 87 0 252 0 0 252 87 0 252 87 0 252 161 0 252 252 0 252 87 0 252 87 0 252 87 0 252 87 0 252 87 0 252 87 0 252 0 0 252 0 0 252 0 0 252 0 0 252 87 0 252 0 0 252 87 0 252 87 0 252 161 0 252 252 0 252 87 0 252 87 0 252 87 0 252 87 0 252 87 0 252 87 0 252 0 0 252 0 0 
255 255 255 255 255 255 255 255 255 255 255 255 255 255 255 255 255 255 255 255 255 255 255 255 255 255 255 255 255 255 255 255 255 255 255 255 255 255 255 255 255 255 255 255 255 255 255 255 255 255 255 255 255 255 255 255 255 255 255 255 255 255 255 255 255 255 255 255 255 255 255 255 255 255 255 255 255 255 255 255 255 255 255 255 255 255 255 255 255 255 255 255 255 255 255 255 255 255 255 255 255 255 255 255 255 255 255 255 255 255 255 255 255 255 61 61 61 255 255 255 255 255 255 255 255 255 255 255 255 255 255 255 255 255 255 255 255 255 255 255 255 255 255 255 255 255 255 255 255 255 255 255 255 255 255 255 255 255 255 255 255 255 61 61 61 155 155 155 255 255 255 255 255 255 255 255 255 255 255 255 255 255 255 255 255 255 255 255 255 255 255 255 255 255 255 255 255 255 255 255 255 255 255 255 255 255 255 255 255 255 61 61 61 155 155 155 255 255 255 61 61 61 255 255 255 255 255 255 255 255 255 61 61 61 255 255 255 255 255 255 255 255 255 255 255 255 255 255 255 255 255 255 255 255 255 255 255 255 61 61 61 155 155 155 255 255 255 61 61 61 255 255 255 255 255 255 255 255 255 61 61 61 61 61 61 255 255 255 255 255 255 255 255 255 255 255 255 255 255 255 61 61 61 255 255 255 61 61 61 155 155 155 255 255 255 61 61 61 255 255 255 255 255 255 255 255 255 61 61 61 61 61 61 255 255 255 255 255 255 255 255 255 155 155 155 155 155 155 61 61 61 255 255 255 61 61 61 155 155 155 255 255 255 61 61 61 61 61 61 255 255 255 255 255 255 61 61 61 61 61 61 255 255 255 255 255 255 61 61 61 155 155 155 155 155 155 61 61 61 255 255 255 61 61 61 155 155 155 255 255 255 61 61 61 61 61 61 255 255 255 255 255 255 61 61 61 61 61 61 255 255 255 61 61 61 61 61 61 155 155 155 155 155 155 61 61 61 255 255 255 61 61 61 155 155 155 255 255 255 61 61 61 61 61 61 255 255 255 255 255 255 61 61 61 61 61 61 255 255 255 0 0 0 0 0 0 0 0 0 0 0 0 0 0 0 0 0 0 0 0 0 0 0 0 0 0 0 0 0 0 0 0 0 0 0 0 0 0 0 0 0 0 0 0 0 0 0 0 0 0 0 0 0 0 0 0 0 0 0 0 0 0 0 0 0 0 0 0 0 0 0 0 0 0 0 0 0 0 0 0 0 0 0 0 0 0 0 0 0 0 0 0 0 0 0 0 0 0 0 0 0 0 0 0 0 0 0 0 0 0 0 0 0 0 
127 127 127 0 0 0 157 157 157 0 0 0 249 249 249 99 99 99 0 0 0 0 0 0 0 0 0 0 0 0 0 0 0 0 0 0 255 255 255 255 255 255 0 0 0 0 0 0 0 0 0 0 0 0 0 0 0 0 0 0 0 0 0 0 0 0 0 0 0 0 0 0 0 0 0 0 0 0 252 0 0 205 0 0 252 0 0 252 87 0 252 252 0 252 87 0 252 87 0 252 87 0 252 161 0 252 252 0 252 87 0 252 252 0 252 252 0 252 161 0 252 87 0 252 0 0 252 0 0 205 0 0 252 0 0 252 87 0 252 252 0 252 87 0 252 87 0 252 87 0 252 161 0 252 252 0 252 87 0 252 252 0 252 252 0 252 161 0 252 87 0 252 0 0 
255 255 255 255 255 255 255 255 255 255 255 255 255 255 255 255 255 255 255 255 255 255 255 255 255 255 255 255 255 255 255 255 255 255 255 255 255 255 255 255 255 255 255 255 255 255 255 255 255 255 255 255 255 255 255 255 255 255 255 255 255 255 255 255 255 255 61 61 61 255 255 255 255 255 255 255 255 255 255 255 255 255 255 255 255 255 255 255 255 255 255 255 255 255 255 255 255 255 255 255 255 255 255 255 255 255 255 255 255 255 255 255 255 255 61 61 61 255 255 255 255 255 255 255 255 255 255 255 255 255 255 255 255 255 255 255 255 255 255 255 255 255 255 255 255 255 255 255 255 255 255 255 255 255 255 255 255 255 255 255 255 255 61 61 61 255 255 255 255 255 255 61 61 61 255 255 255 255 255 255 61 61 61 255 255 255 255 255 255 255 255 255 255 255 255 255 255 255 255 255 255 255 255 255 255 255 255 255 255 255 61 61 61 255 255 255 255 255 255 61 61 61 255 255 255 255 255 255 61 61 61 155 155 155 255 255 255 255 255 255 255 255 255 255 255 255 255 255 255 255 255 255 61 61 61 255 255 255 61 61 61 255 255 255 255 255 255 61 61 61 255 255 255 255 255 255 61 61 61 155 155 155 155 155 155 255 255 255 255 255 255 255 255 255 255 255 255 255 255 255 61 61 61 255 255 255 61 61 61 255 255 255 255 255 255 61 61 61 255 255 255 255 255 255 61 61 61 155 155 155 155 155 155 255 255 255 255 255 255 255 255 255 255 255 255 255 255 255 61 61 61 255 255 255 61 61 61 255 255 255 255 255 255 61 61 61 155 155 155 255 255 255 61 61 61 155 155 155 155 155 155 61 61 61 255 255 255 155 155 155 255 255 255 255 255 255 61 61 61 255 255 255 61 61 61 255 255 255 255 255 255 61 61 61 155 155 155 255 255 255 61 61 61 155 155 155 155 155 155 61 61 61 155 155 155 155 155 155 255 255 255 255 255 255 61 61 61 255 255 255 61 61 61 255 255 255 255 255 255 61 61 61 155 155 155 255 255 255 61 61 61 155 155 155 155 155 155 61 61 61 0 0 0 0 0 0 0 0 0 0 0 0 0 0 0 0 0 0 0 0 0 0 0 0 0 0 0 0 0 0 0 0 0 0 0 0 0 0 0 0 0 0 0 0 0 0 0 0 0 0 0 0 0 0 0 0 0 0 0 0 0 0 0 0 0 0 0 0 0 0 0 0 0 0 0 0 0 0 0 0 0 0 0 0 0 0 0 0 0 0 0 0 0 0 0 0 0 0 0 0 0 0 0 0 0 0 0 0 
0 0 0 125 125 125 0 0 0 153 153 153 0 0 0 177 177 177 250 250 250 99 99 99 0 0 0 0 0 0 0 0 0 0 0 0 0 0 0 0 0 0 0 0 0 0 0 0 0 0 0 0 0 0 0 0 0 0 0 0 0 0 0 0 0 0 0 0 0 255 255 255 0 0 0 0 0 0 0 0 0 0 0 0 252 0 0 252 0 0 252 161 0 252 252 0 252 87 0 252 87 0 205 0 0 252 0 0 252 0 0 252 0 0 205 0 0 252 161 0 252 161 0 252 87 0 252 87 0 252 0 0 252 0 0 252 0 0 252 161 0 252 252 0 252 87 0 252 87 0 205 0 0 252 0 0 252 0 0 252 0 0 205 0 0 252 161 0 252 161 0 252 87 0 252 87 0 252 0 0 
255 255 255 255 255 255 255 255 255 255 255 255 255 255 255 255 255 255 255 255 255 255 255 255 255 255 255 255 255 255 255 255 255 255 255 255 255 255 255 255 255 255 255 255 255 255 255 255 255 255 255 255 255 255 255 255 255 255 255 255 255 255 255 255 255 255 61 61 61 255 255 255 255 255 255 255 255 255 255 255 255 255 255 255 255 255 255 255 255 255 255 255 255 255 255 255 255 255 255 255 255 255 255 255 255 255 255 255 255 255 255 255 255 255 61 61 61 255 255 255 255 255 255 255 255 255 61 61 61 61 61 61 255 255 255 255 255 255 255 255 255 255 255 255 255 255 255 255 255 255 255 255 255 255 255 255 255 255 255 61 61 61 61 61 61 255 255 255 255 255 255 155 155 155 61 61 61 61 61 61 155 155 155 255 255 255 255 255 255 255 255 255 255 255 255 255 255 255 255 255 255 255 255 255 61 61 61 61 61 61 61 61 61 255 255 255 255 255 255 155 155 155 61 61 61 61 61 61 155 155 155 255 255 255 255 255 255 255 255 255 255 255 255 255 255 255 255 255 255 255 255 255 61 61 61 61 61 61 61 61 61 255 255 255 255 255 255 155 155 155 61 61 61 61 61 61 155 155 155 255 255 255 255 255 255 255 255 255 255 255 255 255 255 255 255 255 255 255 255 255 61 61 61 61 61 61 61 61 61 255 255 255 255 255 255 155 155 155 61 61 61 61 61 61 155 155 155 255 255 255 255 255 255 255 255 255 255 255 255 255 255 255 255 255 255 255 255 255 61 61 61 61 61 61 61 61 61 255 255 255 255 255 255 155 155 155 61 61 61 61 61 61 155 155 155 255 255 255 255 255 255 155 155 155 255 255 255 255 255 255 255 255 255 255 255 255 61 61 61 61 61 61 61 61 61 255 255 255 255 255 255 155 155 155 61 61 61 61 61 61 155 155 155 255 255 255 255 255 255 155 155 155 255 255 255 255 255 255 255 255 255 255 255 255 61 61 61 61 61 61 61 61 61 255 255 255 255 255 255 155 155 155 61 61 61 61 61 61 155 155 155 255 255 255 255 255 255 155 155 155 0 0 0 0 0 0 0 0 0 0 0 0 0 0 0 0 0 0 0 0 0 0 0 0 0 0 0 0 0 0 0 0 0 0 0 0 0 0 0 0 0 0 0 0 0 0 0 0 0 0 0 0 0 0 0 0 0 0 0 0 0 0 0 0 0 0 0 0 0 0 0 0 0 0 0 0 0 0 0 0 0 0 0 0 0 0 0 0 0 0 0 0 0 0 0 0 0 0 0 0 0 0 108 108 108 0 0 0 129 129 129 
0 0 0 150 150 150 0 0 0 173 173 173 249 249 249 97 97 97 0 0 0 0 0 0 0 0 0 0 0 0 0 0 0 0 0 0 0 0 0 0 0 0 0 0 0 0 0 0 0 0 0 0 0 0 0 0 0 0 0 0 0 0 0 0 0 0 0 0 0 0 0 0 0 0 0 0 0 0 0 0 0 205 0 0 252 0 0 252 87 0 252 0 0 252 0 0 252 0 0 205 0 0 205 0 0 252 0 0 252 0 0 252 0 0 252 87 0 252 0 0 252 0 0 252 161 0 252 0 0 205 0 0 252 0 0 252 87 0 252 0 0 252 0 0 252 0 0 205 0 0 205 0 0 252 0 0 252 0 0 252 0 0 252 87 0 252 0 0 252 0 0 252 161 0 252 0 0 
255 255 255 255 255 255 255 255 255 255 255 255 255 255 255 255 255 255 255 255 255 61 61 61 255 255 255 255 255 255 255 255 255 255 255 255 255 255 255 255 255 255 255 255 255 255 255 255 255 255 255 255 255 255 255 255 255 255 255 255 255 255 255 255 255 255 155 155 155 61 61 61 255 255 255 61 61 61 255 255 255 255 255 255 255 255 255 255 255 255 255 255 255 255 255 255 255 255 255 255 255 255 255 255 255 255 255 255 255 255 255 255 255 255 155 155 155 61 61 61 255 255 255 61 61 61 155 155 155 155 155 155 255 255 255 255 255 255 255 255 255 255 255 255 255 255 255 255 255 255 255 255 255 255 255 255 255 255 255 155 155 155 155 155 155 61 61 61 255 255 255 61 61 61 155 155 155 155 155 155 255 255 255 255 255 255 255 255 255 255 255 255 255 255 255 255 255 255 255 255 255 61 61 61 155 155 155 155 155 155 155 155 155 61 61 61 255 255 255 61 61 61 155 155 155 155 155 155 255 255 255 255 255 255 255 255 255 255 255 255 255 255 255 255 255 255 255 255 255 61 61 61 155 155 155 155 155 155 155 155 155 61 61 61 255 255 255 61 61 61 155 155 155 155 155 155 255 255 255 255 255 255 255 255 255 255 255 255 255 255 255 255 255 255 255 255 255 61 61 61 155 155 155 155 155 155 155 155 155 61 61 61 255 255 255 61 61 61 155 155 155 61 61 61 255 255 255 255 255 255 255 255 255 255 255 255 255 255 255 255 255 255 255 255 255 61 61 61 155 155 155 155 155 155 155 155 155 61 61 61 255 255 255 61 61 61 155 155 155 61 61 61 255 255 255 255 255 255 255 255 255 255 255 255 255 255 255 255 255 255 255 255 255 61 61 61 155 155 155 155 155 155 155 155 155 61 61 61 255 255 255 61 61 61 155 155 155 61 61 61 255 255 255 255 255 255 255 255 255 255 255 255 61 61 61 61 61 61 255 255 255 61 61 61 155 155 155 155 155 155 155 155 155 61 61 61 255 255 255 61 61 61 155 155 155 61 61 61 255 255 255 255 255 255 255 255 255 255 255 255 0 0 0 0 0 0 0 0 0 0 0 0 0 0 0 0 0 0 0 0 0 0 0 0 0 0 0 0 0 0 0 0 0 0 0 0 0 0 0 0 0 0 0 0 0 0 0 0 0 0 0 0 0 0 0 0 0 122 122 122 0 0 0 0 0 0 0 0 0 122 122 122 0 0 0 0 0 0 0 0 0 122 122 122 0 0 0 0 0 0 0 0 0 120 120 120 
0 0 0 0 0 0 0 0 0 134 134 134 0 0 0 153 153 153 0 0 0 171 171 171 0 0 0 250 250 250 99 99 99 0 0 0 0 0 0 0 0 0 0 0 0 0 0 0 0 0 0 0 0 0 0 0 0 255 255 255 0 0 0 255 255 255 255 255 255 0 0 0 0 0 0 0 0 0 0 0 0 0 0 0 0 0 0 0 0 0 0 0 0 0 0 0 205 0 0 205 0 0 252 0 0 252 87 0 252 161 0 252 87 0 205 0 0 205 0 0 252 87 0 252 87 0 252 0 0 205 0 0 252 0 0 252 161 0 252 252 0 252 161 0 205 0 0 205 0 0 252 0 0 252 87 0 252 161 0 252 87 0 205 0 0 205 0 0 252 87 0 252 87 0 252 0 0 205 0 0 252 0 0 252 161 0 252 252 0 252 161 0 
255 255 255 255 255 255 255 255 255 255 255 255 255 255 255 255 255 255 255 255 255 155 155 155 61 61 61 255 255 255 255 255 255 255 255 255 255 255 255 255 255 255 255 255 255 255 255 255 255 255 255 255 255 255 255 255 255 255 255 255 255 255 255 255 255 255 255 255 255 155 155 155 61 61 61 155 155 155 255 255 255 255 255 255 255 255 255 255 255 255 255 255 255 255 255 255 255 255 255 255 255 255 255 255 255 255 255 255 255 255 255 255 255 255 255 255 255 155 155 155 61 61 61 155 155 155 255 255 255 255 255 255 255 255 255 255 255 255 255 255 255 255 255 255 255 255 255 255 255 255 255 255 255 255 255 255 255 255 255 255 255 255 255 255 255 155 155 155 61 61 61 155 155 155 255 255 255 255 255 255 255 255 255 255 255 255 255 255 255 255 255 255 255 255 255 255 255 255 255 255 255 155 155 155 255 255 255 255 255 255 255 255 255 155 155 155 61 61 61 155 155 155 255 255 255 255 255 255 255 255 255 255 255 255 255 255 255 255 255 255 255 255 255 255 255 255 61 61 61 155 155 155 255 255 255 255 255 255 255 255 255 155 155 155 61 61 61 155 155 155 255 255 255 255 255 255 255 255 255 255 255 255 255 255 255 255 255 255 255 255 255 255 255 255 61 61 61 155 155 155 255 255 255 255 255 255 255 255 255 155 155 155 61 61 61 155 155 155 255 255 255 155 155 155 255 255 255 255 255 255 255 255 255 255 255 255 255 255 255 255 255 255 61 61 61 155 155 155 255 255 255 61 61 61 255 255 255 155 155 155 61 61 61 155 155 155 255 255 255 61 61 61 255 255 255 255 255 255 255 255 255 255 255 255 255 255 255 255 255 255 61 61 61 155 155 155 255 255 255 61 61 61 255 255 255 155 155 155 61 61 61 155 155 155 255 255 255 61 61 61 255 255 255 255 255 255 255 255 255 255 255 255 155 155 155 155 155 155 61 61 61 155 155 155 255 255 255 61 61 61 255 255 255 155 155 155 61 61 61 155 155 155 255 255 255 61 61 61 255 255 255 255 255 255 255 255 255 61 61 61 0 0 0 0 0 0 0 0 0 0 0 0 0 0 0 0 0 0 0 0 0 0 0 0 0 0 0 0 0 0 0 0 0 0 0 0 0 0 0 0 0 0 0 0 0 0 0 0 142 142 142 0 0 0 142 142 142 0 0 0 142 142 142 0 0 0 140 140 140 0 0 0 142 142 142 0 0 0 
140 140 140 0 0 0 140 140 140 0 0 0 140 140 140 0 0 0 142 142 142 0 0 0 147 147 147 0 0 0 158 158 158 0 0 0 173 173 173 0 0 0 250 250 250 99 99 99 0 0 0 0 0 0 0 0 0 0 0 0 0 0 0 0 0 0 0 0 0 0 0 0 0 0 0 0 0 0 0 0 0 0 0 0 0 0 0 0 0 0 0 0 0 255 255 255 0 0 0 0 0 0 0 0 0 0 0 0 0 0 0 0 0 0 205 0 0 205 0 0 252 87 0 252 161 0 252 252 0 252 161 0 252 0 0 252 0 0 252 161 0 252 252 0 252 87 0 205 0 0 252 0 0 252 87 0 252 87 0 252 87 0 205 0 0 205 0 0 252 87 0 252 161 0 252 252 0 252 161 0 252 0 0 252 0 0 252 161 0 252 252 0 252 87 0 205 0 0 252 0 0 252 87 0 252 87 0 252 87 0 
255 255 255 255 255 255 255 255 255 255 255 255 255 255 255 255 255 255 255 255 255 255 255 255 155 155 155 255 255 255 255 255 255 255 255 255 255 255 255 255 255 255 255 255 255 255 255 255 255 255 255 255 255 255 255 255 255 255 255 255 255 255 255 255 255 255 255 255 255 255 255 255 61 61 61 255 255 255 255 255 255 255 255 255 255 255 255 255 255 255 255 255 255 255 255 255 255 255 255 255 255 255 255 255 255 255 255 255 255 255 255 255 255 255 255 255 255 255 255 255 61 61 61 255 255 255 255 255 255 255 255 255 255 255 255 255 255 255 255 255 255 255 255 255 255 255 255 255 255 255 255 255 255 255 255 255 255 255 255 255 255 255 255 255 255 255 255 255 61 61 61 255 255 255 255 255 255 255 255 255 255 255 255 255 255 255 255 255 255 255 255 255 255 255 255 255 255 255 255 255 255 255 255 255 255 255 255 255 255 255 255 255 255 255 255 255 61 61 61 255 255 255 255 255 255 255 255 255 255 255 255 255 255 255 255 255 255 255 255 255 255 255 255 255 255 255 155 155 155 255 255 255 255 255 255 255 255 255 255 255 255 255 255 255 61 61 61 255 255 255 255 255 255 255 255 255 255 255 255 255 255 255 255 255 255 255 255 255 255 255 255 255 255 255 61 61 61 255 255 255 61 61 61 255 255 255 255 255 255 255 255 255 61 61 61 255 255 255 255 255 255 255 255 255 255 255 255 255 255 255 255 255 255 255 255 255 255 255 255 255 255 255 61 61 61 255 255 255 61 61 61 155 155 155 255 255 255 255 255 255 61 61 61 255 255 255 255 255 255 155 155 155 61 61 61 255 255 255 255 255 255 255 255 255 255 255 255 255 255 255 61 61 61 255 255 255 61 61 61 155 155 155 255 255 255 255 255 255 61 61 61 255 255 255 255 255 255 155 155 155 61 61 61 255 255 255 61 61 61 255 255 255 255 255 255 255 255 255 61 61 61 255 255 255 61 61 61 155 155 155 255 255 255 255 255 255 61 61 61 255 255 255 255 255 255 155 155 155 61 61 61 255 255 255 61 61 61 155 155 155 0 0 0 0 0 0 0 0 0 0 0 0 0 0 0 0 0 0 0 0 0 0 0 0 0 0 0 0 0 0 0 0 0 0 0 0 0 0 0 0 0 0 0 0 0 0 0 0 0 0 0 160 160 160 0 0 0 158 158 158 0 0 0 158 158 158 0 0 0 158 158 158 0 0 0 160 160 160 
0 0 0 158 158 158 0 0 0 158 158 158 0 0 0 160 160 160 0 0 0 158 158 158 0 0 0 167 167 167 0 0 0 177 177 177 249 249 249 250 250 250 99 99 99 0 0 0 0 0 0 0 0 0 0 0 0 0 0 0 0 0 0 0 0 0 0 0 0 0 0 0 255 255 255 0 0 0 0 0 0 0 0 0 0 0 0 0 0 0 0 0 0 0 0 0 0 0 0 0 0 0 255 255 255 0 0 0 255 255 255 0 0 0 252 0 0 252 0 0 252 0 0 252 87 0 252 87 0 252 87 0 252 0 0 252 0 0 252 87 0 252 252 0 252 87 0 205 0 0 205 0 0 252 0 0 252 87 0 252 0 0 252 0 0 252 0 0 252 0 0 252 87 0 252 87 0 252 87 0 252 0 0 252 0 0 252 87 0 252 252 0 252 87 0 205 0 0 205 0 0 252 0 0 252 87 0 252 0 0 
255 255 255 255 255 255 255 255 255 255 255 255 255 255 255 255 255 255 255 255 255 255 255 255 255 255 255 255 255 255 255 255 255 255 255 255 255 255 255 255 255 255 255 255 255 255 255 255 255 255 255 255 255 255 255 255 255 255 255 255 255 255 255 255 255 255 255 255 255 255 255 255 155 155 155 255 255 255 255 255 255 255 255 255 255 255 255 255 255 255 255 255 255 255 255 255 255 255 255 255 255 255 255 255 255 255 255 255 255 255 255 255 255 255 255 255 255 255 255 255 61 61 61 255 255 255 255 255 255 255 255 255 255 255 255 255 255 255 255 255 255 255 255 255 255 255 255 255 255 255 255 255 255 255 255 255 255 255 255 255 255 255 255 255 255 255 255 255 61 61 61 255 255 255 255 255 255 255 255 255 255 255 255 255 255 255 255 255 255 255 255 255 255 255 255 255 255 255 255 255 255 255 255 255 255 255 255 255 255 255 255 255 255 255 255 255 61 61 61 255 255 255 255 255 255 255 255 255 255 255 255 255 255 255 255 255 255 255 255 255 255 255 255 255 255 255 255 255 255 255 255 255 255 255 255 61 61 61 255 255 255 255 255 255 61 61 61 255 255 255 255 255 255 255 255 255 255 255 255 255 255 255 255 255 255 255 255 255 255 255 255 255 255 255 155 155 155 255 255 255 155 155 155 61 61 61 255 255 255 255 255 255 61 61 61 61 61 61 255 255 255 255 255 255 255 255 255 255 255 255 255 255 255 255 255 255 255 255 255 255 255 255 155 155 155 255 255 255 155 155 155 61 61 61 255 255 255 255 255 255 61 61 61 61 61 61 255 255 255 255 255 255 155 155 155 255 255 255 255 255 255 255 255 255 61 61 61 255 255 255 155 155 155 255 255 255 155 155 155 61 61 61 255 255 255 255 255 255 61 61 61 61 61 61 255 255 255 255 255 255 155 155 155 61 61 61 155 155 155 255 255 255 61 61 61 255 255 255 155 155 155 255 255 255 155 155 155 61 61 61 255 255 255 255 255 255 61 61 61 61 61 61 255 255 255 255 255 255 155 155 155 61 61 61 155 155 155 255 255 255 0 0 0 0 0 0 0 0 0 0 0 0 0 0 0 0 0 0 0 0 0 0 0 0 0 0 0 0 0 0 0 0 0 0 0 0 0 0 0 0 0 0 0 0 0 0 0 0 173 173 173 0 0 0 175 175 175 0 0 0 173 173 173 0 0 0 175 175 175 0 0 0 175 175 175 0 0 0 
175 175 175 0 0 0 175 175 175 0 0 0 175 175 175 0 0 0 175 175 175 0 0 0 177 177 177 0 0 0 249 249 249 250 250 250 97 97 97 99 99 99 0 0 0 0 0 0 0 0 0 0 0 0 0 0 0 0 0 0 0 0 0 0 0 0 0 0 0 255 255 255 0 0 0 0 0 0 0 0 0 0 0 0 0 0 0 255 255 255 0 0 0 0 0 0 0 0 0 0 0 0 0 0 0 0 0 0 0 0 0 0 0 0 252 0 0 252 87 0 252 87 0 252 0 0 252 0 0 252 0 0 205 0 0 252 0 0 252 87 0 252 87 0 252 87 0 252 0 0 252 0 0 252 161 0 252 87 0 252 0 0 252 0 0 252 87 0 252 87 0 252 0 0 252 0 0 252 0 0 205 0 0 252 0 0 252 87 0 252 87 0 252 87 0 252 0 0 252 0 0 252 161 0 252 87 0 252 0 0 
255 255 255 255 255 255 255 255 255 255 255 255 255 255 255 255 255 255 255 255 255 255 255 255 255 255 255 255 255 255 255 255 255 255 255 255 255 255 255 255 255 255 255 255 255 255 255 255 255 255 255 255 255 255 255 255 255 255 255 255 255 255 255 255 255 255 255 255 255 255 255 255 255 255 255 255 255 255 255 255 255 255 255 255 255 255 255 255 255 255 255 255 255 255 255 255 255 255 255 255 255 255 255 255 255 255 255 255 255 255 255 255 255 255 255 255 255 61 61 61 155 155 155 255 255 255 255 255 255 255 255 255 255 255 255 255 255 255 255 255 255 255 255 255 255 255 255 255 255 255 255 255 255 255 255 255 255 255 255 255 255 255 61 61 61 61 61 61 155 155 155 255 255 255 255 255 255 255 255 255 255 255 255 255 255 255 255 255 255 255 255 255 255 255 255 255 255 255 255 255 255 255 255 255 255 255 255 61 61 61 61 61 61 61 61 61 155 155 155 255 255 255 255 255 255 255 255 255 255 255 255 255 255 255 255 255 255 255 255 255 255 255 255 255 255 255 255 255 255 255 255 255 255 255 255 61 61 61 61 61 61 61 61 61 155 155 155 255 255 255 255 255 255 255 255 255 255 255 255 255 255 255 255 255 255 255 255 255 255 255 255 255 255 255 255 255 255 255 255 255 255 255 255 61 61 61 61 61 61 61 61 61 155 155 155 155 155 155 255 255 255 255 255 255 255 255 255 255 255 255 255 255 255 255 255 255 255 255 255 255 255 255 255 255 255 255 255 255 255 255 255 61 61 61 61 61 61 61 61 61 155 155 155 155 155 155 61 61 61 61 61 61 255 255 255 255 255 255 255 255 255 255 255 255 155 155 155 61 61 61 255 255 255 255 255 255 255 255 255 61 61 61 61 61 61 61 61 61 155 155 155 155 155 155 61 61 61 61 61 61 255 255 255 61 61 61 255 255 255 255 255 255 155 155 155 61 61 61 255 255 255 255 255 255 255 255 255 61 61 61 61 61 61 61 61 61 155 155 155 155 155 155 61 61 61 61 61 61 255 255 255 61 61 61 255 255 255 255 255 255 0 0 0 0 0 0 0 0 0 0 0 0 0 0 0 0 0 0 0 0 0 0 0 0 0 0 0 0 0 0 0 0 0 0 0 0 0 0 0 0 0 0 0 0 0 0 0 0 249 249 249 249 249 249 249 249 249 249 249 249 249 249 249 249 249 249 249 249 249 249 249 249 249 249 249 249 249 249 
249 249 249 249 249 249 249 249 249 249 249 249 249 249 249 249 249 249 249 249 249 249 249 249 249 249 249 250 250 250 99 99 99 101 101 101 0 0 0 0 0 0 0 0 0 0 0 0 0 0 0 0 0 0 0 0 0 0 0 0 0 0 0 0 0 0 0 0 0 0 0 0 0 0 0 0 0 0 0 0 0 0 0 0 0 0 0 255 255 255 255 255 255 0 0 0 0 0 0 0 0 0 0 0 0 0 0 0 0 0 0 0 0 0 252 0 0 252 161 0 252 252 0 252 87 0 252 87 0 252 161 0 252 87 0 252 0 0 252 0 0 252 0 0 252 0 0 252 87 0 252 161 0 252 252 0 252 161 0 252 0 0 252 0 0 252 161 0 252 252 0 252 87 0 252 87 0 252 161 0 252 87 0 252 0 0 252 0 0 252 0 0 252 0 0 252 87 0 252 161 0 252 252 0 252 161 0 252 0 0 
255 255 255 255 255 255 255 255 255 255 255 255 255 255 255 255 255 255 255 255 255 255 255 255 255 255 255 255 255 255 255 255 255 255 255 255 255 255 255 255 255 255 255 255 255 255 255 255 255 255 255 255 255 255 255 255 255 255 255 255 255 255 255 255 255 255 255 255 255 255 255 255 255 255 255 255 255 255 255 255 255 255 255 255 255 255 255 255 255 255 255 255 255 255 255 255 255 255 255 255 255 255 255 255 255 255 255 255 255 255 255 255 255 255 255 255 255 155 155 155 255 255 255 255 255 255 255 255 255 255 255 255 255 255 255 255 255 255 255 255 255 255 255 255 255 255 255 255 255 255 255 255 255 255 255 255 255 255 255 255 255 255 155 155 155 155 155 155 255 255 255 255 255 255 255 255 255 255 255 255 255 255 255 255 255 255 255 255 255 255 255 255 255 255 255 255 255 255 255 255 255 255 255 255 255 255 255 155 155 155 155 155 155 155 155 155 61 61 61 255 255 255 255 255 255 255 255 255 255 255 255 255 255 255 255 255 255 255 255 255 255 255 255 255 255 255 255 255 255 255 255 255 61 61 61 155 155 155 155 155 155 155 155 155 61 61 61 255 255 255 255 255 255 255 255 255 255 255 255 255 255 255 255 255 255 255 255 255 255 255 255 255 255 255 255 255 255 255 255 255 61 61 61 155 155 155 155 155 155 155 155 155 61 61 61 255 255 255 255 255 255 255 255 255 255 255 255 255 255 255 255 255 255 255 255 255 255 255 255 61 61 61 255 255 255 255 255 255 61 61 61 155 155 155 155 155 155 155 155 155 61 61 61 255 255 255 155 155 155 155 155 155 255 255 255 255 255 255 255 255 255 255 255 255 255 255 255 61 61 61 255 255 255 255 255 255 61 61 61 155 155 155 155 155 155 155 155 155 61 61 61 255 255 255 155 155 155 155 155 155 255 255 255 155 155 155 255 255 255 255 255 255 255 255 255 61 61 61 255 255 255 255 255 255 61 61 61 155 155 155 155 155 155 155 155 155 61 61 61 255 255 255 155 155 155 155 155 155 255 255 255 155 155 155 61 61 61 61 61 61 0 0 0 0 0 0 0 0 0 0 0 0 0 0 0 0 0 0 0 0 0 0 0 0 0 0 0 0 0 0 0 0 0 0 0 0 0 0 0 0 0 0 0 0 0 0 0 0 101 101 101 101 101 101 101 101 101 101 101 101 101 101 101 101 101 101 
101 101 101 101 101 101 101 101 101 101 101 101 101 101 101 101 101 101 101 101 101 101 101 101 101 101 101 101 101 101 101 101 101 101 101 101 101 101 101 101 101 101 0 0 0 0 0 0 0 0 0 0 0 0 0 0 0 0 0 0 0 0 0 0 0 0 0 0 0 0 0 0 0 0 0 0 0 0 0 0 0 0 0 0 0 0 0 0 0 0 0 0 0 0 0 0 0 0 0 0 0 0 0 0 0 0 0 0 0 0 0 0 0 0 0 0 0 0 0 0 0 0 0 0 0 0 252 0 0 252 252 0 252 252 0 252 87 0 252 252 0 252 252 0 252 161 0 252 0 0 205 0 0 252 0 0 252 0 0 252 87 0 252 252 0 252 252 0 252 87 0 252 0 0 252 0 0 252 252 0 252 252 0 252 87 0 252 252 0 252 252 0 252 161 0 252 0 0 205 0 0 252 0 0 252 0 0 252 87 0 252 252 0 252 252 0 252 87 0 252 0 0 
255 255 255 255 255 255 255 255 255 255 255 255 255 255 255 255 255 255 255 255 255 255 255 255 255 255 255 255 255 255 255 255 255 255 255 255 255 255 255 255 255 255 255 255 255 255 255 255 255 255 255 255 255 255 255 255 255 255 255 255 255 255 255 255 255 255 255 255 255 255 255 255 255 255 255 255 255 255 255 255 255 255 255 255 255 255 255 255 255 255 255 255 255 255 255 255 255 255 255 255 255 255 255 255 255 255 255 255 255 255 255 255 255 255 255 255 255 255 255 255 255 255 255 255 255 255 255 255 255 255 255 255 255 255 255 255 255 255 255 255 255 255 255 255 255 255 255 255 255 255 255 255 255 255 255 255 255 255 255 255 255 255 255 255 255 255 255 255 255 255 255 255 255 255 255 255 255 255 255 255 255 255 255 255 255 255 255 255 255 255 255 255 255 255 255 255 255 255 255 255 255 255 255 255 255 255 255 255 255 255 255 255 255 255 255 255 155 155 155 255 255 255 255 255 255 255 255 255 255 255 255 255 255 255 255 255 255 255 255 255 255 255 255 255 255 255 255 255 255 255 255 255 155 155 155 255 255 255 255 255 255 255 255 255 155 155 155 61 61 61 255 255 255 255 255 255 255 255 255 255 255 255 255 255 255 255 255 255 255 255 255 255 255 255 255 255 255 61 61 61 155 155 155 255 255 255 255 255 255 255 255 255 155 155 155 61 61 61 61 61 61 61 61 61 255 255 255 255 255 255 255 255 255 255 255 255 255 255 255 155 155 155 61 61 61 61 61 61 155 155 155 255 255 255 255 255 255 255 255 255 155 155 155 61 61 61 61 61 61 61 61 61 255 255 255 255 255 255 255 255 255 255 255 255 255 255 255 155 155 155 61 61 61 61 61 61 155 155 155 255 255 255 255 255 255 255 255 255 155 155 155 61 61 61 61 61 61 61 61 61 255 255 255 255 255 255 255 255 255 255 255 255 255 255 255 155 155 155 61 61 61 61 61 61 155 155 155 255 255 255 255 255 255 255 255 255 155 155 155 61 61 61 61 61 61 61 61 61 255 255 255 255 255 255 155 155 155 155 155 155 0 0 0 0 0 0 0 0 0 0 0 0 0 0 0 0 0 0 0 0 0 0 0 0 0 0 0 0 0 0 0 0 0 0 0 0 0 0 0 0 0 0 0 0 0 0 0 0 0 0 0 0 0 0 0 0 0 0 0 0 0 0 0 0 0 0 0 0 0 0 0 0 0 0 0 0 0 0 0 0 0 0 0 0 0 0 0 0 0 0 
0 0 0 0 0 0 0 0 0 0 0 0 0 0 0 0 0 0 0 0 0 0 0 0 0 0 0 0 0 0 0 0 0 0 0 0 0 0 0 0 0 0 0 0 0 0 0 0 0 0 0 0 0 0 0 0 0 0 0 0 0 0 0 0 0 0 0 0 0 0 0 0 0 0 0 0 0 0 0 0 0 255 255 255 0 0 0 0 0 0 0 0 0 0 0 0 0 0 0 0 0 0 252 0 0 252 87 0 252 161 0 252 87 0 252 87 0 252 87 0 252 87 0 252 0 0 252 87 0 252 87 0 252 0 0 252 87 0 252 161 0 252 87 0 252 0 0 252 0 0 252 0 0 252 87 0 252 161 0 252 87 0 252 87 0 252 87 0 252 87 0 252 0 0 252 87 0 252 87 0 252 0 0 252 87 0 252 161 0 252 87 0 252 0 0 252 0 0 
255 255 255 255 255 255 255 255 255 255 255 255 255 255 255 255 255 255 255 255 255 255 255 255 255 255 255 255 255 255 255 255 255 255 255 255 255 255 255 255 255 255 255 255 255 255 255 255 255 255 255 255 255 255 255 255 255 255 255 255 255 255 255 255 255 255 255 255 255 255 255 255 255 255 255 255 255 255 255 255 255 255 255 255 255 255 255 255 255 255 255 255 255 255 255 255 255 255 255 255 255 255 255 255 255 255 255 255 255 255 255 255 255 255 255 255 255 255 255 255 255 255 255 255 255 255 255 255 255 255 255 255 255 255 255 255 255 255 255 255 255 255 255 255 255 255 255 255 255 255 255 255 255 255 255 255 255 255 255 255 255 255 255 255 255 255 255 255 255 255 255 255 255 255 255 255 255 255 255 255 255 255 255 255 255 255 255 255 255 255 255 255 255 255 255 255 255 255 255 255 255 255 255 255 255 255 255 255 255 255 255 255 255 255 255 255 255 255 255 255 255 255 255 255 255 255 255 255 255 255 255 255 255 255 255 255 255 255 255 255 255 255 255 255 255 255 255 255 255 255 255 255 255 255 255 255 255 255 255 255 255 255 255 255 255 255 255 155 155 155 255 255 255 255 255 255 255 255 255 255 255 255 255 255 255 255 255 255 255 255 255 255 255 255 255 255 255 155 155 155 255 255 255 255 255 255 255 255 255 255 255 255 255 255 255 155 155 155 155 155 155 155 155 155 255 255 255 255 255 255 255 255 255 255 255 255 255 255 255 255 255 255 155 155 155 155 155 155 61 61 61 255 255 255 255 255 255 255 255 255 61 61 61 155 155 155 155 155 155 155 155 155 61 61 61 255 255 255 255 255 255 255 255 255 255 255 255 255 255 255 61 61 61 155 155 155 61 61 61 61 61 61 255 255 255 255 255 255 61 61 61 155 155 155 155 155 155 155 155 155 61 61 61 61 61 61 255 255 255 255 255 255 255 255 255 255 255 255 61 61 61 155 155 155 61 61 61 61 61 61 255 255 255 255 255 255 61 61 61 155 155 155 155 155 155 155 155 155 61 61 61 61 61 61 255 255 255 255 255 255 0 0 0 0 0 0 0 0 0 0 0 0 0 0 0 0 0 0 0 0 0 0 0 0 0 0 0 0 0 0 0 0 0 0 0 0 0 0 0 0 0 0 0 0 0 0 0 0 0 0 0 0 0 0 0 0 0 0 0 0 0 0 0 0 0 0 0 0 0 0 0 0 0 0 0 0 0 0 0 0 0 0 0 0 
0 0 0 0 0 0 0 0 0 0 0 0 0 0 0 0 0 0 0 0 0 0 0 0 0 0 0 0 0 0 0 0 0 0 0 0 0 0 0 0 0 0 0 0 0 0 0 0 0 0 0 0 0 0 0 0 0 0 0 0 0 0 0 0 0 0 255 255 255 255 255 255 0 0 0 0 0 0 255 255 255 0 0 0 255 255 255 255 255 255 0 0 0 0 0 0 255 255 255 0 0 0 0 0 0 255 255 255 205 0 0 252 0 0 252 87 0 252 0 0 205 0 0 252 0 0 252 0 0 252 87 0 252 161 0 252 161 0 252 87 0 252 0 0 252 87 0 252 0 0 252 0 0 205 0 0 205 0 0 252 0 0 252 87 0 252 0 0 205 0 0 252 0 0 252 0 0 252 87 0 252 161 0 252 161 0 252 87 0 252 0 0 252 87 0 252 0 0 252 0 0 205 0 0 
255 255 255 255 255 255 255 255 255 255 255 255 255 255 255 255 255 255 255 255 255 255 255 255 255 255 255 255 255 255 255 255 255 255 255 255 255 255 255 255 255 255 255 255 255 255 255 255 255 255 255 255 255 255 255 255 255 255 255 255 255 255 255 255 255 255 255 255 255 255 255 255 255 255 255 255 255 255 255 255 255 255 255 255 255 255 255 255 255 255 255 255 255 255 255 255 255 255 255 255 255 255 255 255 255 255 255 255 255 255 255 255 255 255 255 255 255 255 255 255 255 255 255 255 255 255 255 255 255 255 255 255 255 255 255 255 255 255 255 255 255 255 255 255 255 255 255 255 255 255 255 255 255 255 255 255 255 255 255 255 255 255 255 255 255 255 255 255 255 255 255 255 255 255 255 255 255 255 255 255 255 255 255 255 255 255 255 255 255 255 255 255 255 255 255 255 255 255 255 255 255 255 255 255 255 255 255 255 255 255 255 255 255 255 255 255 255 255 255 255 255 255 255 255 255 255 255 255 255 255 255 255 255 255 255 255 255 255 255 255 255 255 255 255 255 255 255 255 255 255 255 255 255 255 255 255 255 255 255 255 255 255 255 255 255 255 255 255 255 255 255 255 255 255 255 255 255 255 255 255 255 255 255 255 255 255 255 255 255 255 255 255 255 255 255 255 255 255 255 255 255 255 255 255 255 255 255 255 255 255 255 255 255 255 255 255 255 255 255 255 255 255 255 255 255 255 255 255 255 255 255 255 255 255 255 255 255 255 255 255 255 255 255 255 255 255 255 255 155 155 155 255 255 255 255 255 255 255 255 255 155 155 155 255 255 255 255 255 255 255 255 255 155 155 155 255 255 255 255 255 255 255 255 255 255 255 255 255 255 255 155 155 155 255 255 255 155 155 155 155 155 155 255 255 255 255 255 255 61 61 61 255 255 255 255 255 255 255 255 255 155 155 155 155 155 155 61 61 61 255 255 255 255 255 255 255 255 255 61 61 61 255 255 255 155 155 155 155 155 155 255 255 255 255 255 255 61 61 61 255 255 255 255 255 255 255 255 255 155 155 155 155 155 155 61 61 61 255 255 255 0 0 0 0 0 0 0 0 0 0 0 0 0 0 0 0 0 0 0 0 0 0 0 0 0 0 0 0 0 0 0 0 0 0 0 0 0 0 0 0 0 0 0 0 0 0 0 0 0 0 0 0 0 0 0 0 0 0 0 0 0 0 0 0 0 0 0 0 0 
0 0 0 0 0 0 0 0 0 0 0 0 0 0 0 0 0 0 0 0 0 0 0 0 0 0 0 0 0 0 0 0 0 0 0 0 0 0 0 0 0 0 0 0 0 0 0 0 0 0 0 0 0 0 0 0 0 0 0 0 0 0 0 0 0 0 0 0 0 0 0 0 0 0 0 255 255 255 255 255 255 255 255 255 255 255 255 255 255 255 255 255 255 255 255 255 255 255 255 255 255 255 255 255 255 255 255 255 255 255 255 255 255 255 255 255 255 255 255 255 255 255 255 205 0 0 252 0 0 252 87 0 252 0 0 252 0 0 252 0 0 205 0 0 205 0 0 252 161 0 252 87 0 252 0 0 252 0 0 252 0 0 252 0 0 205 0 0 205 0 0 205 0 0 252 0 0 252 87 0 252 0 0 252 0 0 252 0 0 205 0 0 205 0 0 252 161 0 252 87 0 252 0 0 252 0 0 252 0 0 252 0 0 205 0 0 205 0 0 
